!!!COM: Mozart, Wolfgang Amadeus
!!!OPR: Symphony in C Major
!!!OTL: Andante cantabile
!!!OMV: 2
!!!SCT: K 551
!!!SCA: Chronologisch-thematisches Verzeichnis sämtlicher Tonwerke Wolfgang Amade Mozarts (L. von Köchel; 1862, 2/1905, 3/1937, 1947)
!!!YOR: Breitkopf & Härtel Edition
!!!EED: Frances Bennion
!!!ENC: Frances Bennion
!!!CDT: 1756/1/27/-1791/12/5/
!!!OCY: Österreich
!!!YEC: Copyright (c) 1994, 2000 Center for Computer Assisted Research in the Humanities
!!!YEM: Rights to all derivative editions reserved.
!!!YEM: Refer to licensing agreement for further details.
!!!YEN: United States of America
**kern	**dynam	**kern	**dynam	**kern	**dynam	**kern	**dynam	**kern	**dynam	**kern	**dynam	**kern	**dynam	**kern	**dynam
*I:Flauto	*I:Flauto	*I:Oboe 1, 2	*I:Oboe 1, 2	*I:Fagotto 1, 2	*I:Fagotto 1, 2	*I:Corno 1, 2 in F	*I:Corno 1, 2 in F	*I:Violino I	*I:Violino I	*I:Violino II	*I:Violino II	*I:Viola	*I:Viola	*I:Violoncello e Basso	*I:Violoncello e Basso
*>[A,A,B]	*	*>[A,A,B]	*	*>[A,A,B]	*	*>[A,A,B]	*	*>[A,A,B]	*	*>[A,A,B]	*	*>[A,A,B]	*	*>[A,A,B]	*
*>A	*	*>A	*	*>A	*	*>A	*	*>A	*	*>A	*	*>A	*	*>A	*
*clefG2	*	*clefG2	*	*clefF4	*	*clefG2	*	*clefG2	*	*clefG2	*	*clefC3	*	*clefF4	*
*k[b-]	*	*k[b-]	*	*k[b-]	*	*k[]	*	*k[b-]	*	*k[b-]	*	*k[b-]	*	*k[b-]	*
*F:	*	*F:	*	*F:	*	*F:	*	*F:	*	*F:	*	*F:	*	*F:	*
*M3/4	*	*M3/4	*	*M3/4	*	*M3/4	*	*M3/4	*	*M3/4	*	*M3/4	*	*M3/4	*
! Andante cantabile.	!	!	!	!	!	!	!	!	!	!	!	!	!	!	!
=1-	=1-	=1-	=1-	=1-	=1-	=1-	=1-	=1-	=1-	=1-	=1-	=1-	=1-	=1-	=1-
*	*	*^	*	*^	*	*^	*	*	*	*	*	*	*	*	*
!	!	!	!	!	!	!	!	!	!	!	! con sordino	!	!	!	!	!	!	!
2.r	.	2.r	2.r	.	2.r	2.r	.	2.r	2.r	.	(8.f/L	p	4r	.	4r	.	4r	.
.	.	.	.	.	.	.	.	.	.	.	16c/Jk)	.	.	.	.	.	.	.
.	.	.	.	.	.	.	.	.	.	.	(4..a/	.	4r	.	4r	.	4r	.
!	!	!	!	!	!	!	!	!	!	!	!	!	! con sordino	!	! con sordino	!	!	!
.	.	.	.	.	.	.	.	.	.	.	.	.	(4A/	p	[4c\	p	(4F\	p
.	.	.	.	.	.	.	.	.	.	.	32g/LLL	.	.	.	.	.	.	.
.	.	.	.	.	.	.	.	.	.	.	32f/JJJ	.	.	.	.	.	.	.
=2	=2	=2	=2	=2	=2	=2	=2	=2	=2	=2	=2	=2	=2	=2	=2	=2	=2	=2
4r	.	4r	4r	.	4r	4r	.	4r	4r	.	8e/)	.	8B-/)	.	8c\]	.	8G\)	.
.	.	.	.	.	.	.	.	.	.	.	8r	.	8r	.	8r	.	8r	.
8bb-'\	f	8gg'\	8ee\	f	8e'\	8B-\	f	8dd'\	8g\	f	8b-'\	f	8e/ 8G'/	f	8C'/	f	8C'/	f
8r	.	8r	8r	.	8r	8r	.	8r	8r	.	8r	.	8r	.	8r	.	8r	.
4r	.	4r	4r	.	4r	4r	.	4r	4r	.	4r	.	4r	.	4r	.	4r	.
=3	=3	=3	=3	=3	=3	=3	=3	=3	=3	=3	=3	=3	=3	=3	=3	=3	=3	=3
2.r	.	2.r	2.r	.	2.r	2.r	.	2.r	2.r	.	(8.g/L	p	4r	.	4r	.	4r	.
.	.	.	.	.	.	.	.	.	.	.	16c/Jk)	.	.	.	.	.	.	.
.	.	.	.	.	.	.	.	.	.	.	(4..b-\	.	4r	.	4r	.	4r	.
.	.	.	.	.	.	.	.	.	.	.	.	.	(4e/	p	[4c\	p	(4B-\	p
.	.	.	.	.	.	.	.	.	.	.	32a/LLL	.	.	.	.	.	.	.
.	.	.	.	.	.	.	.	.	.	.	32g/JJJ	.	.	.	.	.	.	.
=4	=4	=4	=4	=4	=4	=4	=4	=4	=4	=4	=4	=4	=4	=4	=4	=4	=4	=4
4r	.	4r	4r	.	4r	4r	.	4r	4r	.	8f/)	.	8f/)	.	8c\]	.	8A\)	.
.	.	.	.	.	.	.	.	.	.	.	8r	.	8r	.	8r	.	8r	.
8ccc'\	f	8ff'\	8cc\	f	8f'\	8c\	f	8cc/	8c'/	f	8cc'\	f	8f/ 8A'/	f	8A'/	f	8AA'/	f
8r	.	8r	8r	.	8r	8r	.	8r	8r	.	8r	.	8r	.	8r	.	8r	.
4r	.	4r	4r	.	4r	4r	.	4r	4r	.	4r	.	4r	.	4r	.	4r	.
=5	=5	=5	=5	=5	=5	=5	=5	=5	=5	=5	=5	=5	=5	=5	=5	=5	=5	=5
2.r	.	2.r	2.r	.	2.r	2.r	.	2.r	2.r	.	(8.ff\L	p	(8.f/L	p	2.r	.	2.r	.
.	.	.	.	.	.	.	.	.	.	.	16cc\Jk)	.	16c/Jk)	.	.	.	.	.
.	.	.	.	.	.	.	.	.	.	.	(8.aa\L	.	(8.a/L	.	.	.	.	.
.	.	.	.	.	.	.	.	.	.	.	48gg\LL	.	48g/LL	.	.	.	.	.
.	.	.	.	.	.	.	.	.	.	.	48ff\	.	48f/	.	.	.	.	.
.	.	.	.	.	.	.	.	.	.	.	48ee\JJJ	.	48e/JJJ	.	.	.	.	.
.	.	.	.	.	.	.	.	.	.	.	16gg\LL	.	16g/LL	.	.	.	.	.
.	.	.	.	.	.	.	.	.	.	.	16ff\	.	16f/	.	.	.	.	.
.	.	.	.	.	.	.	.	.	.	.	16ee\	.	16e/	.	.	.	.	.
.	.	.	.	.	.	.	.	.	.	.	16dd\JJ)	.	16d/JJ)	.	.	.	.	.
=6	=6	=6	=6	=6	=6	=6	=6	=6	=6	=6	=6	=6	=6	=6	=6	=6	=6	=6
2.r	.	2.r	2.r	.	2.r	2.r	.	2.r	2.r	.	(8cc\L	.	(8c/L	.	4r	.	4r	.
.	.	.	.	.	.	.	.	.	.	.	8bn\J	.	8Bn/J	.	.	.	.	.
.	.	.	.	.	.	.	.	.	.	.	4b-\	.	4B-/	.	(4E/	p	(4C#/	p
.	.	.	.	.	.	.	.	.	.	.	4a/)	.	4A/)	.	4F/)	.	4D/)	.
=7	=7	=7	=7	=7	=7	=7	=7	=7	=7	=7	=7	=7	=7	=7	=7	=7	=7	=7
*	*	*v	*v	*	*	*	*	*	*	*	*	*	*	*	*	*	*	*
!	!	! a 2.	!	!	!	!	!	!	!	!	!	!	!	!	!	!	!
!	!	!	!	!	!	!	!	!	!	!	!	!	!	!	!	!	!
2.r	.	[4dd\	f	2.d\	2.B-\	f	2.cc\	2.c/	f	[4dd\	f	(16d/LL	f	(16B-\LL	f	8BB-/L	f
.	.	.	.	.	.	.	.	.	.	.	.	16f/)	.	16d\)	.	.	.
.	.	.	.	.	.	.	.	.	.	.	.	16f'/	.	16d'\	.	8BB-/	.
.	.	.	.	.	.	.	.	.	.	.	.	16f'/JJ	.	16d'\JJ	.	.	.
.	.	32dd\LLL]	.	.	.	.	.	.	.	32dd\LLL]	.	(16d/LL	.	(16B-\LL	.	8BB-/	.
.	.	(32ee\	.	.	.	.	.	.	.	(32ee\	.	.	.	.	.	.	.
.	.	32dd\	.	.	.	.	.	.	.	32dd\	.	16f/)	.	16d\)	.	.	.
.	.	32cc#\JJJ	.	.	.	.	.	.	.	32cc#\JJJ	.	.	.	.	.	.	.
.	.	16dd\LL	.	.	.	.	.	.	.	16dd\LL	.	16f'/	.	16d'\	.	8BB-/	.
.	.	16ee\JJ	.	.	.	.	.	.	.	16ee\JJ	.	16f'/JJ	.	16d'\JJ	.	.	.
.	.	16gg\LL	.	.	.	.	.	.	.	16gg\LL	.	(16d/LL	.	(16B-\LL	.	8BB-/	.
.	.	16ff\	.	.	.	.	.	.	.	16ff\	.	16f/)	.	16d\)	.	.	.
.	.	16ee\	.	.	.	.	.	.	.	16ee\	.	16f'/	.	16d'\	.	8BB-/J	.
.	.	16dd\JJ)	.	.	.	.	.	.	.	16dd\JJ)	.	16f'/JJ	.	16d'\JJ	.	.	.
=8	=8	=8	=8	=8	=8	=8	=8	=8	=8	=8	=8	=8	=8	=8	=8	=8	=8
2.r	.	(8.dd\L	.	(2c\	(2A\	.	2.g/	2.G/	.	(8.dd\L	.	(16A/LL	.	(16F/LL	.	8Cn/L	.
.	.	.	.	.	.	.	.	.	.	.	.	16f/)	.	16A/)	.	.	.
.	.	.	.	.	.	.	.	.	.	.	.	16f'/	.	16A'/	.	8C/	.
.	.	16ccn\Jk)	.	.	.	.	.	.	.	16ccn\Jk)	.	16f'/JJ	.	16A'/JJ	.	.	.
.	.	[4cc\	.	.	.	.	.	.	.	[4cc\	.	(16A/LL	.	(16F/LL	.	8C/	.
.	.	.	.	.	.	.	.	.	.	.	.	16f/)	.	16A/)	.	.	.
.	.	.	.	.	.	.	.	.	.	.	.	16f'/	.	16A'/	.	8C/	.
.	.	.	.	.	.	.	.	.	.	.	.	16f'/JJ	.	16A'/JJ	.	.	.
.	.	(16cc\LL]	.	4B-\)	4G\)	.	.	.	.	(16cc\LL]	.	(16G/LL	.	(16E/LL	.	8C/	.
.	.	16cc#\	.	.	.	.	.	.	.	16cc#\	.	16e/)	.	16G/)	.	.	.
.	.	16dd\	.	.	.	.	.	.	.	16dd\	.	16e'/	.	16G'/	.	8C/J	.
.	.	16b-\JJ)	.	.	.	.	.	.	.	16b-\JJ)	.	16e'/JJ	.	16G'/JJ	.	.	.
=9	=9	=9	=9	=9	=9	=9	=9	=9	=9	=9	=9	=9	=9	=9	=9	=9	=9
*	*	*	*	*v	*v	*	*	*	*	*	*	*	*	*	*	*	*
!	!	!	!	! I.	!	!	!	!	!	!	!	!	!	!	!	!
!	!	!	!	!	!	!	!	!	!	!	!	!	!	!	!	!
[4aa\	p	8a/	.	[4A\	p	2.r	2.r	.	[4a/	p	(16A/LL	p	(16E/LL	p	8C#/L	p
.	.	.	.	.	.	.	.	.	.	.	16g/)	.	16e/)	.	.	.
.	.	8r	.	.	.	.	.	.	.	.	16g'/	.	16e'/	.	8C#/	.
.	.	.	.	.	.	.	.	.	.	.	16g'/JJ	.	16e'/JJ	.	.	.
16aa\LL]	.	4r	.	16A\LL]	.	.	.	.	(16a/LL]	.	(16A/LL	.	(16F/LL	.	8D/	.
(32bb-\L	.	.	.	(32B-\L	.	.	.	.	32b-/L	.	16f/)	.	16d/)	.	.	.
32aa\	.	.	.	32A\	.	.	.	.	32a/	.	.	.	.	.	.	.
32gg#\	.	.	.	32G#\	.	.	.	.	32g#/	.	16f'/	.	16d'/	.	8D/	.
32aa\	.	.	.	32A\	.	.	.	.	32a/	.	.	.	.	.	.	.
32gg#\	.	.	.	32G#\	.	.	.	.	32g#/	.	16f'/JJ	.	16d'/JJ	.	.	.
32aa\JJJ	.	.	.	32A\JJJ	.	.	.	.	32a/JJJ	.	.	.	.	.	.	.
16ccc\LL	.	4r	.	16c\LL	.	.	.	.	16ccn/LL	.	(16G/LL	.	(16D/LL	.	8BB-/	.
16bb-\	.	.	.	16B-\	.	.	.	.	16b-/	.	16d/)	.	16B-/)	.	.	.
16aa\	.	.	.	16A\	.	.	.	.	16a/	.	16d'/	.	16B-'/	.	8BB-/J	.
16ggn\JJ)	.	.	.	16Gn\JJ)	.	.	.	.	16gn/JJ)	.	16d'/JJ	.	16B-'/JJ	.	.	.
=10	=10	=10	=10	=10	=10	=10	=10	=10	=10	=10	=10	=10	=10	=10	=10	=10
*	*	*^	*	*	*	*	*	*	*	*	*	*	*	*	*	*
(16.ccc\LL	.	2.r	2.r	.	(16.c\LL	.	2.r	2.r	.	(16.cc/LL	.	(16A/LL	.	(16C/LL	.	8Cn/L	.
.	.	.	.	.	.	.	.	.	.	.	.	16c/)	.	16A/)	.	.	.
32aa\JJk	.	.	.	.	32A\JJk	.	.	.	.	32a/JJk	.	.	.	.	.	.	.
4ff\	.	.	.	.	4F\	.	.	.	.	4f/	.	16c'/	.	16A'/	.	8C/	.
.	.	.	.	.	.	.	.	.	.	.	.	16c'/JJ	.	16A'/JJ	.	.	.
.	.	.	.	.	.	.	.	.	.	.	.	(16A/LL	.	(16C/LL	.	8C/	.
.	.	.	.	.	.	.	.	.	.	.	.	16c/)	.	16A/)	.	.	.
16gg\LL	.	.	.	.	16G\LL	.	.	.	.	16g/LL	.	16c'/	.	16A'/	.	8C/	.
16aa\JJ)	.	.	.	.	16A\JJ)	.	.	.	.	16a/JJ)	.	16c'/JJ	.	16A'/JJ	.	.	.
(16aa\LL	.	.	.	.	(16A\LL	.	.	.	.	(16a/LL	.	(16B-/LL	.	(16C/LL	.	8C/	.
16gg\	.	.	.	.	16G\	.	.	.	.	16g/	.	16c/)	.	16B-/)	.	.	.
16ff\	.	.	.	.	16F\	.	.	.	.	16f/	.	16c'/	.	16B-'/	.	8C/J	.
16ee\JJ)	.	.	.	.	16E\JJ)	.	.	.	.	16e/JJ)	.	16c'/JJ	.	16B-'/JJ	.	.	.
=11	=11	=11	=11	=11	=11	=11	=11	=11	=11	=11	=11	=11	=11	=11	=11	=11	=11
*	*	*	*	*	*^	*	*	*	*	*	*	*	*	*	*	*	*
4ff\	.	2.r	2.r	.	8F/L	8r	.	8r	8r	.	4f/	.	4c/	.	8A/	.	(8.F\L	.
.	.	.	.	.	8A/	8F\L	p	8g/L	8G/L	p	.	.	.	.	8r	.	.	.
.	.	.	.	.	.	.	.	.	.	.	.	.	.	.	.	.	16C\Jk)	.
4r	.	.	.	.	8A/	8F\	.	8g/	8G/	.	4r	.	4r	.	(4..A/	.	(4..A\	.
.	.	.	.	.	8A/	8F\	.	8g/	8G/	.	.	.	.	.	.	.	.	.
4r	.	.	.	.	8A/	8F\	.	8g/	8G/	.	4r	.	4r	.	.	.	.	.
.	.	.	.	.	8A/J	8F\J	.	8g/J	8G/J	.	.	.	.	.	.	.	.	.
.	.	.	.	.	.	.	.	.	.	.	.	.	.	.	32G/LLL	.	32G\LLL	.
.	.	.	.	.	.	.	.	.	.	.	.	.	.	.	32F/JJJ	.	32F\JJJ	.
=12	=12	=12	=12	=12	=12	=12	=12	=12	=12	=12	=12	=12	=12	=12	=12	=12	=12	=12
2.r	.	2.r	2.r	.	8B-\L	8G\L	.	8g/L	8G/L	.	4r	.	4r	.	8E/)	.	8E\)	.
.	.	.	.	.	8B-\	8G\	.	8g/	8G/	.	.	.	.	.	8r	.	8r	.
.	.	.	.	.	8B-\	8G\	.	8g/	8G/	.	32r	.	32r	.	8B-'/	f	8B-'\	f
.	.	.	.	.	.	.	.	.	.	.	(32ff#\LLL	.	(32f#/LLL	.	.	.	.	.
.	.	.	.	.	.	.	.	.	.	.	32gg\	.	32g/	.	.	.	.	.
.	.	.	.	.	.	.	.	.	.	.	32ff#\JJJ	.	32f#/JJJ	.	.	.	.	.
.	.	.	.	.	8B-\	8G\	.	8g/	8G/	.	32gg\LLL	.	32g/LLL	.	8r	.	8r	.
.	.	.	.	.	.	.	.	.	.	.	32aa\	.	32a/	.	.	.	.	.
.	.	.	.	.	.	.	.	.	.	.	32bb-\	.	32b-/	.	.	.	.	.
.	.	.	.	.	.	.	.	.	.	.	32aa\JJJ	.	32a/JJJ	.	.	.	.	.
.	.	.	.	.	8B-\	8G\	.	8g/	8G/	.	32bb-\LLL	.	32b-/LLL	.	4r	.	4r	.
.	.	.	.	.	.	.	.	.	.	.	32ccc#\	.	32cc#/	.	.	.	.	.
.	.	.	.	.	.	.	.	.	.	.	32ddd\	.	32dd/	.	.	.	.	.
.	.	.	.	.	.	.	.	.	.	.	32aa\JJJ	.	32a/JJJ	.	.	.	.	.
.	.	.	.	.	8B-\J	8G\J	.	8g/J	8G/J	.	32cccn\LLL	.	32ccn/LLL	.	.	.	.	.
.	.	.	.	.	.	.	.	.	.	.	32bb-\	.	32b-/	.	.	.	.	.
.	.	.	.	.	.	.	.	.	.	.	32aa\	.	32a/	.	.	.	.	.
.	.	.	.	.	.	.	.	.	.	.	32gg\JJJ)	.	32g/JJJ)	.	.	.	.	.
=13	=13	=13	=13	=13	=13	=13	=13	=13	=13	=13	=13	=13	=13	=13	=13	=13	=13	=13
2.r	.	2.r	2.r	.	8B-\L	8G\L	.	8g/L	8G/L	.	(4ffn\	.	(4fn/	.	(8.G/L	p	(8.G\L	p
.	.	.	.	.	8B-\	8G\	.	8g/	8G/	.	.	.	.	.	.	.	.	.
.	.	.	.	.	.	.	.	.	.	.	.	.	.	.	16C/Jk)	.	16C\Jk)	.
.	.	.	.	.	8B-\	8G\	.	8g/	8G/	.	8ee\)	.	8e/)	.	(4..B-/	.	(4..B-\	.
.	.	.	.	.	8G\	8E\	.	8g/	8G/	.	8r	.	8r	.	.	.	.	.
.	.	.	.	.	8G\	8E\	.	8g/	8G/	.	4r	.	4r	.	.	.	.	.
.	.	.	.	.	8G\J	8E\J	.	8g/J	8G/J	.	.	.	.	.	.	.	.	.
.	.	.	.	.	.	.	.	.	.	.	.	.	.	.	32A/LLL	.	32A\LLL	.
.	.	.	.	.	.	.	.	.	.	.	.	.	.	.	32G/JJJ	.	32G\JJJ	.
=14	=14	=14	=14	=14	=14	=14	=14	=14	=14	=14	=14	=14	=14	=14	=14	=14	=14	=14
2.r	.	2.r	2.r	.	8A\L	8F\L	.	8g/L	8G/L	.	4r	.	4r	.	8F/)	.	8F\)	.
.	.	.	.	.	8c\	8A\	.	8cc/	8c/	.	.	.	.	.	8r	.	8r	.
.	.	.	.	.	8c\	8A\	.	8cc/	8c/	.	32r	.	32r	.	8e-'\	f	8e-'\	f
.	.	.	.	.	.	.	.	.	.	.	(32gg#\LLL	.	(32g#/LLL	.	.	.	.	.
.	.	.	.	.	.	.	.	.	.	.	32aa\	.	32a/	.	.	.	.	.
.	.	.	.	.	.	.	.	.	.	.	32gg#\JJJ	.	32g#/JJJ	.	.	.	.	.
.	.	.	.	.	8c\	8A\	.	8cc/	8c/	.	32aa\LLL	.	32a\LLL	.	8r	.	8r	.
.	.	.	.	.	.	.	.	.	.	.	32bbn\	.	32bn\	.	.	.	.	.
.	.	.	.	.	.	.	.	.	.	.	32ccc\	.	32cc\	.	.	.	.	.
.	.	.	.	.	.	.	.	.	.	.	32bb\JJJ	.	32b\JJJ	.	.	.	.	.
.	.	.	.	.	8c\	8A\	.	8cc/	8c/	.	32ddd\LLL	.	32dd\LLL	.	4r	.	4r	.
.	.	.	.	.	.	.	.	.	.	.	32ccc\	.	32cc\	.	.	.	.	.
.	.	.	.	.	.	.	.	.	.	.	32bb\	.	32b\	.	.	.	.	.
.	.	.	.	.	.	.	.	.	.	.	32ccc\JJJ	.	32cc\JJJ	.	.	.	.	.
.	.	.	.	.	8c\J	8A\J	.	8cc/J	8c/J	.	32bb-\LLL	.	32b-/LLL	.	.	.	.	.
.	.	.	.	.	.	.	.	.	.	.	32aa\	.	32a/	.	.	.	.	.
.	.	.	.	.	.	.	.	.	.	.	32ggn\	.	32gn/	.	.	.	.	.
.	.	.	.	.	.	.	.	.	.	.	32ff\JJJ)	.	32f/JJJ)	.	.	.	.	.
=15	=15	=15	=15	=15	=15	=15	=15	=15	=15	=15	=15	=15	=15	=15	=15	=15	=15	=15
2.r	.	2.r	2.r	.	2.r	2.r	.	2.r	2.r	.	(8.ccc\L	.	(8.cc\L	.	8r	.	8r	.
.	.	.	.	.	.	.	.	.	.	.	.	.	.	.	8f'\L	p	8d'\L	p
.	.	.	.	.	.	.	.	.	.	.	16bb-\Jk)	.	16b-\Jk)	.	.	.	.	.
.	.	.	.	.	.	.	.	.	.	.	(4.bb-\	.	(4.b-\	.	8f'\	.	8d'\	.
.	.	.	.	.	.	.	.	.	.	.	.	.	.	.	(8f\	.	(8d\	.
.	.	.	.	.	.	.	.	.	.	.	.	.	.	.	8en\	.	8c#\	.
.	.	.	.	.	.	.	.	.	.	.	8aa\)	.	8a/)	.	8e-\J)	.	8cn\J)	.
=16	=16	=16	=16	=16	=16	=16	=16	=16	=16	=16	=16	=16	=16	=16	=16	=16	=16	=16
2.r	.	2.r	2.r	.	2.r	2.r	.	2.r	2.r	.	(8.aa\L	.	(8.a/L	.	8r	.	8r	.
.	.	.	.	.	.	.	.	.	.	.	.	.	.	.	8d'\L	.	8Bn'\L	.
.	.	.	.	.	.	.	.	.	.	.	16gg\Jk)	.	16g/Jk)	.	.	.	.	.
.	.	.	.	.	.	.	.	.	.	.	(4.gg\	.	(4.g/	.	8d'\	.	8B'\	.
.	.	.	.	.	.	.	.	.	.	.	.	.	.	.	(8d\	.	(8B\	.
.	.	.	.	.	.	.	.	.	.	.	.	.	.	.	8d-\	.	8B-\	.
.	.	.	.	.	.	.	.	.	.	.	8ff\)	.	8f/)	.	8c\J)	.	8A\J)	.
=17	=17	=17	=17	=17	=17	=17	=17	=17	=17	=17	=17	=17	=17	=17	=17	=17	=17	=17
2.r	.	2.r	2.r	.	2.r	2.r	.	[2.g/	[2.G/	.	[4ff\	.	[4f/	.	8r	.	8r	.
.	.	.	.	.	.	.	.	.	.	.	.	.	.	.	8B-'/L	.	8G'\L	.
.	.	.	.	.	.	.	.	.	.	.	(16ff\LL]	.	(16f/LL]	.	(8B-/	.	8G'\	.
.	.	.	.	.	.	.	.	.	.	.	16ee\	.	16e/	.	.	.	.	.
.	.	.	.	.	.	.	.	.	.	.	16dd\	.	16d/	.	8E/J)	.	8G'\	.
.	.	.	.	.	.	.	.	.	.	.	16cc\JJ	.	16c/JJ	.	.	.	.	.
.	.	.	.	.	.	.	.	.	.	.	16bn\LL	.	16Bn/LL	.	(8G/L	.	(8E\	.
.	.	.	.	.	.	.	.	.	.	.	16b-\	.	16B-/	.	.	.	.	.
.	.	.	.	.	.	.	.	.	.	.	16a\	.	16A/	.	16F/L	.	8F\J)	.
.	.	.	.	.	.	.	.	.	.	.	16cc\JJ)	.	16c/JJ)	.	16A/JJ)	.	.	.
=18	=18	=18	=18	=18	=18	=18	=18	=18	=18	=18	=18	=18	=18	=18	=18	=18	=18	=18
2.r	.	4r	2.r	.	4r	2.r	.	4g/]	4G/]	.	[8b-/L	.	[8B-/L	.	[8G/L	.	4.C/	.
.	.	.	.	.	.	.	.	.	.	.	(32b-/LL]	.	(32B-/LL]	.	(32G/LL]	.	.	.
.	.	.	.	.	.	.	.	.	.	.	32a/	.	32A/	.	32F/	.	.	.
.	.	.	.	.	.	.	.	.	.	.	32g/	.	32G/	.	32E/	.	.	.
.	.	.	.	.	.	.	.	.	.	.	32a/JJJ	.	32A/JJJ	.	32F/JJJ	.	.	.
.	.	8r	.	.	8r	.	.	4r	4r	.	4g/)	.	4G/)	.	8E/)	.	.	.
.	.	(8g/L	.	p	(8G/L	.	.	.	.	.	.	.	.	.	8r	.	8r	.
.	.	8cc/	.	.	8c/	.	.	4r	4r	.	4r	.	4r	.	4r	.	4r	.
.	.	8ee-/J)	.	.	8e-/J)	.	.	.	.	.	.	.	.	.	.	.	.	.
=19	=19	=19	=19	=19	=19	=19	=19	=19	=19	=19	=19	=19	=19	=19	=19	=19	=19	=19
(2.ccc\	fp	(2.gg\	(2.ee-\	fp	(2.g\	(2.e-\	fp	[2.g/	[2.G/	fp	[8gg\	fp	16G/LK	fp	16E-/LK	fp	8CC/L	f
.	.	.	.	.	.	.	.	.	.	.	.	.	8G/	.	8E-/	.	.	.
.	.	.	.	.	.	.	.	.	.	.	(16gg\LK]	.	.	.	.	.	8C/	p
.	.	.	.	.	.	.	.	.	.	.	8ee-\	.	8G/	.	8E-/	.	.	.
.	.	.	.	.	.	.	.	.	.	.	.	.	.	.	.	.	8C/	.
.	.	.	.	.	.	.	.	.	.	.	8cc\	.	8G/	.	8E-/	.	.	.
.	.	.	.	.	.	.	.	.	.	.	.	.	.	.	.	.	8C/	.
.	.	.	.	.	.	.	.	.	.	.	8g\	.	8G/	.	8E-/	.	.	.
.	.	.	.	.	.	.	.	.	.	.	.	.	.	.	.	.	8C/	.
.	.	.	.	.	.	.	.	.	.	.	8e-\	.	8G/	.	8E-/	.	.	.
.	.	.	.	.	.	.	.	.	.	.	.	.	.	.	.	.	8C/J	.
.	.	.	.	.	.	.	.	.	.	.	16c\Jk)	.	(16G/Jk	.	(16E-/Jk	.	.	.
=20	=20	=20	=20	=20	=20	=20	=20	=20	=20	=20	=20	=20	=20	=20	=20	=20	=20	=20
4aa-\)	.	4ff/)	4dd\)	.	4f\)	4d\)	.	4g/]	4G/]	.	(24c#/LL	.	16A-/LL)	.	16F/LL)	.	8C/L	.
.	.	.	.	.	.	.	.	.	.	.	24d/)	.	.	.	.	.	.	.
.	.	.	.	.	.	.	.	.	.	.	.	.	16A-'/JJ	.	16F'/JJ	.	.	.
.	.	.	.	.	.	.	.	.	.	.	24d'/JJ	.	.	.	.	.	.	.
.	.	.	.	.	.	.	.	.	.	.	24r	.	16r	.	16r	.	8C/	.
.	.	.	.	.	.	.	.	.	.	.	(24c#/LL	.	.	.	.	.	.	.
.	.	.	.	.	.	.	.	.	.	.	.	.	16A-/	.	16F/	.	.	.
.	.	.	.	.	.	.	.	.	.	.	24d/JJ)	.	.	.	.	.	.	.
4r	.	8r	4r	.	8r	4r	.	4r	4r	.	24r	.	16r	.	16r	.	8C/	.
.	.	.	.	.	.	.	.	.	.	.	(24c#/LL	.	.	.	.	.	.	.
.	.	.	.	.	.	.	.	.	.	.	.	.	16A-/	.	16F/	.	.	.
.	.	.	.	.	.	.	.	.	.	.	24d/JJ)	.	.	.	.	.	.	.
.	.	(8a-/L	.	.	(8A-/L	.	.	.	.	.	24r	.	16r	.	16r	.	8C/	.
.	.	.	.	.	.	.	.	.	.	.	(24c#/LL	.	.	.	.	.	.	.
.	.	.	.	.	.	.	.	.	.	.	.	.	16A-/	.	16F/	.	.	.
.	.	.	.	.	.	.	.	.	.	.	24d/JJ)	.	.	.	.	.	.	.
4r	.	8dd/	4r	.	8d/	4r	.	4r	4r	.	24r	.	16r	.	16r	.	8C/	.
.	.	.	.	.	.	.	.	.	.	.	(24c#/LL	.	.	.	.	.	.	.
.	.	.	.	.	.	.	.	.	.	.	.	.	16A-/	.	16F/	.	.	.
.	.	.	.	.	.	.	.	.	.	.	24d/JJ)	.	.	.	.	.	.	.
.	.	8ff/J)	.	.	8f/J)	.	.	.	.	.	24r	.	16r	.	16r	.	8C/J	.
.	.	.	.	.	.	.	.	.	.	.	(24c#/LL	.	.	.	.	.	.	.
.	.	.	.	.	.	.	.	.	.	.	.	.	16A-/	.	16F/	.	.	.
.	.	.	.	.	.	.	.	.	.	.	24d/JJ)	.	.	.	.	.	.	.
=21	=21	=21	=21	=21	=21	=21	=21	=21	=21	=21	=21	=21	=21	=21	=21	=21	=21	=21
(2.ddd\	fp	(2.aa-\	(2.ff\	fp	(2.d\	(2.Bn\	fp	[2.g/	[2.G/	fp	[8aa-\	.	16Bn/LK	fp	16F/LK	fp	8CC/L	f
.	.	.	.	.	.	.	.	.	.	.	.	.	8B/	.	8F/	.	.	.
.	.	.	.	.	.	.	.	.	.	.	(16aa-\LK]	.	.	.	.	.	8C/	p
.	.	.	.	.	.	.	.	.	.	.	8ff\	.	8B/	.	8F/	.	.	.
.	.	.	.	.	.	.	.	.	.	.	.	.	.	.	.	.	8C/	.
.	.	.	.	.	.	.	.	.	.	.	8dd\	.	8B/	.	8F/	.	.	.
.	.	.	.	.	.	.	.	.	.	.	.	.	.	.	.	.	8C/	.
.	.	.	.	.	.	.	.	.	.	.	8bn\	.	8B/	.	8F/	.	.	.
.	.	.	.	.	.	.	.	.	.	.	.	.	.	.	.	.	8C/	.
.	.	.	.	.	.	.	.	.	.	.	8f\	.	8B/	.	8F/	.	.	.
.	.	.	.	.	.	.	.	.	.	.	.	.	.	.	.	.	8C/J	.
.	.	.	.	.	.	.	.	.	.	.	16d\Jk)	.	(16B/Jk	.	(16A-/Jk	.	.	.
=22	=22	=22	=22	=22	=22	=22	=22	=22	=22	=22	=22	=22	=22	=22	=22	=22	=22	=22
4ccc\)	.	4gg\)	4ee-\)	.	4e-\)	4c\)	.	4g/]	4G/]	.	(24d/LL	.	16c/LL)	.	16G/LL)	.	8C/L	.
.	.	.	.	.	.	.	.	.	.	.	24e-/)	.	.	.	.	.	.	.
.	.	.	.	.	.	.	.	.	.	.	.	.	16c'/JJ	.	16G'/JJ	.	.	.
.	.	.	.	.	.	.	.	.	.	.	24e-'/JJ	.	.	.	.	.	.	.
.	.	.	.	.	.	.	.	.	.	.	24r	.	16r	.	16r	.	8C/	.
.	.	.	.	.	.	.	.	.	.	.	(24d/LL	.	.	.	.	.	.	.
.	.	.	.	.	.	.	.	.	.	.	.	.	16c/	.	16G/	.	.	.
.	.	.	.	.	.	.	.	.	.	.	24e-/JJ)	.	.	.	.	.	.	.
8r	.	8r	8r	.	8r	8r	.	4r	4r	.	24r	.	16r	.	16r	.	8C/	.
.	.	.	.	.	.	.	.	.	.	.	(24d/LL	.	.	.	.	.	.	.
.	.	.	.	.	.	.	.	.	.	.	.	.	16c/	.	16G/	.	.	.
.	.	.	.	.	.	.	.	.	.	.	24e-/JJ)	.	.	.	.	.	.	.
(8cc\L	.	(8g\L	8e-\L	.	(8e-\L	8c\L	.	.	.	.	24r	.	16r	.	16r	.	8C/	.
.	.	.	.	.	.	.	.	.	.	.	(24d/LL	.	.	.	.	.	.	.
.	.	.	.	.	.	.	.	.	.	.	.	.	16c/	.	16G/	.	.	.
.	.	.	.	.	.	.	.	.	.	.	24e-/JJ)	.	.	.	.	.	.	.
8ee-\	.	8cc\	8g\	.	8c\	8G\	.	4r	4r	.	24r	.	16r	.	16r	.	8C/	.
.	.	.	.	.	.	.	.	.	.	.	(24d/LL	.	.	.	.	.	.	.
.	.	.	.	.	.	.	.	.	.	.	.	.	16c/	.	16G/	.	.	.
.	.	.	.	.	.	.	.	.	.	.	24e-/JJ)	.	.	.	.	.	.	.
8gg\J)	.	8ee-\J)	8cc\J	.	8G\J)	8E-\J	.	.	.	.	24r	.	16r	.	16r	.	8C/J	.
.	.	.	.	.	.	.	.	.	.	.	(24d/LL	.	.	.	.	.	.	.
.	.	.	.	.	.	.	.	.	.	.	.	.	16c/	.	16G/	.	.	.
.	.	.	.	.	.	.	.	.	.	.	24e-/JJ)	.	.	.	.	.	.	.
=23	=23	=23	=23	=23	=23	=23	=23	=23	=23	=23	=23	=23	=23	=23	=23	=23	=23	=23
(2ccc\	fp	(4gg\	4ee-\	fp	4E-\	4C\	fp	2g/	2G/	fp	[8ccc\	f	24c/LL	fp	24G/LL	fp	8EE-/L	f
.	.	.	.	.	.	.	.	.	.	.	.	.	24c/	.	24G/	.	.	.
.	.	.	.	.	.	.	.	.	.	.	.	.	24c/	.	24G/	.	.	.
.	.	.	.	.	.	.	.	.	.	.	(16ccc\LK]	p	24c/	.	24G/	.	8E-/	p
.	.	.	.	.	.	.	.	.	.	.	.	.	24c/	.	24G/	.	.	.
.	.	.	.	.	.	.	.	.	.	.	8gg\	.	.	.	.	.	.	.
.	.	.	.	.	.	.	.	.	.	.	.	.	24c/JJ	.	24G/JJ	.	.	.
.	.	[4ccc\	4cc\	.	(4c\	4G\	.	.	.	.	.	.	24c/LL	.	24G/LL	.	8E-/	.
.	.	.	.	.	.	.	.	.	.	.	.	.	24c/	.	24G/	.	.	.
.	.	.	.	.	.	.	.	.	.	.	8ee-\	.	.	.	.	.	.	.
.	.	.	.	.	.	.	.	.	.	.	.	.	24c/	.	24G/	.	.	.
.	.	.	.	.	.	.	.	.	.	.	.	.	24c/	.	24G/	.	8E-/J	.
.	.	.	.	.	.	.	.	.	.	.	.	.	24c/	.	24G/	.	.	.
.	.	.	.	.	.	.	.	.	.	.	16cc\Jk)	.	.	.	.	.	.	.
.	.	.	.	.	.	.	.	.	.	.	.	.	24c/JJ	.	24G/JJ	.	.	.
4ddd-\	fp	4ccc\_	4dd-\	fp	4d-\	[4A-\	fp	[4g/	[4G/	fp	([8ccc\	f	24d-/LL	fp	24A-/LL	fp	8FF/L	f
.	.	.	.	.	.	.	.	.	.	.	.	.	24d-/	.	24A-/	.	.	.
.	.	.	.	.	.	.	.	.	.	.	.	.	24d-/	.	24A-/	.	.	.
.	.	.	.	.	.	.	.	.	.	.	16ccc\LL]	p	24d-/	.	24A-/	.	8F/J	p
.	.	.	.	.	.	.	.	.	.	.	.	.	24d-/	.	24A-/	.	.	.
.	.	.	.	.	.	.	.	.	.	.	[16aa-\JJ	.	.	.	.	.	.	.
.	.	.	.	.	.	.	.	.	.	.	.	.	24d-/JJ	.	24A-/JJ	.	.	.
=24	=24	=24	=24	=24	=24	=24	=24	=24	=24	=24	=24	=24	=24	=24	=24	=24	=24	=24
4dddn\	.	4ccc\]	4ddn\	.	4dn\	4A-\]	.	4g/]	4G/]	.	16aa-\LK]	.	24dn/LL	.	24A-/LL	.	8F\L	.
.	.	.	.	.	.	.	.	.	.	.	.	.	24d/	.	24A-/	.	.	.
.	.	.	.	.	.	.	.	.	.	.	8ff\	.	.	.	.	.	.	.
.	.	.	.	.	.	.	.	.	.	.	.	.	24d/	.	24A-/	.	.	.
.	.	.	.	.	.	.	.	.	.	.	.	.	24d/	.	24A-/	.	8F\J	.
.	.	.	.	.	.	.	.	.	.	.	.	.	24d/	.	24A-/	.	.	.
.	.	.	.	.	.	.	.	.	.	.	16cc\Jk)	.	.	.	.	.	.	.
.	.	.	.	.	.	.	.	.	.	.	.	.	24d/JJ	.	24A-/JJ	.	.	.
4eee-\	fp	4ccc\	4ee-\	fp	4e-\	[4B-\	fp	2g/	2G/	fp	[8ccc\	f	24e-/LL	fp	24B-/LL	fp	8GG/L	f
.	.	.	.	.	.	.	.	.	.	.	.	.	24e-/	.	24B-/	.	.	.
.	.	.	.	.	.	.	.	.	.	.	.	.	24e-/	.	24B-/	.	.	.
.	.	.	.	.	.	.	.	.	.	.	(16ccc\LK]	p	24e-/	.	24B-/	.	8G/	p
.	.	.	.	.	.	.	.	.	.	.	.	.	24e-/	.	24B-/	.	.	.
.	.	.	.	.	.	.	.	.	.	.	8gg\	.	.	.	.	.	.	.
.	.	.	.	.	.	.	.	.	.	.	.	.	24e-/JJ	.	24B-/JJ	.	.	.
[4eeen\	.	[4ccc\	[4een\	.	[4en\	4B-\]	.	.	.	.	.	.	24en/LL	.	24B-/LL	.	8G/	.
.	.	.	.	.	.	.	.	.	.	.	.	.	24e/	.	24B-/	.	.	.
.	.	.	.	.	.	.	.	.	.	.	8een\	.	.	.	.	.	.	.
.	.	.	.	.	.	.	.	.	.	.	.	.	24e/	.	24B-/	.	.	.
.	.	.	.	.	.	.	.	.	.	.	.	.	24e/	.	24B-/	.	8G/J	.
.	.	.	.	.	.	.	.	.	.	.	.	.	24e/	.	24B-/	.	.	.
.	.	.	.	.	.	.	.	.	.	.	16cc\Jk)	.	.	.	.	.	.	.
.	.	.	.	.	.	.	.	.	.	.	.	.	24e/JJ	.	24B-/JJ	.	.	.
=25	=25	=25	=25	=25	=25	=25	=25	=25	=25	=25	=25	=25	=25	=25	=25	=25	=25	=25
4eee\]	fp	4ccc\]	4ee\]	fp	4e\]	[4c\	fp	2g/	2G/	fp	[8ccc\	f	24e/LL	fp	24A-/LL	fp	8AA-\L	f
.	.	.	.	.	.	.	.	.	.	.	.	.	24e/	.	24A-/	.	.	.
.	.	.	.	.	.	.	.	.	.	.	.	.	24e/	.	24A-/	.	.	.
.	.	.	.	.	.	.	.	.	.	.	(16cccn\LK]	p	24e/	.	24A-/	.	8A-\	.
.	.	.	.	.	.	.	.	.	.	.	.	.	24e/	.	24A-/	.	.	.
.	.	.	.	.	.	.	.	.	.	.	8aa-\	.	.	.	.	.	.	.
.	.	.	.	.	.	.	.	.	.	.	.	.	24e/JJ	.	24A-/JJ	.	.	.
4fff\	.	[4ccc\	[4ff\	.	4f\	4c\]	.	.	.	.	.	.	24f/LL	.	24c\LL	.	8A-\	.
.	.	.	.	.	.	.	.	.	.	.	.	.	24f/	.	24c\	.	.	.
.	.	.	.	.	.	.	.	.	.	.	8ff\	.	.	.	.	.	.	.
.	.	.	.	.	.	.	.	.	.	.	.	.	24f/	.	24c\	.	.	.
.	.	.	.	.	.	.	.	.	.	.	.	.	24f/	.	24c\	.	8A-\J	.
.	.	.	.	.	.	.	.	.	.	.	.	.	24f/	.	24c\	.	.	.
.	.	.	.	.	.	.	.	.	.	.	16cc\Jk)	.	.	.	.	.	.	.
.	.	.	.	.	.	.	.	.	.	.	.	.	24f/JJ	.	24c\JJ	.	.	.
(4fff\	fp	4ccc\_	4ff\]	fp	4fn\	[4e-\	fp	[4g/	[4G/	fp	([8eee-\	f	24f/LL	fp	24e-\LL	fp	8AAn\L	f
.	.	.	.	.	.	.	.	.	.	.	.	.	24f/	.	24e-\	.	.	.
.	.	.	.	.	.	.	.	.	.	.	.	.	24f/	.	24e-\	.	.	.
.	.	.	.	.	.	.	.	.	.	.	16eee-\LL]	p	24f/	.	24e-\	.	8An\J	.
.	.	.	.	.	.	.	.	.	.	.	.	.	24f/	.	24e-\	.	.	.
.	.	.	.	.	.	.	.	.	.	.	[16ccc\JJ	.	.	.	.	.	.	.
.	.	.	.	.	.	.	.	.	.	.	.	.	24f/JJ	.	24e-\JJ	.	.	.
=26	=26	=26	=26	=26	=26	=26	=26	=26	=26	=26	=26	=26	=26	=26	=26	=26	=26	=26
&(4fff#\)	.	&(4ccc/])	4ff#\	.	4f#\)	4e-\]	.	4g/]	4G/]	.	16ccc\LK]	.	(2.f#/	.	(2.e-\	.	(2A\	.
.	.	.	.	.	.	.	.	.	.	.	8aan\	.	.	.	.	.	.	.
.	.	.	.	.	.	.	.	.	.	.	8ff#\	.	.	.	.	.	.	.
4ccc\	.	4ff#/	4r	.	4r	4r	.	4r	4r	.	.	.	.	.	.	.	.	.
.	.	.	.	.	.	.	.	.	.	.	8ee-\	.	.	.	.	.	.	.
.	.	.	.	.	.	.	.	.	.	.	16cc\Jk	.	.	.	.	.	.	.
4ff#\&)	.	4cc/&)	4r	.	4r	4r	.	4r	4r	.	16bn\LL	.	.	.	.	.	4A-\)	.
.	.	.	.	.	.	.	.	.	.	.	16cc\	.	.	.	.	.	.	.
.	.	.	.	.	.	.	.	.	.	.	16ee-\	.	.	.	.	.	.	.
.	.	.	.	.	.	.	.	.	.	.	16cc\JJ)	.	.	.	.	.	.	.
=27	=27	=27	=27	=27	=27	=27	=27	=27	=27	=27	=27	=27	=27	=27	=27	=27	=27	=27
(4ff#\	.	(4ee-/	2.r	.	2.r	2.r	.	2.r	2.r	.	[4cc\	.	8g/)	.	8G/)	.	8G\	.
.	.	.	.	.	.	.	.	.	.	.	.	.	8r	.	8r	.	8r	.
8gg\)	.	8dd/)	.	.	.	.	.	.	.	.	(16cc\LL]	.	8G/	.	8G/	.	8GG/	.
.	.	.	.	.	.	.	.	.	.	.	16bn\	.	.	.	.	.	.	.
8r	.	16r	.	.	.	.	.	.	.	.	16a\	.	8r	.	8r	.	8r	.
.	.	(16gg/	.	.	.	.	.	.	.	.	16g\JJ)	.	.	.	.	.	.	.
4r	.	32ff#/LLL	.	.	.	.	.	.	.	.	(32f#/LLL	.	4r	.	4r	.	4r	.
.	.	32gg/	.	.	.	.	.	.	.	.	32g/	.	.	.	.	.	.	.
.	.	32aa/	.	.	.	.	.	.	.	.	32a/	.	.	.	.	.	.	.
.	.	32gg/	.	.	.	.	.	.	.	.	32g/	.	.	.	.	.	.	.
.	.	32ffn/	.	.	.	.	.	.	.	.	32fn/	.	.	.	.	.	.	.
.	.	32een/	.	.	.	.	.	.	.	.	32en/	.	.	.	.	.	.	.
.	.	32ff/	.	.	.	.	.	.	.	.	32f/	.	.	.	.	.	.	.
.	.	32dd/JJJ)	.	.	.	.	.	.	.	.	32d/JJJ)	.	.	.	.	.	.	.
=28	=28	=28	=28	=28	=28	=28	=28	=28	=28	=28	=28	=28	=28	=28	=28	=28	=28	=28
2.r	.	(4cc\	4g\	p	(4c\	4G\	p	[2.dd/	[2.dd\	pp	(4c/	.	(24G/LL	.	(4G/	.	(4En\	.
.	.	.	.	.	.	.	.	.	.	.	.	.	24c/	.	.	.	.	.
.	.	.	.	.	.	.	.	.	.	.	.	.	24en/	.	.	.	.	.
.	.	.	.	.	.	.	.	.	.	.	.	.	24g/	.	.	.	.	.
.	.	.	.	.	.	.	.	.	.	.	.	.	24e/	.	.	.	.	.
.	.	.	.	.	.	.	.	.	.	.	.	.	24c/JJ)	.	.	.	.	.
.	.	4dd\	4bn\	.	4d\	4Bn\	.	.	.	.	4d/	.	(24G/LL	.	4F/	.	4D\	.
.	.	.	.	.	.	.	.	.	.	.	.	.	24Bn/	.	.	.	.	.
.	.	.	.	.	.	.	.	.	.	.	.	.	24d/	.	.	.	.	.
.	.	.	.	.	.	.	.	.	.	.	.	.	24g/	.	.	.	.	.
.	.	.	.	.	.	.	.	.	.	.	.	.	24d/	.	.	.	.	.
.	.	.	.	.	.	.	.	.	.	.	.	.	24B/JJ)	.	.	.	.	.
.	.	4ee\)	4cc\	.	4en\)	4c\	.	.	.	.	4e/)	.	(24G/LL	.	4En/)	.	4C/)	.
.	.	.	.	.	.	.	.	.	.	.	.	.	24c/	.	.	.	.	.
.	.	.	.	.	.	.	.	.	.	.	.	.	24e/	.	.	.	.	.
.	.	.	.	.	.	.	.	.	.	.	.	.	24g/	.	.	.	.	.
.	.	.	.	.	.	.	.	.	.	.	.	.	24e/	.	.	.	.	.
.	.	.	.	.	.	.	.	.	.	.	.	.	24c/JJ)	.	.	.	.	.
=29	=29	=29	=29	=29	=29	=29	=29	=29	=29	=29	=29	=29	=29	=29	=29	=29	=29	=29
4r	.	(4ff\	4dd\	.	(4f\	4d\	.	4.dd/]	4.dd\]	.	[8f/L	.	(24G/LL	.	4D/	.	4BBn/	.
.	.	.	.	.	.	.	.	.	.	.	.	.	24Bn/	.	.	.	.	.
.	.	.	.	.	.	.	.	.	.	.	.	.	24d/	.	.	.	.	.
.	.	.	.	.	.	.	.	.	.	.	(32f/LL]	.	24g/	.	.	.	.	.
.	.	.	.	.	.	.	.	.	.	.	32g/	.	24d/	.	.	.	.	.
.	.	.	.	.	.	.	.	.	.	.	32e/	.	.	.	.	.	.	.
.	.	.	.	.	.	.	.	.	.	.	.	.	24B/JJ)	.	.	.	.	.
.	.	.	.	.	.	.	.	.	.	.	32f/JJJ	.	.	.	.	.	.	.
8r	.	8dd\)	8bn\	.	8d\)	8Bn\	.	.	.	.	8d/)	.	(24G/LL	.	4r	.	4r	.
.	.	.	.	.	.	.	.	.	.	.	.	.	24B/	.	.	.	.	.
.	.	.	.	.	.	.	.	.	.	.	.	.	24d/	.	.	.	.	.
(8gg'\L	p	8r	8r	.	8r	8r	.	(8dd'/L	8dd\L	.	8r	.	24g/	.	.	.	.	.
.	.	.	.	.	.	.	.	.	.	.	.	.	24d/	.	.	.	.	.
.	.	.	.	.	.	.	.	.	.	.	.	.	24B/JJ)	.	.	.	.	.
8gg'\	.	4r	4r	.	4r	4r	.	8dd'/	8dd\	.	4r	.	(24G/LL	.	4r	.	4r	.
.	.	.	.	.	.	.	.	.	.	.	.	.	24B/	.	.	.	.	.
.	.	.	.	.	.	.	.	.	.	.	.	.	24d/	.	.	.	.	.
8gg'\J)	.	.	.	.	.	.	.	8dd'/J)	8dd\J	.	.	.	24g/	.	.	.	.	.
.	.	.	.	.	.	.	.	.	.	.	.	.	24d/	.	.	.	.	.
.	.	.	.	.	.	.	.	.	.	.	.	.	24B/JJ)	.	.	.	.	.
=30	=30	=30	=30	=30	=30	=30	=30	=30	=30	=30	=30	=30	=30	=30	=30	=30	=30	=30
[2.gg\	.	(4dd\	4bn\	.	(4d\	4Bn\	.	[2.dd/	2.dd\	.	[8d/L	.	(24G/LL	.	(4F/	.	(4F\	.
.	.	.	.	.	.	.	.	.	.	.	.	.	24Bn/	.	.	.	.	.
.	.	.	.	.	.	.	.	.	.	.	.	.	24d/	.	.	.	.	.
.	.	.	.	.	.	.	.	.	.	.	(24d/L]	.	24g/	.	.	.	.	.
.	.	.	.	.	.	.	.	.	.	.	24Bn/	.	24d/	.	.	.	.	.
.	.	.	.	.	.	.	.	.	.	.	24G/JJ)	.	24B/JJ)	.	.	.	.	.
.	.	4ee\	4cc\	.	4e\	4c\	.	.	.	.	[8e/L	.	(24G/LL	.	4E/	.	4E\	.
.	.	.	.	.	.	.	.	.	.	.	.	.	24c/	.	.	.	.	.
.	.	.	.	.	.	.	.	.	.	.	.	.	24e/	.	.	.	.	.
.	.	.	.	.	.	.	.	.	.	.	(24e/L]	.	24g/	.	.	.	.	.
.	.	.	.	.	.	.	.	.	.	.	24c/	.	24e/	.	.	.	.	.
.	.	.	.	.	.	.	.	.	.	.	24G/JJ)	.	24c/JJ)	.	.	.	.	.
.	.	4ff\)	4dd\	.	4f\)	4d\	.	.	.	.	[8f/L	.	(24G/LL	.	4D/)	.	4D\)	.
.	.	.	.	.	.	.	.	.	.	.	.	.	24B/	.	.	.	.	.
.	.	.	.	.	.	.	.	.	.	.	.	.	24d/	.	.	.	.	.
.	.	.	.	.	.	.	.	.	.	.	(24f/L]	.	24g/	.	.	.	.	.
.	.	.	.	.	.	.	.	.	.	.	24d/	.	24f/	.	.	.	.	.
.	.	.	.	.	.	.	.	.	.	.	24B/JJ)	.	24d/JJ)	.	.	.	.	.
=31	=31	=31	=31	=31	=31	=31	=31	=31	=31	=31	=31	=31	=31	=31	=31	=31	=31	=31
4gg\]	.	(4gg\	4ee\	.	(4g\	4e\	.	4.dd\]	4.g\	.	[8g/L	.	(24G/LL	.	4C/	.	4C/	.
.	.	.	.	.	.	.	.	.	.	.	.	.	24c/	.	.	.	.	.
.	.	.	.	.	.	.	.	.	.	.	.	.	24e/	.	.	.	.	.
.	.	.	.	.	.	.	.	.	.	.	(32g/LL]	.	24g/	.	.	.	.	.
.	.	.	.	.	.	.	.	.	.	.	32a/	.	24e/	.	.	.	.	.
.	.	.	.	.	.	.	.	.	.	.	32f/	.	.	.	.	.	.	.
.	.	.	.	.	.	.	.	.	.	.	.	.	24c/JJ)	.	.	.	.	.
.	.	.	.	.	.	.	.	.	.	.	32g/JJJ	.	.	.	.	.	.	.
8r	.	8ee\)	8cc\	.	8e\)	8c\	.	.	.	.	8e/)	.	(24G/LL	.	4r	.	4r	.
.	.	.	.	.	.	.	.	.	.	.	.	.	24c/	.	.	.	.	.
.	.	.	.	.	.	.	.	.	.	.	.	.	24e/	.	.	.	.	.
(8ccc'\L	.	(8ee'\L	8cc\L	.	8r	8r	.	(8dd'\L	8g\L	.	8r	.	24g/	.	.	.	.	.
.	.	.	.	.	.	.	.	.	.	.	.	.	24e/	.	.	.	.	.
.	.	.	.	.	.	.	.	.	.	.	.	.	24c/JJ)	.	.	.	.	.
8ccc'\	.	8ee'\	8cc\	.	4r	4r	.	8dd'\	8g\	.	4r	.	(24G/LL	.	4r	.	4r	.
.	.	.	.	.	.	.	.	.	.	.	.	.	24c/	.	.	.	.	.
.	.	.	.	.	.	.	.	.	.	.	.	.	24e/	.	.	.	.	.
8ccc'\J)	.	8ee'\J)	8cc\J	.	.	.	.	8dd'\J)	8g\J	.	.	.	24g/	.	.	.	.	.
.	.	.	.	.	.	.	.	.	.	.	.	.	24e/	.	.	.	.	.
.	.	.	.	.	.	.	.	.	.	.	.	.	24c/JJ)	.	.	.	.	.
=32	=32	=32	=32	=32	=32	=32	=32	=32	=32	=32	=32	=32	=32	=32	=32	=32	=32	=32
2.r	.	2.r	2.r	.	(4c#\	4G\	.	2.r	2.r	.	24r	.	(24G/LL	.	(4e\	.	8A\	.
.	.	.	.	.	.	.	.	.	.	.	(24bb-\LL	.	24c#/	.	.	.	.	.
.	.	.	.	.	.	.	.	.	.	.	24aa\)	.	24e/	.	.	.	.	.
.	.	.	.	.	.	.	.	.	.	.	24aa'\	.	24g/	.	.	.	8r	.
.	.	.	.	.	.	.	.	.	.	.	24aa'\	.	24e/	.	.	.	.	.
.	.	.	.	.	.	.	.	.	.	.	24aa'\JJ	.	24c#/JJ)	.	.	.	.	.
.	.	.	.	.	4cn\	4F#\	.	.	.	.	(8aa\L	.	(24cn/LL	.	2d\)	.	8d\	.
.	.	.	.	.	.	.	.	.	.	.	.	.	24d/	.	.	.	.	.
.	.	.	.	.	.	.	.	.	.	.	.	.	24f#/	.	.	.	.	.
.	.	.	.	.	.	.	.	.	.	.	8ddd\J)	.	24a/	.	.	.	8r	.
.	.	.	.	.	.	.	.	.	.	.	.	.	24f#/	.	.	.	.	.
.	.	.	.	.	.	.	.	.	.	.	.	.	24d/JJ)	.	.	.	.	.
.	.	.	.	.	4Bn\	4Fn\	.	.	.	.	24r	.	(24Bn/LL	.	.	.	8G\	.
.	.	.	.	.	.	.	.	.	.	.	(24aa-\LL	.	24d/	.	.	.	.	.
.	.	.	.	.	.	.	.	.	.	.	24gg\)	.	24fn/	.	.	.	.	.
.	.	.	.	.	.	.	.	.	.	.	24gg'\	.	24g/	.	.	.	8r	.
.	.	.	.	.	.	.	.	.	.	.	24gg'\	.	24f/	.	.	.	.	.
.	.	.	.	.	.	.	.	.	.	.	24gg'\JJ	.	24d/JJ)	.	.	.	.	.
=33	=33	=33	=33	=33	=33	=33	=33	=33	=33	=33	=33	=33	=33	=33	=33	=33	=33	=33
2.r	.	2.r	2.r	.	4B-\)	4E\	.	2.r	2.r	.	(8gg\L	.	(24B-/LL	.	[4c\	.	8c\	.
.	.	.	.	.	.	.	.	.	.	.	.	.	24c/	.	.	.	.	.
.	.	.	.	.	.	.	.	.	.	.	.	.	24e/	.	.	.	.	.
.	.	.	.	.	.	.	.	.	.	.	8ccc\J)	.	24g/	.	.	.	8r	.
.	.	.	.	.	.	.	.	.	.	.	.	.	24e/	.	.	.	.	.
.	.	.	.	.	.	.	.	.	.	.	.	.	24c/JJ)	.	.	.	.	.
.	.	.	.	.	(4A\	4F\	.	.	.	.	24r	.	(24A/LL	.	(8c\]	.	(4F\	.
.	.	.	.	.	.	.	.	.	.	.	(24gg\LL	.	24c/	.	.	.	.	.
.	.	.	.	.	.	.	.	.	.	.	24ff\)	.	24f/	.	.	.	.	.
.	.	.	.	.	.	.	.	.	.	.	24ff'\	.	24a/	.	4d\	.	.	.
.	.	.	.	.	.	.	.	.	.	.	24ff'\	.	24f/	.	.	.	.	.
.	.	.	.	.	.	.	.	.	.	.	24ff'\JJ	.	24d/JJ)	.	.	.	.	.
.	.	.	.	.	8Bn\L	8G\L	.	.	.	.	(24ff\LL	.	(24Bn/LL	.	.	.	8G\L	.
.	.	.	.	.	.	.	.	.	.	.	24gg\	.	24A/	.	.	.	.	.
.	.	.	.	.	.	.	.	.	.	.	24ff\	.	24B/	.	.	.	.	.
.	.	.	.	.	8c\J)	8A\J	.	.	.	.	24ee\	.	24c/	.	8c\)	.	8A\J)	.
.	.	.	.	.	.	.	.	.	.	.	24ff\	.	24B/	.	.	.	.	.
.	.	.	.	.	.	.	.	.	.	.	24ee\JJ)	.	24c/JJ)	.	.	.	.	.
=34	=34	=34	=34	=34	=34	=34	=34	=34	=34	=34	=34	=34	=34	=34	=34	=34	=34	=34
2.r	.	4r	4r	.	2.r	2.r	.	2.r	2.r	.	(24cc#\LL	.	(24A/LL	.	(4A/	.	8F\	.
.	.	.	.	.	.	.	.	.	.	.	24dd\	.	24f/	.	.	.	.	.
.	.	.	.	.	.	.	.	.	.	.	24ff\	.	24d/	.	.	.	.	.
.	.	.	.	.	.	.	.	.	.	.	24aa\	.	24f/	.	.	.	8r	.
.	.	.	.	.	.	.	.	.	.	.	24ff\	.	24a/	.	.	.	.	.
.	.	.	.	.	.	.	.	.	.	.	24dd\JJ)	.	24f/JJ)	.	.	.	.	.
.	.	(4ee\	4cc\	.	.	.	.	.	.	.	(4ccn\	.	(24G/LL	.	2G/)	.	8G\	.
.	.	.	.	.	.	.	.	.	.	.	.	.	24c/	.	.	.	.	.
.	.	.	.	.	.	.	.	.	.	.	.	.	24e/	.	.	.	.	.
.	.	.	.	.	.	.	.	.	.	.	.	.	24g/	.	.	.	8r	.
.	.	.	.	.	.	.	.	.	.	.	.	.	24e/	.	.	.	.	.
.	.	.	.	.	.	.	.	.	.	.	.	.	24c/JJ)	.	.	.	.	.
.	.	4dd\)	4bn\	.	.	.	.	.	.	.	24bn\LL)	.	(24d/LL	.	.	.	8GG/	.
.	.	.	.	.	.	.	.	.	.	.	(24aa\	.	24f/	.	.	.	.	.
.	.	.	.	.	.	.	.	.	.	.	24gg\)	.	24g/	.	.	.	.	.
.	.	.	.	.	.	.	.	.	.	.	24gg'\	.	24f/	.	.	.	8r	.
.	.	.	.	.	.	.	.	.	.	.	24gg'\	.	24d/	.	.	.	.	.
.	.	.	.	.	.	.	.	.	.	.	24gg'\JJ	.	24Bn/JJ)	.	.	.	.	.
=35	=35	=35	=35	=35	=35	=35	=35	=35	=35	=35	=35	=35	=35	=35	=35	=35	=35	=35
4r	.	(4gg\	4cc#\	.	8r	8r	.	2.r	2.r	.	(24gg\LL	.	(24c#/LL	.	(4e\	.	8AA/	.
.	.	.	.	.	.	.	.	.	.	.	24bb-\	.	24e/	.	.	.	.	.
.	.	.	.	.	.	.	.	.	.	.	24aa\)xx	.	24g/	.	.	.	.	.
.	.	.	.	.	8c#\	8G\	.	.	.	.	24aa'\	.	24a/	.	.	.	8r	.
.	.	.	.	.	.	.	.	.	.	.	24aa'\	.	24g/	.	.	.	.	.
.	.	.	.	.	.	.	.	.	.	.	24aa'\JJ	.	24e/JJ)	.	.	.	.	.
24r	.	4ff#\	4ccn\	.	8r	8r	.	.	.	.	(8aa\L	.	(24cn/LL	.	2d\)	.	8D\	.
(24eee-\LL	.	.	.	.	.	.	.	.	.	.	.	.	24d/	.	.	.	.	.
24ddd\)	.	.	.	.	.	.	.	.	.	.	.	.	24f#/	.	.	.	.	.
24ddd'\	.	.	.	.	8cn\	8F#\	.	.	.	.	8ddd\J)	.	24a/	.	.	.	8r	.
24ddd'\	.	.	.	.	.	.	.	.	.	.	.	.	24f#/	.	.	.	.	.
24ddd'\JJ	.	.	.	.	.	.	.	.	.	.	.	.	24d/JJ)	.	.	.	.	.
(8ddd\L	.	4ffn\	4bn\	.	8r	8r	.	.	.	.	24r	.	(24Bn/LL	.	.	.	8GG/	.
.	.	.	.	.	.	.	.	.	.	.	(24aa-\LL	.	24d/	.	.	.	.	.
.	.	.	.	.	.	.	.	.	.	.	24gg\)	.	24fn/	.	.	.	.	.
8gg\J)	.	.	.	.	8Bn\	8Fn\	.	.	.	.	24gg'\	.	24g/	.	.	.	8r	.
.	.	.	.	.	.	.	.	.	.	.	24gg'\	.	24f/	.	.	.	.	.
.	.	.	.	.	.	.	.	.	.	.	24gg'\JJ	.	24d/JJ)	.	.	.	.	.
=36	=36	=36	=36	=36	=36	=36	=36	=36	=36	=36	=36	=36	=36	=36	=36	=36	=36	=36
24r	.	4ee/	4b-\	.	8r	8r	.	2.r	2.r	.	(8gg\L	.	(24B-/LL	.	[4c\	.	8C/	.
(24ddd-\LL	.	.	.	.	.	.	.	.	.	.	.	.	24c/	.	.	.	.	.
24ccc\)	.	.	.	.	.	.	.	.	.	.	.	.	24e/	.	.	.	.	.
24ccc'\	.	.	.	.	8B-\	8E\	.	.	.	.	8ccc\J)	.	24g/	.	.	.	8r	.
24ccc'\	.	.	.	.	.	.	.	.	.	.	.	.	24e/	.	.	.	.	.
24ccc'\JJ	.	.	.	.	.	.	.	.	.	.	.	.	24c/JJ)	.	.	.	.	.
(8ccc\L	.	8ff/)	(4a\	.	8r	8r	.	.	.	.	24r	.	(24A/LL	.	(8c\]	.	(4F\	.
.	.	.	.	.	.	.	.	.	.	.	(24gg\LL	.	24c/	.	.	.	.	.
.	.	.	.	.	.	.	.	.	.	.	24ff\)	.	24f/	.	.	.	.	.
8ff\J)	.	(4dd/	.	.	(8A\L	8F\L	.	.	.	.	24ff'\	.	24a/	.	4d\	.	.	.
.	.	.	.	.	.	.	.	.	.	.	24ff'\	.	24f/	.	.	.	.	.
.	.	.	.	.	.	.	.	.	.	.	24ff'\JJ	.	24d/JJ)	.	.	.	.	.
4r	.	.	8bn\L	.	8Bn\	8G\	.	.	.	.	(24ff\LL	.	(24Bn/LL	.	.	.	8G\L	.
.	.	.	.	.	.	.	.	.	.	.	24gg\	.	24A/	.	.	.	.	.
.	.	.	.	.	.	.	.	.	.	.	24ff\	.	24B/	.	.	.	.	.
.	.	8cc/)	[8cc\J)	.	8c\J)	8A\J	.	.	.	.	24ee\	.	24c/	.	[8c\)	.	8A\J)	.
.	.	.	.	.	.	.	.	.	.	.	24ff\	.	24B/	.	.	.	.	.
.	.	.	.	.	.	.	.	.	.	.	24ee\JJ)	.	24c/JJ)	.	.	.	.	.
=37	=37	=37	=37	=37	=37	=37	=37	=37	=37	=37	=37	=37	=37	=37	=37	=37	=37	=37
!	!	!	!	!	! cresc.	!	!	!	!	!	!	!	!	!	!	!	! cresc.	!
4r	.	(8ff/L	8cc\]	.	(4D/	4D\	.	2.r	2.r	.	(24ee\LLxx	.	(24f/LL	.	8c\]	.	(4D\	.
.	.	.	.	.	.	.	.	.	.	.	24dd\)xx	.	24e/	.	.	.	.	.
.	.	.	.	.	.	.	.	.	.	.	24dd'\xx	.	24f/	.	.	.	.	.
!	!	! cresc.	!	!	!	!	!	!	!	!	!	!	!	!	! cresc.	!	!	!
.	.	8ff#/	4bn\	.	.	.	.	.	.	.	24dd'\xx	.	24f#/	.	4Bn/	.	.	.
.	.	.	.	.	.	.	.	.	.	.	24dd'\xx	.	24e/	.	.	.	.	.
.	.	.	.	.	.	.	.	.	.	.	24dd'\JJxx	.	24f#/JJ)	.	.	.	.	.
!	!	!	!	!	!	!	!	!	!	!	! cresc.	!	! cresc.	!	!	!	!	!
4r	.	8gg#/	.	.	8E/L	8E\L	.	.	.	.	(24dd\LL	.	(24g#/LL	.	.	.	8E\L	.
.	.	.	.	.	.	.	.	.	.	.	24ee\)	.	24f#/	.	.	.	.	.
.	.	.	.	.	.	.	.	.	.	.	24dd'\	.	24g#/	.	.	.	.	.
.	.	8aa/J)	4a\	.	8F/J)	8F\J	.	.	.	.	24cc'\	.	24a/	.	4A/	.	8F\J)	.
.	.	.	.	.	.	.	.	.	.	.	24dd'\	.	24g#/	.	.	.	.	.
.	.	.	.	.	.	.	.	.	.	.	24cc'\JJ	.	24a/JJ)	.	.	.	.	.
! cresc.	!	!	!	!	!	!	!	!	!	!	!	!	!	!	!	!	!	!
(8ddd-\L	.	(8dd-/L	.	.	4BB-/	4BB-\	.	.	.	.	(24cc\LL	.	(24d-/LL	.	.	.	(4BB-/	.
.	.	.	.	.	.	.	.	.	.	.	24b-\)	.	24c/	.	.	.	.	.
.	.	.	.	.	.	.	.	.	.	.	24b-'\	.	24d-/	.	.	.	.	.
8dddn\J	.	8ddn/J	[8gn\	.	.	.	.	.	.	.	24b-'\	.	24dn/	.	[8G/	.	.	.
.	.	.	.	.	.	.	.	.	.	.	24b-'\	.	24c#/	.	.	.	.	.
.	.	.	.	.	.	.	.	.	.	.	24b-'\JJ	.	24d/JJ)	.	.	.	.	.
=38	=38	=38	=38	=38	=38	=38	=38	=38	=38	=38	=38	=38	=38	=38	=38	=38	=38	=38
8eeen\L	f	8een/L	8g\L]	f	8C/	8C\	f	2.r	2.r	.	(24b-/LL	f	(24e/LL	f	8G/L]	f	8C\L	f
.	.	.	.	.	.	.	.	.	.	.	24cc/	.	24d/	.	.	.	.	.
.	.	.	.	.	.	.	.	.	.	.	24b-/	.	24e/	.	.	.	.	.
8fff\	.	8aa/	(8ffn\	.	(8Bn/L	(8Bn\L	.	.	.	.	24a/	.	24fn/	.	(8Bn/	.	8D\	.
.	.	.	.	.	.	.	.	.	.	.	24b-/	.	24gn/	.	.	.	.	.
.	.	.	.	.	.	.	.	.	.	.	24a/JJ)	.	24f/JJ)	.	.	.	.	.
8eee\)	.	8ggn/)	8ee\)	.	8c/)	8c\)	.	.	.	.	(24g/LL	.	(24e/LL	.	8c/)	.	8E\	.
.	.	.	.	.	.	.	.	.	.	.	24a/	.	24f/	.	.	.	.	.
.	.	.	.	.	.	.	.	.	.	.	24g/	.	24e/	.	.	.	.	.
8ddd'\	.	8ff'/	8dd'\	.	8f'\	8A\	.	.	.	.	24f/	.	24d/	.	8A'/	.	8F\	.
.	.	.	.	.	.	.	.	.	.	.	24g/	.	24e/	.	.	.	.	.
.	.	.	.	.	.	.	.	.	.	.	24f/JJ	.	24d/JJ	.	.	.	.	.
8ccc'\	.	8ee'/	8cc'\	.	8e'\	8G\	.	.	.	.	24e/LL	.	24cn/LL	.	8G'/	.	8G\)	.
.	.	.	.	.	.	.	.	.	.	.	24f/	.	24d/	.	.	.	.	.
.	.	.	.	.	.	.	.	.	.	.	24e/	.	24c/	.	.	.	.	.
8bbn'\J	.	8dd'/J	8bn'\J	.	8d'\J	8F\J	.	.	.	.	24d/	.	24Bn/	.	8F'/J	.	8GG'\J	.
.	.	.	.	.	.	.	.	.	.	.	24e/	.	24c/	.	.	.	.	.
.	.	.	.	.	.	.	.	.	.	.	24d/JJ)	.	24B/JJ)	.	.	.	.	.
=39	=39	=39	=39	=39	=39	=39	=39	=39	=39	=39	=39	=39	=39	=39	=39	=39	=39	=39
4ccc\	.	4cc\	4cc\	.	4c\	4E\	.	24r	24r	.	8c'/	.	8c'/	.	4E/	.	4C/	.
.	.	.	.	.	.	.	.	24g/LL	24G/LL	p	.	.	.	.	.	.	.	.
.	.	.	.	.	.	.	.	24g/	24G/	.	.	.	.	.	.	.	.	.
.	.	.	.	.	.	.	.	24g/	24G/	.	(8ee\L	p	(8c/L	p	.	.	.	.
.	.	.	.	.	.	.	.	24g/	24G/	.	.	.	.	.	.	.	.	.
.	.	.	.	.	.	.	.	24g/JJ	24G/JJ	.	.	.	.	.	.	.	.	.
4r	.	4r	4r	.	4r	4r	.	24g/LL	24G/LL	.	8ff\	.	8d/	.	4r	.	4r	.
.	.	.	.	.	.	.	.	24g/	24G/	.	.	.	.	.	.	.	.	.
.	.	.	.	.	.	.	.	24g/	24G/	.	.	.	.	.	.	.	.	.
.	.	.	.	.	.	.	.	24g/	24G/	.	8gg\J	.	8e/J	.	.	.	.	.
.	.	.	.	.	.	.	.	24g/	24G/	.	.	.	.	.	.	.	.	.
.	.	.	.	.	.	.	.	24g/JJ	24G/JJ	.	.	.	.	.	.	.	.	.
4r	.	4r	4r	.	4r	4r	.	24g/LL	24G/LL	.	24aa\LL	.	24f/LL	.	4r	.	4r	.
.	.	.	.	.	.	.	.	24g/	24G/	.	24gg#\	.	24e/	.	.	.	.	.
.	.	.	.	.	.	.	.	24g/	24G/	.	24aa\	.	24f/	.	.	.	.	.
.	.	.	.	.	.	.	.	24g/	24G/	.	24ccc\	.	24a/	.	.	.	.	.
.	.	.	.	.	.	.	.	24g/	24G/	.	24bbn\	.	24g/	.	.	.	.	.
.	.	.	.	.	.	.	.	24g/JJ	24G/JJ	.	24aa\JJ	.	24f/JJ)	.	.	.	.	.
=40	=40	=40	=40	=40	=40	=40	=40	=40	=40	=40	=40	=40	=40	=40	=40	=40	=40	=40
*	*	*v	*v	*	*	*	*	*	*	*	*	*	*	*	*	*	*	*
8r	.	8r	.	24r	24ryy	.	8g/	8G/	.	8ggn\)	.	8e/	.	4r	.	4r	.
.	.	.	.	24E\LL	24C\LL	p	.	.	.	.	.	.	.	.	.	.	.
.	.	.	.	24E\JJ	24C\JJ	.	.	.	.	.	.	.	.	.	.	.	.
!	!	! I.	!	!	!	!	!	!	!	!	!	!	!	!	!	!	!
(8eee\L	p	(8ccc\L	p	(24E\LL	24C\LL	.	8r	8r	.	8r	.	8r	.	.	.	.	.
.	.	.	.	24G\)	24E\	.	.	.	.	.	.	.	.	.	.	.	.
.	.	.	.	24G'\JJ	24E\JJ	.	.	.	.	.	.	.	.	.	.	.	.
8ccc\	.	8gg\	.	(24G\LL	24E\LL	.	4r	4r	.	4r	.	4r	.	4r	.	4r	.
.	.	.	.	24c\)	24G\	.	.	.	.	.	.	.	.	.	.	.	.
.	.	.	.	24c'\JJ	24G\JJ	.	.	.	.	.	.	.	.	.	.	.	.
[8gg\J)	.	8ee\J)	.	(24c\LL	24G\LL	.	.	.	.	.	.	.	.	.	.	.	.
.	.	.	.	24e\)	24c\	.	.	.	.	.	.	.	.	.	.	.	.
.	.	.	.	24e'\JJ	24c\JJ	.	.	.	.	.	.	.	.	.	.	.	.
(24gg\LL]	.	(4dd\	.	(8f/L	(4Bn\	.	4r	4r	.	4r	.	4r	.	[4G/	p	(4G\	p
24ff#\	.	.	.	.	.	.	.	.	.	.	.	.	.	.	.	.	.
24gg\	.	.	.	.	.	.	.	.	.	.	.	.	.	.	.	.	.
24gg#\	.	.	.	16.d/L	.	.	.	.	.	.	.	.	.	.	.	.	.
24aa\	.	.	.	.	.	.	.	.	.	.	.	.	.	.	.	.	.
24ffn\JJ)	.	.	.	.	.	.	.	.	.	.	.	.	.	.	.	.	.
.	.	.	.	32g/JJk)	.	.	.	.	.	.	.	.	.	.	.	.	.
=41	=41	=41	=41	=41	=41	=41	=41	=41	=41	=41	=41	=41	=41	=41	=41	=41	=41
8ee\	.	8cc\)	.	8g\	8c\)	.	24r	24r	.	8r	.	8r	.	8G/]	.	8c\)	.
.	.	.	.	.	.	.	24g/LL	24G/LL	.	.	.	.	.	.	.	.	.
.	.	.	.	.	.	.	24g/	24G/	.	.	.	.	.	.	.	.	.
8r	.	8r	.	8r	8r	.	24g/	24G/	.	(8ee\L	.	(8c/L	.	8r	.	8r	.
.	.	.	.	.	.	.	24g/	24G/	.	.	.	.	.	.	.	.	.
.	.	.	.	.	.	.	24g/JJ	24G/JJ	.	.	.	.	.	.	.	.	.
4r	.	4r	.	4r	4r	.	24g/LL	24G/LL	.	8ff\	.	8d/	.	4r	.	4r	.
.	.	.	.	.	.	.	24g/	24G/	.	.	.	.	.	.	.	.	.
.	.	.	.	.	.	.	24g/	24G/	.	.	.	.	.	.	.	.	.
.	.	.	.	.	.	.	24g/	24G/	.	8gg\J	.	8e/J	.	.	.	.	.
.	.	.	.	.	.	.	24g/	24G/	.	.	.	.	.	.	.	.	.
.	.	.	.	.	.	.	24g/JJ	24G/JJ	.	.	.	.	.	.	.	.	.
4r	.	4r	.	4r	4r	.	24g/LL	24G/LL	.	24aa\LL	.	24f/LL	.	4r	.	4r	.
.	.	.	.	.	.	.	24g/	24G/	.	24gg#\	.	24e/	.	.	.	.	.
.	.	.	.	.	.	.	24g/	24G/	.	24aa\	.	24f/	.	.	.	.	.
.	.	.	.	.	.	.	24g/	24G/	.	24ccc\	.	24a/	.	.	.	.	.
.	.	.	.	.	.	.	24g/	24G/	.	24bbn\	.	24g/	.	.	.	.	.
.	.	.	.	.	.	.	24g/JJ	24G/JJ	.	24aa\JJ	.	24f/JJ	.	.	.	.	.
=42	=42	=42	=42	=42	=42	=42	=42	=42	=42	=42	=42	=42	=42	=42	=42	=42	=42
8r	.	8r	.	24r	24ryy	.	8g/	8G/	.	8ggn\)	.	8e/)	.	4r	.	4r	.
.	.	.	.	24E\LL	24C\LL	.	.	.	.	.	.	.	.	.	.	.	.
.	.	.	.	24E\JJ	24C\JJ	.	.	.	.	.	.	.	.	.	.	.	.
(8ccc\L	.	(8gg\L	.	(24E\LL	24C\LL	.	8r	8r	.	8r	.	8r	.	.	.	.	.
.	.	.	.	24G\)	24E\	.	.	.	.	.	.	.	.	.	.	.	.
.	.	.	.	24G'\JJ	24E\JJ	.	.	.	.	.	.	.	.	.	.	.	.
8gg\	.	8ee\	.	(24G\LL	24E\LL	.	4r	4r	.	4r	.	4r	.	4r	.	4r	.
.	.	.	.	24c\)	24G\	.	.	.	.	.	.	.	.	.	.	.	.
.	.	.	.	24c'\JJ	24G\JJ	.	.	.	.	.	.	.	.	.	.	.	.
[8ee\J)	.	[8cc\J)	.	(24c\LL	24G\LL	.	.	.	.	.	.	.	.	.	.	.	.
.	.	.	.	24e\)	24c\	.	.	.	.	.	.	.	.	.	.	.	.
.	.	.	.	24e'\JJ	24c\JJ	.	.	.	.	.	.	.	.	.	.	.	.
(24ee\LL]	.	(24cc\LL]	.	(8.g/L	4G\	.	4r	4r	.	4r	.	4r	.	(4G/	.	(4G\	.
24dd\	.	24bn\	.	.	.	.	.	.	.	.	.	.	.	.	.	.	.
24ee\	.	24cc\	.	.	.	.	.	.	.	.	.	.	.	.	.	.	.
24gg\	.	24ee\	.	.	.	.	.	.	.	.	.	.	.	.	.	.	.
24ff\	.	24dd\	.	.	.	.	.	.	.	.	.	.	.	.	.	.	.
.	.	.	.	16f/Jk)	.	.	.	.	.	.	.	.	.	.	.	.	.
24dd\JJ)	.	24b\JJ)	.	.	.	.	.	.	.	.	.	.	.	.	.	.	.
=43	=43	=43	=43	=43	=43	=43	=43	=43	=43	=43	=43	=43	=43	=43	=43	=43	=43
(4dd\	.	(4bn\	.	(4f\	[4G\	.	2.r	2.r	.	[4c/	.	2.r	.	8C/)	.	8C/)	.
.	.	.	.	.	.	.	.	.	.	.	.	.	.	8r	.	8r	.
8cc\)	.	8cc\)	.	8e\)	8G\]	.	.	.	.	24c/LL]	.	.	.	8c\	.	8c\	.
.	.	.	.	.	.	.	.	.	.	(24g/	.	.	.	.	.	.	.
.	.	.	.	.	.	.	.	.	.	24f/JJ)	.	.	.	.	.	.	.
8r	.	8r	.	8r	8ryy	.	.	.	.	24e'/LL	.	.	.	8r	.	8r	.
.	.	.	.	.	.	.	.	.	.	(24b-/	.	.	.	.	.	.	.
.	.	.	.	.	.	.	.	.	.	24a/JJ)	.	.	.	.	.	.	.
4r	.	4r	.	4r	4ryy	.	.	.	.	24g'/LL	.	.	.	4r	.	4r	.
.	.	.	.	.	.	.	.	.	.	(24dd/	.	.	.	.	.	.	.
.	.	.	.	.	.	.	.	.	.	24cc/JJ	.	.	.	.	.	.	.
.	.	.	.	.	.	.	.	.	.	24b-/LL	.	.	.	.	.	.	.
.	.	.	.	.	.	.	.	.	.	24a/	.	.	.	.	.	.	.
.	.	.	.	.	.	.	.	.	.	24g/JJ)	.	.	.	.	.	.	.
=44	=44	=44	=44	=44	=44	=44	=44	=44	=44	=44	=44	=44	=44	=44	=44	=44	=44
*	*	*^	*	*	*	*	*	*	*	*	*	*	*	*	*	*	*
2.r	.	2.r	2.r	.	2.r	2.r	.	2.r	2.r	.	(16.f/LL	.	2.r	.	2.r	.	2.r	.
.	.	.	.	.	.	.	.	.	.	.	32e/k	.	.	.	.	.	.	.
.	.	.	.	.	.	.	.	.	.	.	16.g/	.	.	.	.	.	.	.
.	.	.	.	.	.	.	.	.	.	.	32f#/JJk	.	.	.	.	.	.	.
.	.	.	.	.	.	.	.	.	.	.	16.a/LL	.	.	.	.	.	.	.
.	.	.	.	.	.	.	.	.	.	.	32g/k	.	.	.	.	.	.	.
.	.	.	.	.	.	.	.	.	.	.	16.b-/	.	.	.	.	.	.	.
.	.	.	.	.	.	.	.	.	.	.	32a/JJk)	.	.	.	.	.	.	.
.	.	.	.	.	.	.	.	.	.	.	(16cc/LL	.	.	.	.	.	.	.
.	.	.	.	.	.	.	.	.	.	.	16b-/	.	.	.	.	.	.	.
.	.	.	.	.	.	.	.	.	.	.	16g/	.	.	.	.	.	.	.
.	.	.	.	.	.	.	.	.	.	.	16e/JJ)	.	.	.	.	.	.	.
=45:|!	=45:|!	=45:|!	=45:|!	=45:|!	=45:|!	=45:|!	=45:|!	=45:|!	=45:|!	=45:|!	=45:|!	=45:|!	=45:|!	=45:|!	=45:|!	=45:|!	=45:|!	=45:|!
*>B	*	*>B	*	*	*>B	*	*	*>B	*	*	*>B	*	*>B	*	*>B	*	*>B	*
2.r	.	2.r	2.r	.	2.r	2.r	.	2.r	2.r	.	[4d/	.	4.G/	.	4.E/	.	4.AA/	.
.	.	.	.	.	.	.	.	.	.	.	(24d/LL]	.	.	.	.	.	.	.
.	.	.	.	.	.	.	.	.	.	.	24c#/)	.	.	.	.	.	.	.
.	.	.	.	.	.	.	.	.	.	.	24g'/JJ	.	.	.	.	.	.	.
.	.	.	.	.	.	.	.	.	.	.	(24fn/LL	.	8r	.	8r	.	8r	.
.	.	.	.	.	.	.	.	.	.	.	24e/)	.	.	.	.	.	.	.
.	.	.	.	.	.	.	.	.	.	.	24b-'/JJ	.	.	.	.	.	.	.
.	.	.	.	.	.	.	.	.	.	.	(24a/LL	.	4r	.	4r	.	4r	.
.	.	.	.	.	.	.	.	.	.	.	24g/)	.	.	.	.	.	.	.
.	.	.	.	.	.	.	.	.	.	.	24ee'/JJ	.	.	.	.	.	.	.
.	.	.	.	.	.	.	.	.	.	.	(24dd\LL	.	.	.	.	.	.	.
.	.	.	.	.	.	.	.	.	.	.	24cc#\)	.	.	.	.	.	.	.
.	.	.	.	.	.	.	.	.	.	.	24gg'\JJ	.	.	.	.	.	.	.
=46	=46	=46	=46	=46	=46	=46	=46	=46	=46	=46	=46	=46	=46	=46	=46	=46	=46	=46
4r	.	4r	4ryy	.	4r	4r	.	4r	4r	.	(16ff\LL	.	2.r	.	2.r	.	2.r	.
.	.	.	.	.	.	.	.	.	.	.	16ee\	.	.	.	.	.	.	.
.	.	.	.	.	.	.	.	.	.	.	16dd\	.	.	.	.	.	.	.
.	.	.	.	.	.	.	.	.	.	.	16cc#\JJ	.	.	.	.	.	.	.
!	!	!	!	!	!	!	!	!	!	!	! cresc.	!	!	!	!	!	!	!
8r	.	8r	8ryy	.	8r	8r	.	8r	8r	.	16b-/LL	.	.	.	.	.	.	.
.	.	.	.	.	.	.	.	.	.	.	16a/	.	.	.	.	.	.	.
! cresc.	!	! cresc.	!	!	! cresc.	!	!	! cresc.	!	!	!	!	!	!	!	!	!	!
(8a\L	.	(8a/L	(8g'\L	.	(8e'\L	8c#\L	.	8ee/L	(8e'/L	.	16g#/	.	.	.	.	.	.	.
.	.	.	.	.	.	.	.	.	.	.	16a/JJ	.	.	.	.	.	.	.
8cc#\	.	8cc#/	8g'\	.	8e'\	8c#\	.	8ee/	8e'/	.	16g#/LL	.	.	.	.	.	.	.
.	.	.	.	.	.	.	.	.	.	.	16a/	.	.	.	.	.	.	.
8ee\J)	.	8ee/J)	8g'\J)	.	8e'\J)	8c#\J	.	8ee/J	8e'/J)	.	16gn/	.	.	.	.	.	.	.
.	.	.	.	.	.	.	.	.	.	.	16e/JJ)	.	.	.	.	.	.	.
=47	=47	=47	=47	=47	=47	=47	=47	=47	=47	=47	=47	=47	=47	=47	=47	=47	=47	=47
(2.aa\	fp	(2.ff\	(2.dd\	fp	(2.f\	(2.d\	fp	(2.ee/	2.e/	fp	[8aa\	f	16A/LK	f	16F/LK	f	8DD/L	f
.	.	.	.	.	.	.	.	.	.	.	.	.	8A/	p	8F/	p	.	.
.	.	.	.	.	.	.	.	.	.	.	(16aa\LK]	p	.	.	.	.	8D/	p
.	.	.	.	.	.	.	.	.	.	.	8ff\	.	8A/	.	8F/	.	.	.
.	.	.	.	.	.	.	.	.	.	.	.	.	.	.	.	.	8D/	.
.	.	.	.	.	.	.	.	.	.	.	8dd\	.	8A/	.	8F/	.	.	.
.	.	.	.	.	.	.	.	.	.	.	.	.	.	.	.	.	8D/	.
.	.	.	.	.	.	.	.	.	.	.	8a\	.	8A/	.	8F/	.	.	.
.	.	.	.	.	.	.	.	.	.	.	.	.	.	.	.	.	8D/	.
.	.	.	.	.	.	.	.	.	.	.	8f\	.	8A/	.	8F/	.	.	.
.	.	.	.	.	.	.	.	.	.	.	.	.	.	.	.	.	8D/J	.
.	.	.	.	.	.	.	.	.	.	.	16d\Jk)	.	(16A/Jk	.	(16F/Jk	.	.	.
=48	=48	=48	=48	=48	=48	=48	=48	=48	=48	=48	=48	=48	=48	=48	=48	=48	=48	=48
4gg\)	.	4ee\)	4b-\)	.	4e\)	4B-\)	.	4dd/)	4dd\	.	(24d#/LL	.	16B-/LL)	.	16G/LL)	.	8D\L	.
.	.	.	.	.	.	.	.	.	.	.	24e/)	.	.	.	.	.	.	.
.	.	.	.	.	.	.	.	.	.	.	.	.	16B-'/JJ	.	16G'/JJ	.	.	.
.	.	.	.	.	.	.	.	.	.	.	24e'/JJ	.	.	.	.	.	.	.
.	.	.	.	.	.	.	.	.	.	.	24r	.	16r	.	16r	.	8D\	.
.	.	.	.	.	.	.	.	.	.	.	(24d#/LL	.	.	.	.	.	.	.
.	.	.	.	.	.	.	.	.	.	.	.	.	16B-/	.	16G/	.	.	.
.	.	.	.	.	.	.	.	.	.	.	24e/JJ)	.	.	.	.	.	.	.
8r	.	8r	8r	.	8r	8r	.	4r	4ryy	.	24r	.	16r	.	16r	.	8D\	.
.	.	.	.	.	.	.	.	.	.	.	(24d#/LL	.	.	.	.	.	.	.
.	.	.	.	.	.	.	.	.	.	.	.	.	16B-/	.	16G/	.	.	.
.	.	.	.	.	.	.	.	.	.	.	24e/JJ)	.	.	.	.	.	.	.
(8b-\L	.	8g/L	(8e/L	.	8e\L	8B-/L	.	.	.	.	24r	.	16r	.	16r	.	8D\	.
.	.	.	.	.	.	.	.	.	.	.	(24d#/LL	.	.	.	.	.	.	.
.	.	.	.	.	.	.	.	.	.	.	.	.	16B-/	.	16G/	.	.	.
.	.	.	.	.	.	.	.	.	.	.	24e/JJ)	.	.	.	.	.	.	.
8ee\	.	8b-/	8g/	.	8B-\	8G/	.	4r	4ryy	.	24r	.	16r	.	16r	.	8D\	.
.	.	.	.	.	.	.	.	.	.	.	(24d#/LL	.	.	.	.	.	.	.
.	.	.	.	.	.	.	.	.	.	.	.	.	16B-/	.	16G/	.	.	.
.	.	.	.	.	.	.	.	.	.	.	24e/JJ)	.	.	.	.	.	.	.
8gg\J)	.	8ee/J	8b-/J)	.	8G\J	8E/J	.	.	.	.	24r	.	16r	.	16r	.	8D\J	.
.	.	.	.	.	.	.	.	.	.	.	(24d#/LL	.	.	.	.	.	.	.
.	.	.	.	.	.	.	.	.	.	.	.	.	16B-/	.	16G/	.	.	.
.	.	.	.	.	.	.	.	.	.	.	24e/JJ)	.	.	.	.	.	.	.
=49	=49	=49	=49	=49	=49	=49	=49	=49	=49	=49	=49	=49	=49	=49	=49	=49	=49	=49
(2.bb-\	fp	(2.gg\	(2.ee\	fp	(2.e\	(2.B-\	fp	(2.ff\	(2.dd\	fp	[8bb-\	f	16G/LK	f	16E/LK	f	8CC#/L	f
.	.	.	.	.	.	.	.	.	.	.	.	.	8G/	p	8E/	p	.	.
.	.	.	.	.	.	.	.	.	.	.	(16bb-\LK]	p	.	.	.	.	8C#/	p
.	.	.	.	.	.	.	.	.	.	.	8gg\	.	8G/	.	8E/	.	.	.
.	.	.	.	.	.	.	.	.	.	.	.	.	.	.	.	.	8C#/	.
.	.	.	.	.	.	.	.	.	.	.	8ee\	.	8G/	.	8E/	.	.	.
.	.	.	.	.	.	.	.	.	.	.	.	.	.	.	.	.	8C#/	.
.	.	.	.	.	.	.	.	.	.	.	8b-\	.	8G/	.	8E/	.	.	.
.	.	.	.	.	.	.	.	.	.	.	.	.	.	.	.	.	8C#/	.
.	.	.	.	.	.	.	.	.	.	.	8g\	.	8G/	.	8E/	.	.	.
.	.	.	.	.	.	.	.	.	.	.	.	.	.	.	.	.	8C#/J	.
.	.	.	.	.	.	.	.	.	.	.	16e\Jk)	.	(16G/Jk	.	(16G/Jk	.	.	.
=50	=50	=50	=50	=50	=50	=50	=50	=50	=50	=50	=50	=50	=50	=50	=50	=50	=50	=50
4aa\)	.	4gg-\)	4ee-\)	.	4e-/)	4g-\)	.	4ee/)	4ee\)	.	(24f/LL	.	16e-/LL)	.	16A/LL)	.	8Cn/L	.
.	.	.	.	.	.	.	.	.	.	.	24g-/)	.	.	.	.	.	.	.
.	.	.	.	.	.	.	.	.	.	.	.	.	16e-'/JJ	.	16A'/JJ	.	.	.
.	.	.	.	.	.	.	.	.	.	.	24g-'/JJ	.	.	.	.	.	.	.
.	.	.	.	.	.	.	.	.	.	.	24r	.	16r	.	16r	.	8C/	.
.	.	.	.	.	.	.	.	.	.	.	(24f/LL	.	.	.	.	.	.	.
.	.	.	.	.	.	.	.	.	.	.	.	.	16e-/	.	16A/	.	.	.
.	.	.	.	.	.	.	.	.	.	.	24g-/JJ)	.	.	.	.	.	.	.
8r	.	8r	8r	.	8r	8ryy	.	4r	4ryy	.	24r	.	16r	.	16r	.	8C/	.
.	.	.	.	.	.	.	.	.	.	.	(24f/LL	.	.	.	.	.	.	.
.	.	.	.	.	.	.	.	.	.	.	.	.	16e-/	.	16A/	.	.	.
.	.	.	.	.	.	.	.	.	.	.	24g-/JJ)	.	.	.	.	.	.	.
(8ee-\L	.	(8cc\L	8a\L	.	(8g-\L	8e-\L	.	.	.	.	24r	.	16r	.	16r	.	8C/	.
.	.	.	.	.	.	.	.	.	.	.	(24f/LL	.	.	.	.	.	.	.
.	.	.	.	.	.	.	.	.	.	.	.	.	16e-/	.	16A/	.	.	.
.	.	.	.	.	.	.	.	.	.	.	24g-/JJ)	.	.	.	.	.	.	.
8aa\	.	8ee-\	8cc\	.	8e-\	8c\	.	4r	4ryy	.	24r	.	16r	.	16r	.	8C/	.
.	.	.	.	.	.	.	.	.	.	.	(24f/LL	.	.	.	.	.	.	.
.	.	.	.	.	.	.	.	.	.	.	.	.	16e-/	.	16A/	.	.	.
.	.	.	.	.	.	.	.	.	.	.	24g-/JJ)	.	.	.	.	.	.	.
8ccc\J)	.	8aa\J)	8ee-\J	.	8c\J)	8A\J	.	.	.	.	24r	.	16r	.	16r	.	8C/J	.
.	.	.	.	.	.	.	.	.	.	.	(24f/LL	.	.	.	.	.	.	.
.	.	.	.	.	.	.	.	.	.	.	.	.	16e-/	.	16A/	.	.	.
.	.	.	.	.	.	.	.	.	.	.	24g-/JJ)	.	.	.	.	.	.	.
=51	=51	=51	=51	=51	=51	=51	=51	=51	=51	=51	=51	=51	=51	=51	=51	=51	=51	=51
[2eee-\	fp	(4bb-\	4gg-\	fp	[2e-/	(4B-\	fp	4r	4r	.	[8bb-\	f	24g-/LL	fp	24B-\LL	fp	8BB-\L	fp
.	.	.	.	.	.	.	.	.	.	.	.	.	24g-/	.	24e-\	.	.	.
.	.	.	.	.	.	.	.	.	.	.	.	.	24g-/	.	24e-\	.	.	.
.	.	.	.	.	.	.	.	.	.	.	16bb-\LK]	p	24g-/	.	24e-\	.	8B-\	.
.	.	.	.	.	.	.	.	.	.	.	.	.	24g-/	.	24e-\	.	.	.
.	.	.	.	.	.	.	.	.	.	.	8gg-\	.	.	.	.	.	.	.
.	.	.	.	.	.	.	.	.	.	.	.	.	24g-/JJ	.	24e-\JJ	.	.	.
.	.	4gg-\	[4ee-\	.	.	4G-\	.	4r	4r	.	.	.	24g-/LL	.	24e-\LL	.	8B-\	.
.	.	.	.	.	.	.	.	.	.	.	.	.	24g-/	.	24e-\	.	.	.
.	.	.	.	.	.	.	.	.	.	.	8ee\	.	.	.	.	.	.	.
.	.	.	.	.	.	.	.	.	.	.	.	.	24g-/	.	24e-\	.	.	.
.	.	.	.	.	.	.	.	.	.	.	.	.	24g-/	.	24e-\	.	8B-\J	.
.	.	.	.	.	.	.	.	.	.	.	.	.	24g-/	.	24e-\	.	.	.
.	.	.	.	.	.	.	.	.	.	.	16b-\Jk	.	.	.	.	.	.	.
.	.	.	.	.	.	.	.	.	.	.	.	.	24g-/JJ	.	24e-\JJ	.	.	.
(4eee-\]	fp	4ff\)	(4ee-\]	fp	(4e-\]	4F\)	fp	[4cc/	[4c/	fp	([8bb-\	f	24f/LL	fp	24e-\LL	fp	8BB-\L	f
.	.	.	.	.	.	.	.	.	.	.	.	.	24f/	.	24e-\	.	.	.
.	.	.	.	.	.	.	.	.	.	.	.	.	24f/	.	24e-\	.	.	.
.	.	.	.	.	.	.	.	.	.	.	16bb-\LL]	p	24f/	.	24e-\	.	8B-\J	p
.	.	.	.	.	.	.	.	.	.	.	.	.	24f/	.	24e-\	.	.	.
.	.	.	.	.	.	.	.	.	.	.	16ff\JJ	.	.	.	.	.	.	.
.	.	.	.	.	.	.	.	.	.	.	.	.	24f/JJ	.	24e-\JJ	.	.	.
=52	=52	=52	=52	=52	=52	=52	=52	=52	=52	=52	=52	=52	=52	=52	=52	=52	=52	=52
4ddd-\	.	[4bb-\	4dd-\	.	4d-\	[4B-\	.	4cc/]	4c/]	.	16ff\LK	.	24b-\LL	.	24d-\LL	.	8B-\L	.
.	.	.	.	.	.	.	.	.	.	.	.	.	24b-\	.	24d-\	.	.	.
.	.	.	.	.	.	.	.	.	.	.	8dd-\	.	.	.	.	.	.	.
.	.	.	.	.	.	.	.	.	.	.	.	.	24b-\	.	24d-\	.	.	.
.	.	.	.	.	.	.	.	.	.	.	.	.	24b-\	.	24d-\	.	8B-\J	.
.	.	.	.	.	.	.	.	.	.	.	.	.	24b-\	.	24d-\	.	.	.
.	.	.	.	.	.	.	.	.	.	.	16b-\Jk)	.	.	.	.	.	.	.
.	.	.	.	.	.	.	.	.	.	.	.	.	24b-\JJ	.	24d-\JJ	.	.	.
4ccc\)	fp	4bb-\]	4cc\)	fp	4c\)	4B-\]	fp	2cc/	2c/	fp	[8ccc\	f	24b-\LL	fp	24c\LL	fp	8FF/L	f
.	.	.	.	.	.	.	.	.	.	.	.	.	24b-\	.	24c\	.	.	.
.	.	.	.	.	.	.	.	.	.	.	.	.	24b-\	.	24c\	.	.	.
.	.	.	.	.	.	.	.	.	.	.	(16ccc\LK]	p	24b-\	.	24c\	.	8F/	p
.	.	.	.	.	.	.	.	.	.	.	.	.	24b-\	.	24c\	.	.	.
.	.	.	.	.	.	.	.	.	.	.	8ff\	.	.	.	.	.	.	.
.	.	.	.	.	.	.	.	.	.	.	.	.	24b-\JJ	.	24c\JJ	.	.	.
[4fff\	.	(4aa-\	[4ff\	.	[4f\	(4A-\	.	.	.	.	.	.	24a-/LL	.	24f\LL	.	8F/	.
.	.	.	.	.	.	.	.	.	.	.	.	.	24a-/	.	24f\	.	.	.
.	.	.	.	.	.	.	.	.	.	.	8cc\	.	.	.	.	.	.	.
.	.	.	.	.	.	.	.	.	.	.	.	.	24a-/	.	24f\	.	.	.
.	.	.	.	.	.	.	.	.	.	.	.	.	24a-/	.	24f\	.	8F/J	.
.	.	.	.	.	.	.	.	.	.	.	.	.	24a-/	.	24f\	.	.	.
.	.	.	.	.	.	.	.	.	.	.	16f\Jk)	.	.	.	.	.	.	.
.	.	.	.	.	.	.	.	.	.	.	.	.	24a-/JJ	.	24f\JJ	.	.	.
=53	=53	=53	=53	=53	=53	=53	=53	=53	=53	=53	=53	=53	=53	=53	=53	=53	=53	=53
(4fff\]	fp	4ggn\)	(4ff\]	fp	(4f\]	4Gn\)	fp	2g/	2G/	fp	[8ccc\	f	24gn/LL	fp	24f\LL	fp	8CC/L	f
.	.	.	.	.	.	.	.	.	.	.	.	.	24g/	.	24f\	.	.	.
.	.	.	.	.	.	.	.	.	.	.	.	.	24g/	.	24f\	.	.	.
.	.	.	.	.	.	.	.	.	.	.	(16ccc\LK]	p	24g/	.	24f\	.	8C/	p
.	.	.	.	.	.	.	.	.	.	.	.	.	24g/	.	24f\	.	.	.
.	.	.	.	.	.	.	.	.	.	.	8ggn\	.	.	.	.	.	.	.
.	.	.	.	.	.	.	.	.	.	.	.	.	24g/JJ	.	24f\JJ	.	.	.
4eee-\	.	[4ccc\	4ee-\	.	4e-\	[4c\	.	.	.	.	.	.	24cc\LL	.	24e-\LL	.	8C/	.
.	.	.	.	.	.	.	.	.	.	.	.	.	24cc\	.	24e-\	.	.	.
.	.	.	.	.	.	.	.	.	.	.	8ee-\	.	.	.	.	.	.	.
.	.	.	.	.	.	.	.	.	.	.	.	.	24cc\	.	24e-\	.	.	.
.	.	.	.	.	.	.	.	.	.	.	.	.	24cc\	.	24e-\	.	8C/J	.
.	.	.	.	.	.	.	.	.	.	.	.	.	24cc\	.	24e-\	.	.	.
.	.	.	.	.	.	.	.	.	.	.	16cc\Jk)	.	.	.	.	.	.	.
.	.	.	.	.	.	.	.	.	.	.	.	.	24cc\JJ	.	24e-\JJ	.	.	.
4dddn\)	fp	4ccc\]	4ddn\)	fp	4dn\)	4c\]	fp	[4dd/	[4dd\	fp	[8dddn\	f	24cc\LL	fp	24dn\LL	fp	8GG/L	f
.	.	.	.	.	.	.	.	.	.	.	.	.	24cc\	.	24d\	.	.	.
.	.	.	.	.	.	.	.	.	.	.	.	.	24cc\	.	24d\	.	.	.
.	.	.	.	.	.	.	.	.	.	.	(16ddd\LL]	p	24cc\	.	24d\	.	8G/J	p
.	.	.	.	.	.	.	.	.	.	.	.	.	24cc\	.	24d\	.	.	.
.	.	.	.	.	.	.	.	.	.	.	16gg\JJ	.	.	.	.	.	.	.
.	.	.	.	.	.	.	.	.	.	.	.	.	24cc\JJ	.	24d\JJ	.	.	.
=54	=54	=54	=54	=54	=54	=54	=54	=54	=54	=54	=54	=54	=54	=54	=54	=54	=54	=54
[4ggg\	.	(4bb-\	[4gg\	.	[4g\	(4B-\	.	4dd/]	4dd\]	.	16gg\LK	.	24b-\LL	.	24g\LL	.	8G\L	.
.	.	.	.	.	.	.	.	.	.	.	.	.	24b-\	.	24g\	.	.	.
.	.	.	.	.	.	.	.	.	.	.	8ddn\	.	.	.	.	.	.	.
.	.	.	.	.	.	.	.	.	.	.	.	.	24b-\	.	24g\	.	.	.
.	.	.	.	.	.	.	.	.	.	.	.	.	24b-\	.	24g\	.	8G\J	.
.	.	.	.	.	.	.	.	.	.	.	.	.	24b-\	.	24g\	.	.	.
.	.	.	.	.	.	.	.	.	.	.	16g\Jk)	.	.	.	.	.	.	.
.	.	.	.	.	.	.	.	.	.	.	.	.	24b-\JJ	.	24g\JJ	.	.	.
(4ggg\]	fp	[2aan/)	(4gg\]	.	(4g/]	[2An\)	fp	2ee/	(4dd\	fp	[8ddd\	f	24an/LL	fp	24g\LL	fp	8D\L	f
.	.	.	.	.	.	.	.	.	.	.	.	.	24a/	.	24g\	.	.	.
.	.	.	.	.	.	.	.	.	.	.	.	.	24a/	.	24g\	.	.	.
.	.	.	.	.	.	.	.	.	.	.	(16ddd\LK]	p	24a/	.	24g\	.	8d\	p
.	.	.	.	.	.	.	.	.	.	.	.	.	24a/	.	24g\	.	.	.
.	.	.	.	.	.	.	.	.	.	.	8aan\	.	.	.	.	.	.	.
.	.	.	.	.	.	.	.	.	.	.	.	.	24a/JJ	.	24g\JJ	.	.	.
[4fff\)	.	.	[4ff\)	.	[4f/)	.	.	.	4cc\)	.	.	.	24a/LL	.	24f\LL	.	8d\	.
.	.	.	.	.	.	.	.	.	.	.	.	.	24a/	.	24f\	.	.	.
.	.	.	.	.	.	.	.	.	.	.	8ff\	.	.	.	.	.	.	.
.	.	.	.	.	.	.	.	.	.	.	.	.	24a/	.	24f\	.	.	.
.	.	.	.	.	.	.	.	.	.	.	.	.	24a/	.	24f\	.	8d\J	.
.	.	.	.	.	.	.	.	.	.	.	.	.	24a/	.	24f\	.	.	.
.	.	.	.	.	.	.	.	.	.	.	16dd\Jk)	.	.	.	.	.	.	.
.	.	.	.	.	.	.	.	.	.	.	.	.	24a/JJ	.	24f\JJ	.	.	.
=55	=55	=55	=55	=55	=55	=55	=55	=55	=55	=55	=55	=55	=55	=55	=55	=55	=55	=55
(4fff\]	fp	(4aa\]	4ff\]	fp	(4f\]	4A\]	fp	2.r	2.r	.	[8bb-\	f	24a/LL	fp	24f\LL	fp	8GG\L	f
.	.	.	.	.	.	.	.	.	.	.	.	.	24a/	.	24f\	.	.	.
.	.	.	.	.	.	.	.	.	.	.	.	.	24a/	.	24f\	.	.	.
.	.	.	.	.	.	.	.	.	.	.	(16bb-/LK]	p	24a/	.	24f\	.	8G\	p
.	.	.	.	.	.	.	.	.	.	.	.	.	24a/	.	24f\	.	.	.
.	.	.	.	.	.	.	.	.	.	.	8b-/	.	.	.	.	.	.	.
.	.	.	.	.	.	.	.	.	.	.	.	.	24a/JJ	.	24f\JJ	.	.	.
4eee-\	.	4gg\	4ee-\	.	4e-\	4G\	.	.	.	.	.	.	24g/LL	.	24e-\LL	.	8G\	.
.	.	.	.	.	.	.	.	.	.	.	.	.	24g/	.	24e-\	.	.	.
.	.	.	.	.	.	.	.	.	.	.	8g/	.	.	.	.	.	.	.
.	.	.	.	.	.	.	.	.	.	.	.	.	24g/	.	24e-\	.	.	.
.	.	.	.	.	.	.	.	.	.	.	.	.	24g/	.	24e-\	.	8G\J	.
.	.	.	.	.	.	.	.	.	.	.	.	.	24g/	.	24e-\	.	.	.
.	.	.	.	.	.	.	.	.	.	.	16e-/Jk)	.	.	.	.	.	.	.
.	.	.	.	.	.	.	.	.	.	.	.	.	24g/JJ	.	24e-\JJ	.	.	.
4ddd\)	.	4ff\)	4dd\	.	4d\)	4F\	.	.	.	.	(24d/LL	.	8f/L	.	(8Bn/L	.	8G#\L	.
.	.	.	.	.	.	.	.	.	.	.	24c#/	.	.	.	.	.	.	.
.	.	.	.	.	.	.	.	.	.	.	24d/	.	.	.	.	.	.	.
.	.	.	.	.	.	.	.	.	.	.	24f/	.	(24d/L	.	8F/J)	.	8G#\J	.
.	.	.	.	.	.	.	.	.	.	.	24en/	.	24c#/	.	.	.	.	.
.	.	.	.	.	.	.	.	.	.	.	24d/JJ)	.	24Bn/JJ)	.	.	.	.	.
=56	=56	=56	=56	=56	=56	=56	=56	=56	=56	=56	=56	=56	=56	=56	=56	=56	=56	=56
8ccc#\	.	8een\	8cc#\	.	8c#\	8E\	.	2.r	2.r	.	8c#/	.	8A/	.	8En/	.	8A\	.
8r	.	8r	8r	.	8r	8ryy	.	.	.	.	8r	.	8r	.	8r	.	8r	.
4r	.	4r	4r	.	4r	4ryy	.	.	.	.	(4g#/	.	(24d/LL	.	(4B-/	.	(4BB-/	.
.	.	.	.	.	.	.	.	.	.	.	.	.	24c#/	.	.	.	.	.
.	.	.	.	.	.	.	.	.	.	.	.	.	24d/	.	.	.	.	.
.	.	.	.	.	.	.	.	.	.	.	.	.	24f/	.	.	.	.	.
.	.	.	.	.	.	.	.	.	.	.	.	.	24e/	.	.	.	.	.
.	.	.	.	.	.	.	.	.	.	.	.	.	24d/JJ	.	.	.	.	.
4r	.	4r	4r	.	(24A/LL	4ryy	.	.	.	.	8a/)	.	8c#/)	.	8A/)	.	8AA/)	.
.	.	.	.	.	24G#/	.	.	.	.	.	.	.	.	.	.	.	.	.
.	.	.	.	.	24A/	.	.	.	.	.	.	.	.	.	.	.	.	.
.	.	.	.	.	24c#/	.	.	.	.	.	8r	.	8r	.	8r	.	8r	.
.	.	.	.	.	24Bn/	.	.	.	.	.	.	.	.	.	.	.	.	.
.	.	.	.	.	24A/JJ)	.	.	.	.	.	.	.	.	.	.	.	.	.
=57	=57	=57	=57	=57	=57	=57	=57	=57	=57	=57	=57	=57	=57	=57	=57	=57	=57	=57
*	*	*v	*v	*	*	*	*	*	*	*	*	*	*	*	*	*	*	*
2.r	.	4r	.	2.r	2.r	.	2.r	2.r	.	(24dd\LL	.	(4g#/	.	(4B-/	.	(4B-\	.
.	.	.	.	.	.	.	.	.	.	24cc#\	.	.	.	.	.	.	.
.	.	.	.	.	.	.	.	.	.	24dd\	.	.	.	.	.	.	.
.	.	.	.	.	.	.	.	.	.	24ff\	.	.	.	.	.	.	.
.	.	.	.	.	.	.	.	.	.	24ee\	.	.	.	.	.	.	.
.	.	.	.	.	.	.	.	.	.	24dd\JJ	.	.	.	.	.	.	.
!	!	! I.	!	!	!	!	!	!	!	!	!	!	!	!	!	!	!
.	.	(24a/LL	.	.	.	.	.	.	.	8cc#\)	.	8a/)	.	8A/)	.	8A\)	.
.	.	24g#/	.	.	.	.	.	.	.	.	.	.	.	.	.	.	.
.	.	24a/	.	.	.	.	.	.	.	.	.	.	.	.	.	.	.
.	.	24cc#/	.	.	.	.	.	.	.	8r	.	8r	.	8r	.	8r	.
.	.	24bn/	.	.	.	.	.	.	.	.	.	.	.	.	.	.	.
.	.	24a/JJ)	.	.	.	.	.	.	.	.	.	.	.	.	.	.	.
.	.	4r	.	.	.	.	.	.	.	(4gg#\	.	(24dd\LL	.	(4b-\	.	4r	.
.	.	.	.	.	.	.	.	.	.	.	.	24cc#\	.	.	.	.	.
.	.	.	.	.	.	.	.	.	.	.	.	24dd\	.	.	.	.	.
.	.	.	.	.	.	.	.	.	.	.	.	24ff\	.	.	.	.	.
.	.	.	.	.	.	.	.	.	.	.	.	24ee\	.	.	.	.	.
.	.	.	.	.	.	.	.	.	.	.	.	24dd\JJ	.	.	.	.	.
=58	=58	=58	=58	=58	=58	=58	=58	=58	=58	=58	=58	=58	=58	=58	=58	=58	=58
(24aa\LL	.	4r	.	2.r	2.r	.	2.r	2.r	.	8aa\)	.	8cc#\)	.	8a\)	.	4r	.
24gg#\	.	.	.	.	.	.	.	.	.	.	.	.	.	.	.	.	.
24aa\	.	.	.	.	.	.	.	.	.	.	.	.	.	.	.	.	.
24ccc#\	.	.	.	.	.	.	.	.	.	4r	.	4r	.	4r	.	.	.
24bbn\	.	.	.	.	.	.	.	.	.	.	.	.	.	.	.	.	.
24aa\JJ)	.	.	.	.	.	.	.	.	.	.	.	.	.	.	.	.	.
(24ddd\LL	.	4gg#\	.	.	.	.	.	.	.	.	.	.	.	.	.	8E\	.
24ccc#\	.	.	.	.	.	.	.	.	.	.	.	.	.	.	.	.	.
24ddd\	.	.	.	.	.	.	.	.	.	.	.	.	.	.	.	.	.
24fff\	.	.	.	.	.	.	.	.	.	8g#/ 8Bn/	.	8d/	.	8E/	.	8r	.
24eee\	.	.	.	.	.	.	.	.	.	.	.	.	.	.	.	.	.
24ddd\JJ)	.	.	.	.	.	.	.	.	.	.	.	.	.	.	.	.	.
4ccc#\	.	(24ggn\LL	.	.	.	.	.	.	.	8r	.	8r	.	8r	.	8A\	.
.	.	24ff#\	.	.	.	.	.	.	.	.	.	.	.	.	.	.	.
.	.	24gg\	.	.	.	.	.	.	.	.	.	.	.	.	.	.	.
.	.	24bb-\	.	.	.	.	.	.	.	8gn/ 8A/	.	8c#/	.	8E/	.	8r	.
.	.	24aa\	.	.	.	.	.	.	.	.	.	.	.	.	.	.	.
.	.	24gg\JJ)	.	.	.	.	.	.	.	.	.	.	.	.	.	.	.
=59	=59	=59	=59	=59	=59	=59	=59	=59	=59	=59	=59	=59	=59	=59	=59	=59	=59
*	*	*^	*	*	*	*	*	*	*	*	*	*	*	*	*	*	*
(24cccn\LL	.	4ff#\	2ryy	.	4r	4r	.	4r	4r	.	8r	.	8r	.	8r	.	8D\	.
24bbn\	.	.	.	.	.	.	.	.	.	.	.	.	.	.	.	.	.	.
24ccc\	.	.	.	.	.	.	.	.	.	.	.	.	.	.	.	.	.	.
24eee-\	.	.	.	.	.	.	.	.	.	.	8f#/ 8An/	.	8cn/	.	8D/	.	8r	.
24ddd\	.	.	.	.	.	.	.	.	.	.	.	.	.	.	.	.	.	.
24ccc\JJ)	.	.	.	.	.	.	.	.	.	.	.	.	.	.	.	.	.	.
4bb\	.	(24ffn\LL	.	.	4r	4r	.	4r	4r	.	8r	.	8r	.	8r	.	8G\	.
.	.	24ee\	.	.	.	.	.	.	.	.	.	.	.	.	.	.	.	.
.	.	24ff\	.	.	.	.	.	.	.	.	.	.	.	.	.	.	.	.
.	.	24aa-\	.	.	.	.	.	.	.	.	8f/ 8Gn/	.	8Bn/	.	8D/	.	8r	.
.	.	24gg\	.	.	.	.	.	.	.	.	.	.	.	.	.	.	.	.
.	.	24ff\JJ)	.	.	.	.	.	.	.	.	.	.	.	.	.	.	.	.
(24bb-\LL	.	(4ee\	(4b-\	.	(4e\	(4B-\	.	(4dd/	(4G/	p	8r	.	8r	.	8r	.	8C/	.
24aa\	.	.	.	.	.	.	.	.	.	.	.	.	.	.	.	.	.	.
24bb-\	.	.	.	.	.	.	.	.	.	.	.	.	.	.	.	.	.	.
24ddd\	.	.	.	.	.	.	.	.	.	.	8e/ 8G/	.	8B-/	.	8C/	.	8r	.
24ccc\	.	.	.	.	.	.	.	.	.	.	.	.	.	.	.	.	.	.
24bb-\JJ)	.	.	.	.	.	.	.	.	.	.	.	.	.	.	.	.	.	.
=60	=60	=60	=60	=60	=60	=60	=60	=60	=60	=60	=60	=60	=60	=60	=60	=60	=60	=60
8aa\	.	8ff\)	8an\)	.	8f\)	8A\)	.	8cc/)	8c/)	.	(8.f/L	.	8A/L	.	8C/L	.	4F\	.
8r	.	8r	8r	.	8r	8r	.	8r	8r	.	.	.	8c/	.	8A/ 8F/	.	.	.
.	.	.	.	.	.	.	.	.	.	.	16c/Jk)	.	.	.	.	.	.	.
4r	.	4r	4r	.	4r	4r	.	4r	4r	.	(4..a/	.	8c/	.	8A/ 8F/	.	4r	.
.	.	.	.	.	.	.	.	.	.	.	.	.	8c/	.	8A/ 8F/	.	.	.
4r	.	4r	4r	.	4r	4r	.	4r	4r	.	.	.	8c/	.	8A/ 8F/	.	4r	.
.	.	.	.	.	.	.	.	.	.	.	.	.	8c/J	.	8A/ 8F/J	.	.	.
.	.	.	.	.	.	.	.	.	.	.	32g/LLL	.	.	.	.	.	.	.
.	.	.	.	.	.	.	.	.	.	.	32f/JJJ)	.	.	.	.	.	.	.
=61	=61	=61	=61	=61	=61	=61	=61	=61	=61	=61	=61	=61	=61	=61	=61	=61	=61	=61
2.r	.	2.r	2.r	.	2.r	2.r	.	2.r	2.r	.	8e'/	.	8c/L	.	8B-/ 8G/L	.	4r	.
.	.	.	.	.	.	.	.	.	.	.	8r	.	8c/	.	8B-/ 8G/	.	.	.
.	.	.	.	.	.	.	.	.	.	.	8b-'\	f	8c/	.	8B-/ 8G/	.	32r	.
.	.	.	.	.	.	.	.	.	.	.	.	.	.	.	.	.	(32F#\LLL	.
.	.	.	.	.	.	.	.	.	.	.	.	.	.	.	.	.	32G\	.
.	.	.	.	.	.	.	.	.	.	.	.	.	.	.	.	.	32F#\JJJ	.
.	.	.	.	.	.	.	.	.	.	.	8r	.	8c/	.	8B-/ 8G/	.	32G\LLL	.
.	.	.	.	.	.	.	.	.	.	.	.	.	.	.	.	.	32A\	.
.	.	.	.	.	.	.	.	.	.	.	.	.	.	.	.	.	32B-\	.
.	.	.	.	.	.	.	.	.	.	.	.	.	.	.	.	.	32A\JJJ	.
.	.	.	.	.	.	.	.	.	.	.	4r	.	8c/	.	8B-/ 8G/	.	32B-\LLL	.
.	.	.	.	.	.	.	.	.	.	.	.	.	.	.	.	.	32c#\	.
.	.	.	.	.	.	.	.	.	.	.	.	.	.	.	.	.	32d\	.
.	.	.	.	.	.	.	.	.	.	.	.	.	.	.	.	.	32A\JJJ	.
.	.	.	.	.	.	.	.	.	.	.	.	.	8c/J	.	8B-/ 8G/J	.	32cn\LLL	.
.	.	.	.	.	.	.	.	.	.	.	.	.	.	.	.	.	32B-\	.
.	.	.	.	.	.	.	.	.	.	.	.	.	.	.	.	.	32A\	.
.	.	.	.	.	.	.	.	.	.	.	.	.	.	.	.	.	32G\JJJ)	.
=62	=62	=62	=62	=62	=62	=62	=62	=62	=62	=62	=62	=62	=62	=62	=62	=62	=62	=62
*	*	*	*	*	*	*	*	*	*	*	*	*	*	*	*^	*	*	*
2.r	.	2.r	2.r	.	2.r	2.r	.	2.r	2.r	.	32r	.	8c/L	.	8B-/L	8G\L	.	(4Fn\	.
.	.	.	.	.	.	.	.	.	.	.	(32ff#\LLL	p	.	.	.	.	.	.	.
.	.	.	.	.	.	.	.	.	.	.	32gg\	.	.	.	.	.	.	.	.
.	.	.	.	.	.	.	.	.	.	.	32ff#\JJJ	.	.	.	.	.	.	.	.
.	.	.	.	.	.	.	.	.	.	.	32gg\LLL	.	8c/	.	8B-/	8G\	.	.	.
.	.	.	.	.	.	.	.	.	.	.	32aa\	.	.	.	.	.	.	.	.
.	.	.	.	.	.	.	.	.	.	.	32bb-\	.	.	.	.	.	.	.	.
.	.	.	.	.	.	.	.	.	.	.	32aa\JJJ	.	.	.	.	.	.	.	.
.	.	.	.	.	.	.	.	.	.	.	32bb-\LLL	.	8c/	.	8B-/	8G\	.	8E\)	.
.	.	.	.	.	.	.	.	.	.	.	32ccc#\	.	.	.	.	.	.	.	.
.	.	.	.	.	.	.	.	.	.	.	32ddd\	.	.	.	.	.	.	.	.
.	.	.	.	.	.	.	.	.	.	.	32aa\JJJ	.	.	.	.	.	.	.	.
.	.	.	.	.	.	.	.	.	.	.	32cccn\LLL	.	8c/	.	8B-/	8G\	.	8r	.
.	.	.	.	.	.	.	.	.	.	.	32bb-\	.	.	.	.	.	.	.	.
.	.	.	.	.	.	.	.	.	.	.	32aa\	.	.	.	.	.	.	.	.
.	.	.	.	.	.	.	.	.	.	.	32gg\JJJ	.	.	.	.	.	.	.	.
.	.	.	.	.	.	.	.	.	.	.	32ffn\LLL	.	8c/	.	8B-/	8G\	.	8C/	.
.	.	.	.	.	.	.	.	.	.	.	32ee\	.	.	.	.	.	.	.	.
.	.	.	.	.	.	.	.	.	.	.	32aa\	.	.	.	.	.	.	.	.
.	.	.	.	.	.	.	.	.	.	.	32gg\JJJ	.	.	.	.	.	.	.	.
.	.	.	.	.	.	.	.	.	.	.	32ff\LLL	.	8c/J	.	8B-/J	8G\J	.	8r	.
.	.	.	.	.	.	.	.	.	.	.	32ee\	.	.	.	.	.	.	.	.
.	.	.	.	.	.	.	.	.	.	.	32dd\	.	.	.	.	.	.	.	.
.	.	.	.	.	.	.	.	.	.	.	32cc\JJJ)	.	.	.	.	.	.	.	.
=63	=63	=63	=63	=63	=63	=63	=63	=63	=63	=63	=63	=63	=63	=63	=63	=63	=63	=63	=63
2.r	.	2.r	2.r	.	2.r	2.r	.	2.r	2.r	.	(32b-\LLL	.	8c/L	.	8A/L	8F\L	.	8E-\	.
.	.	.	.	.	.	.	.	.	.	.	32a\	.	.	.	.	.	.	.	.
.	.	.	.	.	.	.	.	.	.	.	32ff\	.	.	.	.	.	.	.	.
.	.	.	.	.	.	.	.	.	.	.	32ee-\JJJ	.	.	.	.	.	.	.	.
.	.	.	.	.	.	.	.	.	.	.	32dd\LLL	.	8c/	.	8A/	8F\	.	8r	.
.	.	.	.	.	.	.	.	.	.	.	32cc\	.	.	.	.	.	.	.	.
.	.	.	.	.	.	.	.	.	.	.	32b-\	.	.	.	.	.	.	.	.
.	.	.	.	.	.	.	.	.	.	.	32a\JJJ	.	.	.	.	.	.	.	.
.	.	.	.	.	.	.	.	.	.	.	32g\LLL	.	8e-/	.	8A/	8F\	.	8C/	.
.	.	.	.	.	.	.	.	.	.	.	32f\	.	.	.	.	.	.	.	.
.	.	.	.	.	.	.	.	.	.	.	32dd\	.	.	.	.	.	.	.	.
.	.	.	.	.	.	.	.	.	.	.	32cc\JJJ	.	.	.	.	.	.	.	.
.	.	.	.	.	.	.	.	.	.	.	32b-/LLL	.	8e-/	.	8A/	8F\	.	8r	.
.	.	.	.	.	.	.	.	.	.	.	32a/	.	.	.	.	.	.	.	.
.	.	.	.	.	.	.	.	.	.	.	32g/	.	.	.	.	.	.	.	.
.	.	.	.	.	.	.	.	.	.	.	32f/JJJ	.	.	.	.	.	.	.	.
.	.	.	.	.	.	.	.	.	.	.	32en/LLL	.	8c/	.	8F/	8C\	.	8AA/	.
.	.	.	.	.	.	.	.	.	.	.	32f/	.	.	.	.	.	.	.	.
.	.	.	.	.	.	.	.	.	.	.	32g/	.	.	.	.	.	.	.	.
.	.	.	.	.	.	.	.	.	.	.	32f/JJJ	.	.	.	.	.	.	.	.
.	.	.	.	.	.	.	.	.	.	.	32e-/LLL	.	8c/J	.	8Fn/J	8E-\J	.	8r	.
.	.	.	.	.	.	.	.	.	.	.	32d/	.	.	.	.	.	.	.	.
.	.	.	.	.	.	.	.	.	.	.	32e-/	.	.	.	.	.	.	.	.
.	.	.	.	.	.	.	.	.	.	.	32c/JJJ)	.	.	.	.	.	.	.	.
=64	=64	=64	=64	=64	=64	=64	=64	=64	=64	=64	=64	=64	=64	=64	=64	=64	=64	=64	=64
2.r	.	2.r	2.r	.	8d\L	8B-\L	.	8cc/L	8c/L	p	4B-/	.	4B-/	.	8F/	8D\	.	(8.B-\L	.
.	.	.	.	.	8d\	8B-\	.	8cc/	8c/	.	.	.	.	.	8r	3..ryy	.	.	.
.	.	.	.	.	.	.	.	.	.	.	.	.	.	.	.	.	.	16F\Jk)	.
.	.	.	.	.	8d\	8B-\	.	8cc/	8c/	.	4r	.	4r	.	(4..d\	.	.	(4..d\	.
.	.	.	.	.	8d\	8B-\	.	8cc/	8c/	.	.	.	.	.	.	.	.	.	.
.	.	.	.	.	8d\	8B-\	.	8cc/	8c/	.	4r	.	4r	.	.	.	.	.	.
.	.	.	.	.	8d\J	8B-\J	.	8cc/J	8c/J	.	.	.	.	.	.	.	.	.	.
.	.	.	.	.	.	.	.	.	.	.	.	.	.	.	32c/LLL	.	.	32c\LLL	.
.	.	.	.	.	.	.	.	.	.	.	.	.	.	.	.	24ryy	.	.	.
.	.	.	.	.	.	.	.	.	.	.	.	.	.	.	32B-/JJJ	.	.	32B-\JJJ	.
=65	=65	=65	=65	=65	=65	=65	=65	=65	=65	=65	=65	=65	=65	=65	=65	=65	=65	=65	=65
*	*	*	*	*	*	*	*	*	*	*	*	*	*	*	*v	*v	*	*	*
2.r	.	2.r	2.r	.	8e-\L	8c\L	.	8cc/L	8c/L	.	4r	.	4r	.	8A/)	.	8A\)	.
.	.	.	.	.	8e-\	8c\	.	8cc/	8c/	.	.	.	.	.	8r	.	8r	.
.	.	.	.	.	8e-\	8c\	.	8cc/	8c/	.	32r	.	32r	.	8e-'\	f	8e-'\	f
.	.	.	.	.	.	.	.	.	.	.	(32bn\LLL	.	(32Bn/LLL	.	.	.	.	.
.	.	.	.	.	.	.	.	.	.	.	32cc\	.	32c/	.	.	.	.	.
.	.	.	.	.	.	.	.	.	.	.	32b\JJJ	.	32B/JJJ	.	.	.	.	.
.	.	.	.	.	8e-\	8c\	.	8cc/	8c/	.	32cc\LLL	.	32c/LLL	.	8r	.	8r	.
.	.	.	.	.	.	.	.	.	.	.	32dd\	.	32d/	.	.	.	.	.
.	.	.	.	.	.	.	.	.	.	.	32ee-\	.	32e-/	.	.	.	.	.
.	.	.	.	.	.	.	.	.	.	.	32dd\JJJ	.	32d/JJJ	.	.	.	.	.
.	.	.	.	.	8e-\	8c\	.	8cc/	8c/	.	32ee-\LLL	.	32e-/LLL	.	4r	.	4r	.
.	.	.	.	.	.	.	.	.	.	.	32ff#\	.	32f#/	.	.	.	.	.
.	.	.	.	.	.	.	.	.	.	.	32gg\	.	32g/	.	.	.	.	.
.	.	.	.	.	.	.	.	.	.	.	32dd\JJJ	.	32d/JJJ	.	.	.	.	.
.	.	.	.	.	8e-\J	8c\J	.	8cc/J	8c/J	.	32ffn\LLL	.	32fn/LLL	.	.	.	.	.
.	.	.	.	.	.	.	.	.	.	.	32ee-\	.	32e-/	.	.	.	.	.
.	.	.	.	.	.	.	.	.	.	.	32dd\	.	32d/	.	.	.	.	.
.	.	.	.	.	.	.	.	.	.	.	32cc\JJJ)	.	32c/JJJ)	.	.	.	.	.
=66	=66	=66	=66	=66	=66	=66	=66	=66	=66	=66	=66	=66	=66	=66	=66	=66	=66	=66
2.r	.	2.r	2.r	.	8e-\L	8c\L	.	8cc/L	8c/L	.	(4b-\	.	(4B-/	.	32r	.	32r	.
.	.	.	.	.	.	.	.	.	.	.	.	.	.	.	(32Bn\LLL	p	(32Bn\LLL	p
.	.	.	.	.	.	.	.	.	.	.	.	.	.	.	32c\	.	32c\	.
.	.	.	.	.	.	.	.	.	.	.	.	.	.	.	32B\JJJ	.	32B\JJJ	.
.	.	.	.	.	8e-\	8c\	.	8cc/	8c/	.	.	.	.	.	32c\LLL	.	32c\LLL	.
.	.	.	.	.	.	.	.	.	.	.	.	.	.	.	32d\	.	32d\	.
.	.	.	.	.	.	.	.	.	.	.	.	.	.	.	32e-\	.	32e-\	.
.	.	.	.	.	.	.	.	.	.	.	.	.	.	.	32d\JJJ	.	32d\JJJ	.
.	.	.	.	.	8e-\	8c\	.	8cc/	8c/	.	8a/)	.	8A/)	.	32e-\LLL	.	32e-\LLL	.
.	.	.	.	.	.	.	.	.	.	.	.	.	.	.	32f#\	.	32f#\	.
.	.	.	.	.	.	.	.	.	.	.	.	.	.	.	32g\	.	32g\	.
.	.	.	.	.	.	.	.	.	.	.	.	.	.	.	32d\JJJ	.	32d\JJJ	.
.	.	.	.	.	8e-\	8c\	.	8cc/	8c/	.	8r	.	8r	.	32fn\LLL	.	32fn\LLL	.
.	.	.	.	.	.	.	.	.	.	.	.	.	.	.	32e-\	.	32e-\	.
.	.	.	.	.	.	.	.	.	.	.	.	.	.	.	32d\	.	32d\	.
.	.	.	.	.	.	.	.	.	.	.	.	.	.	.	32c\JJJ	.	32c\JJJ	.
.	.	.	.	.	8e-\	8c\	.	8cc/	8c/	.	4r	.	4r	.	32B-/LLL	.	32B-\LLL	.
.	.	.	.	.	.	.	.	.	.	.	.	.	.	.	32A/	.	32A\	.
.	.	.	.	.	.	.	.	.	.	.	.	.	.	.	32c/	.	32c\	.
.	.	.	.	.	.	.	.	.	.	.	.	.	.	.	32B-/JJJ	.	32B-\JJJ	.
.	.	.	.	.	8c\J	8A\J	.	8cc/J	8c/J	.	.	.	.	.	32A/LLL	.	32A\LLL	.
.	.	.	.	.	.	.	.	.	.	.	.	.	.	.	32G/	.	32G\	.
.	.	.	.	.	.	.	.	.	.	.	.	.	.	.	32F/	.	32F\	.
.	.	.	.	.	.	.	.	.	.	.	.	.	.	.	32E-/JJJ)	.	32E-\JJJ)	.
=67	=67	=67	=67	=67	=67	=67	=67	=67	=67	=67	=67	=67	=67	=67	=67	=67	=67	=67
*	*	*	*	*	*v	*v	*	*	*	*	*	*	*	*	*	*	*	*
!	!	!	!	!	! a 2.	!	!	!	!	!	!	!	!	!	!	!	!
!	!	!	!	!	!	!	!	!	!	!	!	!	!	!	!	!	!
8r	.	8r	8r	.	16.B-\	f	8cc/	8c/	f	32r	.	32r	.	8D/	f	8D\	f
.	.	.	.	.	.	.	.	.	.	(32b-\LLL	f	(32B-/LLL	f	.	.	.	.
.	.	.	.	.	.	.	.	.	.	32cc\	.	32c/	.	.	.	.	.
.	.	.	.	.	32BB-\LLK	.	.	.	.	32dd\JJJ	.	32d/JJJ	.	.	.	.	.
(16.ff\LL	f	16.dd/LL	(16.b-/LL	f	16.D\	.	16.cc/LL	16.cc\LL	.	32ee-\LLL	.	32e-/LLL	.	8r	.	8r	.
.	.	.	.	.	.	.	.	.	.	32ff\	.	32f/	.	.	.	.	.
.	.	.	.	.	.	.	.	.	.	32gg\	.	32g/	.	.	.	.	.
32dd\JJk)	.	32b-/JJk	32f/JJk)	.	32F\JJk	.	32cc/JJk	32cc\JJk	.	32aa\JJJ	.	32a/JJJ	.	.	.	.	.
8bb-'\L	.	8ff'\L	8dd\L	.	8B-'\L	.	8cc/L	8cc\L	.	32ccc\LLL	.	32cc\LLL	.	4r	.	4r	.
.	.	.	.	.	.	.	.	.	.	32bb-\	.	32b-\	.	.	.	.	.
.	.	.	.	.	.	.	.	.	.	32eee-\	.	32ee-\	.	.	.	.	.
.	.	.	.	.	.	.	.	.	.	32ddd\JJJ	.	32dd\JJJ	.	.	.	.	.
8ddd'\J	.	8bb-'\J	8gg\J	.	8BB-'\J	.	8dd/J	8dd\J	.	32ccc\LLL	.	32cc/LLL	.	.	.	.	.
.	.	.	.	.	.	.	.	.	.	32bb-\	.	32b-/	.	.	.	.	.
.	.	.	.	.	.	.	.	.	.	32aa\	.	32a/	.	.	.	.	.
.	.	.	.	.	.	.	.	.	.	32gg\JJJ	.	32g/JJJ	.	.	.	.	.
8r	.	8r	8r	.	16.r	.	8r	8ryy	.	32ff#\LLL	.	32f#/LLL	.	8c\	.	8c\	.
.	.	.	.	.	.	.	.	.	.	32een\	.	32en/	.	.	.	.	.
.	.	.	.	.	.	.	.	.	.	32dd\	.	32d/	.	.	.	.	.
.	.	.	.	.	32C\LLK	.	.	.	.	32ee\JJJ	.	32e/JJJ	.	.	.	.	.
(16.ff#\LL	.	16.dd/LL	(16.a/LL	.	16.F#\	.	16.ee/LL	16.ee\LL	.	32ff#\LLL	.	32f#/LLL	.	8r	.	8r	.
.	.	.	.	.	.	.	.	.	.	32gg\	.	32g/	.	.	.	.	.
.	.	.	.	.	.	.	.	.	.	32aa\	.	32a/	.	.	.	.	.
32dd\JJk)	.	32a/JJk	32f#/JJk)	.	32A\JJk	.	32ee/JJk	32ee\JJk	.	32bb-\JJJ)	.	32b-/JJJ)	.	.	.	.	.
=68	=68	=68	=68	=68	=68	=68	=68	=68	=68	=68	=68	=68	=68	=68	=68	=68	=68
8aa'\L	.	8ff#'\L	8dd\L	.	8c'\L	.	8ee/L	8ee\L	.	(32ccc\LLL	.	(32cc\LLL	.	4r	.	4r	.
.	.	.	.	.	.	.	.	.	.	32bbn\	.	32bn\	.	.	.	.	.
.	.	.	.	.	.	.	.	.	.	32ddd\	.	32dd\	.	.	.	.	.
.	.	.	.	.	.	.	.	.	.	32ccc\JJJ	.	32cc\JJJ	.	.	.	.	.
8ddd'\J	.	8aa'\J	8ff#\J	.	8C'\J	.	8ee/J	8ee\J	.	32bb-\LLL	.	32b-/LLL	.	.	.	.	.
.	.	.	.	.	.	.	.	.	.	32aa\	.	32a/	.	.	.	.	.
.	.	.	.	.	.	.	.	.	.	32gg\	.	32g/	.	.	.	.	.
.	.	.	.	.	.	.	.	.	.	32ff#\JJJ	.	32f#/JJJ	.	.	.	.	.
8r	.	8r	8r	.	16.r	.	8r	8ryy	.	32gg\LLL	.	32g/LLL	.	8B-/	.	8B-\	.
.	.	.	.	.	.	.	.	.	.	32dd\	.	32d/	.	.	.	.	.
.	.	.	.	.	.	.	.	.	.	32ee\	.	32e/	.	.	.	.	.
.	.	.	.	.	32BB-\LLK	.	.	.	.	32ff#\JJJ	.	32f#/JJJ	.	.	.	.	.
(16.gg\LL	.	(16.dd\LL	16.b-\LL	.	16.D\	.	16.ff\LL	16.dd\LL	.	32gg\LLL	.	32g/LLL	.	8r	.	8r	.
.	.	.	.	.	.	.	.	.	.	32ff#\	.	32f#/	.	.	.	.	.
.	.	.	.	.	.	.	.	.	.	32aa\	.	32a/	.	.	.	.	.
32dd\JJk)	.	32b-\JJk)	32g\JJk	.	32G\JJk	.	32ff\JJk	32dd\JJk	.	32gg\JJJ	.	32g/JJJ	.	.	.	.	.
8bb-'\L	.	8gg'\L	8dd\L	.	8B-'\L	.	8ff\L	8dd\L	.	32bb-\LLL	.	32b-/LLL	.	4r	.	4r	.
.	.	.	.	.	.	.	.	.	.	32aa\	.	32a/	.	.	.	.	.
.	.	.	.	.	.	.	.	.	.	32ccc\	.	32cc/	.	.	.	.	.
.	.	.	.	.	.	.	.	.	.	32bb-\JJJ	.	32b-/JJJ	.	.	.	.	.
8ddd'\J	.	8bb-'\J	8gg\J	.	8BB-'\J	.	8ff\J	8dd\J	.	32ddd\LLL	.	32dd/LLL	.	.	.	.	.
.	.	.	.	.	.	.	.	.	.	32bb-\	.	32b-/	.	.	.	.	.
.	.	.	.	.	.	.	.	.	.	32gg\	.	32g/	.	.	.	.	.
.	.	.	.	.	.	.	.	.	.	32ffn\JJJ)	.	32fn/JJJ)	.	.	.	.	.
=69	=69	=69	=69	=69	=69	=69	=69	=69	=69	=69	=69	=69	=69	=69	=69	=69	=69
8r	.	8r	8r	.	16.r	.	8r	8r	.	(32ee\LLL	.	(32e/LLL	.	8B-/	.	8B-\	.
.	.	.	.	.	.	.	.	.	.	32dd\	.	32d/	.	.	.	.	.
.	.	.	.	.	.	.	.	.	.	32cc\	.	32c/	.	.	.	.	.
.	.	.	.	.	32BB-\LLK	.	.	.	.	32dd\JJJ	.	32d/JJJ	.	.	.	.	.
(16.ee\LL	.	16.cc/LL	(16.g/LL	.	16.En\	.	16.dd/LL	16.g/LL	.	32ee\LLL	.	32e/LLL	.	8r	.	8r	.
.	.	.	.	.	.	.	.	.	.	32ff\	.	32f/	.	.	.	.	.
.	.	.	.	.	.	.	.	.	.	32gg\	.	32g/	.	.	.	.	.
32cc\JJk)	.	32g/JJk	32e/JJk)	.	32G\JJk	.	32dd/JJk	32g/JJk	.	32aa\JJJ	.	32a/JJJ	.	.	.	.	.
8gg'\L	.	8ee'\L	8cc\L	.	8B-'\L	.	8dd/L	8g/L	.	32bb-\LLL	.	32b-\LLL	.	4r	.	4r	.
.	.	.	.	.	.	.	.	.	.	32ccc\	.	32cc\	.	.	.	.	.
.	.	.	.	.	.	.	.	.	.	32ddd\	.	32dd\	.	.	.	.	.
.	.	.	.	.	.	.	.	.	.	32bb-\JJJ	.	32b-\JJJ	.	.	.	.	.
8ccc'\J	.	8gg'\J	8ee\J	.	8BB-'\J	.	8dd/J	8g/J	.	32aa\LLL	.	32a/LLL	.	.	.	.	.
.	.	.	.	.	.	.	.	.	.	32gg\	.	32g/	.	.	.	.	.
.	.	.	.	.	.	.	.	.	.	32ff\	.	32f/	.	.	.	.	.
.	.	.	.	.	.	.	.	.	.	32ee\JJJ	.	32e/JJJ	.	.	.	.	.
8r	.	8r	8r	.	16.r	.	8r	8r	.	32ff\LLL	.	32f/LLL	.	8A/	.	8A\	.
.	.	.	.	.	.	.	.	.	.	32cc\	.	32c/	.	.	.	.	.
.	.	.	.	.	.	.	.	.	.	32dd\	.	32d/	.	.	.	.	.
.	.	.	.	.	32AA/LLK	.	.	.	.	32ee\JJJ	.	32e/JJJ	.	.	.	.	.
(16.ffn\LL	.	16.cc/LL	(16.a/LL	.	16.C/	.	16.ee\LL	16.cc\LL	.	32ff\LLL	.	32f/LLL	.	8r	.	8r	.
.	.	.	.	.	.	.	.	.	.	32gg\	.	32g/	.	.	.	.	.
.	.	.	.	.	.	.	.	.	.	32aa\	.	32a/	.	.	.	.	.
32cc\JJk)	.	32a/JJk	32fn/JJk)	.	32Fn/JJk	.	32ee\JJk	32cc\JJk	.	32bb-\JJJ)	.	32b-/JJJ)	.	.	.	.	.
=70	=70	=70	=70	=70	=70	=70	=70	=70	=70	=70	=70	=70	=70	=70	=70	=70	=70
8aa'\L	.	8ffn'\L	8cc\L	.	8A'\L	.	8ee\L	8cc\L	.	(32ccc\LLL	.	(32cc\LLL	.	4r	.	4r	.
.	.	.	.	.	.	.	.	.	.	32ddd\	.	32dd\	.	.	.	.	.
.	.	.	.	.	.	.	.	.	.	32ccc\	.	32cc\	.	.	.	.	.
.	.	.	.	.	.	.	.	.	.	32bb-\JJJ	.	32b-\JJJ	.	.	.	.	.
8ccc'\J	.	8aa'\J	8ff\J	.	8AA'\J	.	8ee\J	8cc\J	.	32aa\LLL	.	32a/LLL	.	.	.	.	.
.	.	.	.	.	.	.	.	.	.	32gg\	.	32g/	.	.	.	.	.
.	.	.	.	.	.	.	.	.	.	32ff\	.	32f/	.	.	.	.	.
.	.	.	.	.	.	.	.	.	.	32ee\JJJ	.	32e/JJJ	.	.	.	.	.
8r	.	8r	8r	.	16.r	.	8r	8r	.	32ff\LLL	.	32f/LLL	.	8d\	.	8D\	.
.	.	.	.	.	.	.	.	.	.	32gg\	.	32g/	.	.	.	.	.
.	.	.	.	.	.	.	.	.	.	32aa\	.	32a/	.	.	.	.	.
.	.	.	.	.	32D\LLK	.	.	.	.	32gg\JJJ	.	32g/JJJ	.	.	.	.	.
(16.dd\LL	.	16.bn/LL	(16.f/LL	.	16.F\	.	16.cc/LL	16.c/LL	.	32ff\LLL	.	32f/LLL	.	8r	.	8r	.
.	.	.	.	.	.	.	.	.	.	32ee\	.	32e/	.	.	.	.	.
.	.	.	.	.	.	.	.	.	.	32dd\	.	32d/	.	.	.	.	.
32bn\JJk)	.	32f/JJk	32d/JJk)	.	32Bn\JJk	.	32cc/JJk	32c/JJk	.	32cc\JJJ	.	32c/JJJ	.	.	.	.	.
8ff'\L	.	8dd'\L	8bn\L	.	8d'\L	.	8cc/L	8c/L	.	32bn/LLL	.	32Bn/LLL	.	4r	.	4r	.
.	.	.	.	.	.	.	.	.	.	32a/	.	32a/	.	.	.	.	.
.	.	.	.	.	.	.	.	.	.	32g/	.	32g/	.	.	.	.	.
.	.	.	.	.	.	.	.	.	.	32f/JJJ	.	32f/JJJ	.	.	.	.	.
8bbn'\J	.	8ff'\J	8dd\J	.	8D'\J	.	8cc/J	8c/J	.	32e/LLL	.	32e/LLL	.	.	.	.	.
.	.	.	.	.	.	.	.	.	.	32d/	.	32d/	.	.	.	.	.
.	.	.	.	.	.	.	.	.	.	32c/	.	32c/	.	.	.	.	.
.	.	.	.	.	.	.	.	.	.	32Bn/JJJ)	.	32B/JJJ)	.	.	.	.	.
=71	=71	=71	=71	=71	=71	=71	=71	=71	=71	=71	=71	=71	=71	=71	=71	=71	=71
*	*	*	*	*	*^	*	*	*	*	*	*	*	*	*	*	*	*
8ccc\L	ff	8ee\L	8g\L	ff	8C\L	8C\L	ff	8g/L	8G/L	ff	4c/	ff	4c/	ff	32r	.	32r	.
.	.	.	.	.	.	.	.	.	.	.	.	.	.	.	(32c\LLL	ff	(32C\LLL	ff
.	.	.	.	.	.	.	.	.	.	.	.	.	.	.	32d\	.	32D\	.
.	.	.	.	.	.	.	.	.	.	.	.	.	.	.	32e\JJJ	.	32E\JJJ	.
16.ccc\L	.	16.ee\L	16.g\L	.	16.e\L	16.G\L	.	16.g/L	16.G/L	.	.	.	.	.	32f\LLL	.	32F\LLL	.
.	.	.	.	.	.	.	.	.	.	.	.	.	.	.	32g\	.	32G\	.
.	.	.	.	.	.	.	.	.	.	.	.	.	.	.	32a\	.	32A\	.
32ccc\JJk	.	32ee\JJk	32g\JJk	.	32e\JJk	32G\JJk	.	32g/JJk	32G/JJk	.	.	.	.	.	32bn\JJJ	.	32Bn\JJJ	.
8ccc\L	.	8ee\L	8g\L	.	8e\L	8G\L	.	8g/L	8G/L	.	8r	.	8r	.	32cc\LLL	.	32c\LLL	.
.	.	.	.	.	.	.	.	.	.	.	.	.	.	.	32ee\	.	32e\	.
.	.	.	.	.	.	.	.	.	.	.	.	.	.	.	32dd\	.	32d\	.
.	.	.	.	.	.	.	.	.	.	.	.	.	.	.	32cc\JJJ	.	32c\JJJ	.
8ccc\	.	8ee\	8g\	.	8e\	8G\	.	8g/	8G/	.	8cc/ 8e/ 8G/L	.	8cc/ 8e/ 8G/L	.	32b\LLL	.	32B\LLL	.
.	.	.	.	.	.	.	.	.	.	.	.	.	.	.	32a\	.	32A\	.
.	.	.	.	.	.	.	.	.	.	.	.	.	.	.	32g\	.	32G\	.
.	.	.	.	.	.	.	.	.	.	.	.	.	.	.	32f#\JJJ	.	32F#\JJJ	.
8ccc\	.	8ee\	8g\	.	8e\	8G\	.	8g/	8G/	.	8ee/ 8g/ 8c/	.	8ee/ 8g/ 8c/	.	32g\LLL	.	32G\LLL	.
.	.	.	.	.	.	.	.	.	.	.	.	.	.	.	32a\	.	32A\	.
.	.	.	.	.	.	.	.	.	.	.	.	.	.	.	32g\	.	32G\	.
.	.	.	.	.	.	.	.	.	.	.	.	.	.	.	32fn\JJJ	.	32Fn\JJJ	.
8ccc\J	.	8ee\J	8g\J	.	8e\J	8G\J	.	8g/J	8G/J	.	8gg/ 8cc/ 8e/J	.	8gg/ 8cc/ 8e/J	.	32e\LLL	.	32E\LLL	.
.	.	.	.	.	.	.	.	.	.	.	.	.	.	.	32d\	.	32D\	.
.	.	.	.	.	.	.	.	.	.	.	.	.	.	.	32c\	.	32C\	.
.	.	.	.	.	.	.	.	.	.	.	.	.	.	.	32Bn\JJJ)	.	32BBn\JJJ)	.
=72	=72	=72	=72	=72	=72	=72	=72	=72	=72	=72	=72	=72	=72	=72	=72	=72	=72	=72
8ccc\L	.	8ee\L	8g\L	.	8e\L	8G\L	.	8g/L	8G/L	.	4ccc\ 4ee\ 4g\	.	4ccc\ 4ee\ 4g\	.	(16c\LL	.	(16C\LL	.
.	.	.	.	.	.	.	.	.	.	.	.	.	.	.	32d\L	.	32D\L	.
.	.	.	.	.	.	.	.	.	.	.	.	.	.	.	32e\JJJ	.	32E\JJJ	.
16.ccc\L	.	16.ee\L	16.g\L	.	16.e\L	16.G\L	.	16.g/L	16.G/L	.	.	.	.	.	32f\LLL	.	32F\LLL	.
.	.	.	.	.	.	.	.	.	.	.	.	.	.	.	32g\	.	32G\	.
.	.	.	.	.	.	.	.	.	.	.	.	.	.	.	32a\	.	32A\	.
32ccc\JJk	.	32ee\JJk	32g\JJk	.	32e\JJk	32G\JJk	.	32g/JJk	32G/JJk	.	.	.	.	.	32bn\JJJ	.	32Bn\JJJ	.
8ccc\L	.	8ee\L	8g\L	.	8e\L	8G\L	.	8g/L	8G/L	.	8r	.	8r	.	32cc\LLL	.	32c\LLL	.
.	.	.	.	.	.	.	.	.	.	.	.	.	.	.	32ee\	.	32e\	.
.	.	.	.	.	.	.	.	.	.	.	.	.	.	.	32dd\	.	32d\	.
.	.	.	.	.	.	.	.	.	.	.	.	.	.	.	32cc\JJJ	.	32c\JJJ	.
8ccc\	.	8ee\	8g\	.	8e\	8G\	.	8g/	8G/	.	8cc/ 8e/ 8G/L	.	8cc/ 8e/ 8G/L	.	32b\LLL	.	32B\LLL	.
.	.	.	.	.	.	.	.	.	.	.	.	.	.	.	32a\	.	32A\	.
.	.	.	.	.	.	.	.	.	.	.	.	.	.	.	32g\	.	32G\	.
.	.	.	.	.	.	.	.	.	.	.	.	.	.	.	32f#\JJJ	.	32F#\JJJ	.
8ccc\	.	8ee\	8g\	.	8e\	8G\	.	8g/	8G/	.	8ee/ 8g/ 8c/	.	8ee/ 8g/ 8c/	.	32g\LLL	.	32G\LLL	.
.	.	.	.	.	.	.	.	.	.	.	.	.	.	.	32a\	.	32A\	.
.	.	.	.	.	.	.	.	.	.	.	.	.	.	.	32g\	.	32G\	.
.	.	.	.	.	.	.	.	.	.	.	.	.	.	.	32fn\JJJ	.	32Fn\JJJ	.
8ccc\J	.	8ee\J	8g\J	.	8e\J	8G\J	.	8g/J	8G/J	.	8gg/ 8cc/ 8e/J	.	8gg/ 8cc/ 8e/J	.	32e\LLL	.	32E\LLL	.
.	.	.	.	.	.	.	.	.	.	.	.	.	.	.	32d\	.	32D\	.
.	.	.	.	.	.	.	.	.	.	.	.	.	.	.	32c\	.	32C\	.
.	.	.	.	.	.	.	.	.	.	.	.	.	.	.	32Bn\JJJ)	.	32BBn\JJJ)	.
=73	=73	=73	=73	=73	=73	=73	=73	=73	=73	=73	=73	=73	=73	=73	=73	=73	=73	=73
(4.ccc\	f	8ee\	8g\	f	8e\	8G\	f	4g/	4G/	f	[8ccc\ 8ee\ 8g\	f	24g/LL	f	24c\LL	f	8C\L	f
.	.	.	.	.	.	.	.	.	.	.	.	.	24g/	.	24e\	.	.	.
.	.	.	.	.	.	.	.	.	.	.	.	.	24g/	.	24e\	.	.	.
.	.	8r	8r	.	(4c/	8r	p	.	.	.	16ccc\LL]	p	24g/	p	24e\	p	8c\	p
.	.	.	.	.	.	.	.	.	.	.	.	.	24g/	.	24e\	.	.	.
.	.	.	.	.	.	.	.	.	.	.	(16gg\JJ	.	.	.	.	.	.	.
.	.	.	.	.	.	.	.	.	.	.	.	.	24g/JJ	.	24e\JJ	.	.	.
.	.	(4gg\	4ee\	p	.	4r	.	2g/	2G/	p	16ee\LK	.	24g/LL	.	24e\LL	.	8c\	.
.	.	.	.	.	.	.	.	.	.	.	.	.	24g/	.	24e\	.	.	.
.	.	.	.	.	.	.	.	.	.	.	8cc\	.	.	.	.	.	.	.
.	.	.	.	.	.	.	.	.	.	.	.	.	24g/	.	24e\	.	.	.
8ddd-\L	p	.	.	.	8d-/L	.	.	.	.	.	.	.	24g/	.	24e\	.	8c\	.
.	.	.	.	.	.	.	.	.	.	.	.	.	24g/	.	24e\	.	.	.
.	.	.	.	.	.	.	.	.	.	.	8dd-\	.	.	.	.	.	.	.
.	.	.	.	.	.	.	.	.	.	.	.	.	24g/JJ	.	24e\JJ	.	.	.
8ccc\	.	4aa-\)	4ff\	.	8c/	4r	.	.	.	.	.	.	24a-/LL	.	24f\LL	.	8c\	.
.	.	.	.	.	.	.	.	.	.	.	.	.	24a-/	.	24f\	.	.	.
.	.	.	.	.	.	.	.	.	.	.	8cc\	.	.	.	.	.	.	.
.	.	.	.	.	.	.	.	.	.	.	.	.	24a-/	.	24f\	.	.	.
8bbn\J)	.	.	.	.	8Bn/J)	.	.	.	.	.	.	.	24a-/	.	24f\	.	8c\J	.
.	.	.	.	.	.	.	.	.	.	.	.	.	24a-/	.	24f\	.	.	.
.	.	.	.	.	.	.	.	.	.	.	16bn\Jk)	.	.	.	.	.	.	.
.	.	.	.	.	.	.	.	.	.	.	.	.	24a-/JJ	.	24f\JJ	.	.	.
=74	=74	=74	=74	=74	=74	=74	=74	=74	=74	=74	=74	=74	=74	=74	=74	=74	=74	=74
*	*	*	*	*	*v	*v	*	*	*	*	*	*	*	*	*	*	*	*
!	!	!	!	!	! I.	!	!	!	!	!	!	!	!	!	!	!	!
!	!	!	!	!	!	!	!	!	!	!	!	!	!	!	!	!	!
(4.ccc\	f	8gg\	8ee\	f	(4.c\	f	4g/	4G/	f	[8ccc\	f	24g/LL	f	24e\LL	f	8C\L	f
.	.	.	.	.	.	.	.	.	.	.	.	24g/	.	24e\	.	.	.
.	.	.	.	.	.	.	.	.	.	.	.	24g/	.	24e\	.	.	.
.	.	8r	8r	.	.	.	.	.	.	16ccc\LL]	p	24g/	.	24e\	.	8c\	p
.	.	.	.	.	.	.	.	.	.	.	.	24g/	.	24e\	.	.	.
.	.	.	.	.	.	.	.	.	.	(16gg\JJ	.	.	.	.	.	.	.
.	.	.	.	.	.	.	.	.	.	.	.	24g/JJ	.	24e\JJ	.	.	.
.	.	(4gg\	4ee\	p	.	.	[2g/	[2G/	p	16ee\LK	.	24g/LL	p	24e\LL	p	8c\	.
.	.	.	.	.	.	.	.	.	.	.	.	24g/	.	24e\	.	.	.
.	.	.	.	.	.	.	.	.	.	8cc\	.	.	.	.	.	.	.
.	.	.	.	.	.	.	.	.	.	.	.	24g/	.	24e\	.	.	.
8ddd-\L	p	.	.	.	8d-\L	p	.	.	.	.	.	24g/	.	24e\	.	8c\	.
.	.	.	.	.	.	.	.	.	.	.	.	24g/	.	24e\	.	.	.
.	.	.	.	.	.	.	.	.	.	8dd-\	.	.	.	.	.	.	.
.	.	.	.	.	.	.	.	.	.	.	.	24g/JJ	.	24e\JJ	.	.	.
8ccc\	.	4aa-\)	4ff\	.	8c\	.	.	.	.	.	.	24a-/LL	.	24f\LL	.	8c\	.
.	.	.	.	.	.	.	.	.	.	.	.	24a-/	.	24f\	.	.	.
.	.	.	.	.	.	.	.	.	.	8cc\	.	.	.	.	.	.	.
.	.	.	.	.	.	.	.	.	.	.	.	24a-/	.	24f\	.	.	.
8bbn\J)	.	.	.	.	8Bn\J)	.	.	.	.	.	.	24a-/	.	24f\	.	8c\J	.
.	.	.	.	.	.	.	.	.	.	.	.	24a-/	.	24f\	.	.	.
.	.	.	.	.	.	.	.	.	.	16bn\Jk)	.	.	.	.	.	.	.
.	.	.	.	.	.	.	.	.	.	.	.	24a-/JJ	.	24f\JJ	.	.	.
=75	=75	=75	=75	=75	=75	=75	=75	=75	=75	=75	=75	=75	=75	=75	=75	=75	=75
[4ccc\	.	8gg\	8ee\	.	[4c\	.	8g/]	8G/]	.	[4cc\	.	(8.g/L	.	(8.e\L	.	8c\	.
.	.	8r	8r	.	.	.	8r	8r	.	.	.	.	.	.	.	8r	.
.	.	.	.	.	.	.	.	.	.	.	.	16e/Jk)	.	16c\Jk)	.	.	.
(24ccc\LL]	.	8gg\	8ee\	.	(24c\LL]	.	4r	4r	.	(24cc\LL]	.	8g'/	.	8e'\	.	8C/	.
24ccc#\	.	.	.	.	24c#\	.	.	.	.	24cc#\	.	.	.	.	.	.	.
24dddn\JJ)	.	.	.	.	24dn\JJ)	.	.	.	.	24ddn\JJ)	.	.	.	.	.	.	.
24cccn'\LL	.	8r	8r	.	24cn'\LL	.	.	.	.	24ccn'\LL	.	8r	.	8r	.	8r	.
24bb-'\	.	.	.	.	24B-'\	.	.	.	.	24b-'\	.	.	.	.	.	.	.
24aa'\JJ	.	.	.	.	24A'\JJ	.	.	.	.	24a'\JJ	.	.	.	.	.	.	.
24gg'\LL	.	4r	4r	.	24G'\LL	.	4r	4r	.	24g'/LL	.	4r	.	4r	.	4r	.
24ff'\	.	.	.	.	24F'\	.	.	.	.	24f'/	.	.	.	.	.	.	.
24ee'\JJ	.	.	.	.	24E'\JJ	.	.	.	.	24e'/JJ	.	.	.	.	.	.	.
(24ccc\LL	.	.	.	.	(24c\LL	.	.	.	.	(24cc/LL	.	.	.	.	.	.	.
24bb-\	.	.	.	.	24B-\	.	.	.	.	24b-/	.	.	.	.	.	.	.
24gg\JJ)	.	.	.	.	24G\JJ)	.	.	.	.	24g/JJ)	.	.	.	.	.	.	.
=76	=76	=76	=76	=76	=76	=76	=76	=76	=76	=76	=76	=76	=76	=76	=76	=76	=76
*	*	*	*	*	*^	*	*	*	*	*	*	*	*	*	*	*	*
(4ff\	.	(4cc/	2.rxx	.	(4F\	4C\	.	[2.g/	[2.G/	.	(4f/	.	(24A/LL	.	(4A/	.	(4A\	.
.	.	.	.	.	.	.	.	.	.	.	.	.	24c/	.	.	.	.	.
.	.	.	.	.	.	.	.	.	.	.	.	.	24f/	.	.	.	.	.
.	.	.	.	.	.	.	.	.	.	.	.	.	24a/	.	.	.	.	.
.	.	.	.	.	.	.	.	.	.	.	.	.	24f/	.	.	.	.	.
.	.	.	.	.	.	.	.	.	.	.	.	.	24c/JJ)	.	.	.	.	.
4gg\	.	4ee/	.	.	4G\	4E\	.	.	.	.	4g/	.	(24B-/LL	.	4G/	.	4G\	.
.	.	.	.	.	.	.	.	.	.	.	.	.	24c/	.	.	.	.	.
.	.	.	.	.	.	.	.	.	.	.	.	.	24e/	.	.	.	.	.
.	.	.	.	.	.	.	.	.	.	.	.	.	24g/	.	.	.	.	.
.	.	.	.	.	.	.	.	.	.	.	.	.	24e/	.	.	.	.	.
.	.	.	.	.	.	.	.	.	.	.	.	.	24c/JJ)	.	.	.	.	.
4aa\)	.	4ff/)	.	.	4A\)	4F\	.	.	.	.	4a/)	.	(24A/LL	.	4F/)	.	4F\)	.
.	.	.	.	.	.	.	.	.	.	.	.	.	24c/	.	.	.	.	.
.	.	.	.	.	.	.	.	.	.	.	.	.	24f/	.	.	.	.	.
.	.	.	.	.	.	.	.	.	.	.	.	.	24a/	.	.	.	.	.
.	.	.	.	.	.	.	.	.	.	.	.	.	24f/	.	.	.	.	.
.	.	.	.	.	.	.	.	.	.	.	.	.	24c/JJ)	.	.	.	.	.
=77	=77	=77	=77	=77	=77	=77	=77	=77	=77	=77	=77	=77	=77	=77	=77	=77	=77	=77
(4bb-\	.	(4gg/	4r	.	(4B-\	4G\	.	4.g/]	4.G/]	.	[8b-/L	.	(24G/LL	.	4E/	.	4E\	.
.	.	.	.	.	.	.	.	.	.	.	.	.	24c/	.	.	.	.	.
.	.	.	.	.	.	.	.	.	.	.	.	.	24e/	.	.	.	.	.
.	.	.	.	.	.	.	.	.	.	.	(32b-/LL]	.	24g/	.	.	.	.	.
.	.	.	.	.	.	.	.	.	.	.	32cc/	.	24e/	.	.	.	.	.
.	.	.	.	.	.	.	.	.	.	.	32a/	.	.	.	.	.	.	.
.	.	.	.	.	.	.	.	.	.	.	.	.	24c/JJ)	.	.	.	.	.
.	.	.	.	.	.	.	.	.	.	.	32b-/JJJ	.	.	.	.	.	.	.
8gg\)	.	8ee/)	8r	.	8G\)	8E\	.	.	.	.	8g/)	.	(24G/LL	.	4r	.	4r	.
.	.	.	.	.	.	.	.	.	.	.	.	.	24c/	.	.	.	.	.
.	.	.	.	.	.	.	.	.	.	.	.	.	24e/	.	.	.	.	.
8r	.	(8ccc'/L	(8cc'\L	.	8r	8r	.	8g/L	(8G'/L	.	8r	.	24g/	.	.	.	.	.
.	.	.	.	.	.	.	.	.	.	.	.	.	24e/	.	.	.	.	.
.	.	.	.	.	.	.	.	.	.	.	.	.	24c/JJ)	.	.	.	.	.
4r	.	8ccc'/	8cc'\	.	4r	4r	.	8g/	8G'/	.	4r	.	(24G/LL	.	4r	.	4r	.
.	.	.	.	.	.	.	.	.	.	.	.	.	24c/	.	.	.	.	.
.	.	.	.	.	.	.	.	.	.	.	.	.	24e/	.	.	.	.	.
.	.	8ccc'/J)	8cc'\J)	.	.	.	.	8g/J	8G'/J)	.	.	.	24g/	.	.	.	.	.
.	.	.	.	.	.	.	.	.	.	.	.	.	24e/	.	.	.	.	.
.	.	.	.	.	.	.	.	.	.	.	.	.	24c/JJ)	.	.	.	.	.
=78	=78	=78	=78	=78	=78	=78	=78	=78	=78	=78	=78	=78	=78	=78	=78	=78	=78	=78
(4gg\	.	(4ee/	2.r	.	(4G\	4E\	.	2.g/	2.G/	.	[8g/L	.	(24G/LL	.	(4B-/	.	(4B-\	.
.	.	.	.	.	.	.	.	.	.	.	.	.	24c/	.	.	.	.	.
.	.	.	.	.	.	.	.	.	.	.	.	.	24d/	.	.	.	.	.
.	.	.	.	.	.	.	.	.	.	.	(24g/L]	.	24e/	.	.	.	.	.
.	.	.	.	.	.	.	.	.	.	.	24e/	.	24c/	.	.	.	.	.
.	.	.	.	.	.	.	.	.	.	.	24c/JJ)	.	24G/JJ)	.	.	.	.	.
4aa\	.	4ff/	.	.	4A\	4F\	.	.	.	.	[8a/L	.	(24A/LL	.	4A/	.	4A\	.
.	.	.	.	.	.	.	.	.	.	.	.	.	24c/	.	.	.	.	.
.	.	.	.	.	.	.	.	.	.	.	.	.	24e/	.	.	.	.	.
.	.	.	.	.	.	.	.	.	.	.	(24a/L]	.	24f/	.	.	.	.	.
.	.	.	.	.	.	.	.	.	.	.	24f/	.	24c/	.	.	.	.	.
.	.	.	.	.	.	.	.	.	.	.	24c/JJ)	.	24A/JJ)	.	.	.	.	.
4bb-\)	.	4gg/)	.	.	4B-\)	4G\	.	.	.	.	[8b-/L	.	(24B-/LL	.	4G/)	.	4G\)	.
.	.	.	.	.	.	.	.	.	.	.	.	.	24c/	.	.	.	.	.
.	.	.	.	.	.	.	.	.	.	.	.	.	24e/	.	.	.	.	.
.	.	.	.	.	.	.	.	.	.	.	(24b-/L]	.	24g/	.	.	.	.	.
.	.	.	.	.	.	.	.	.	.	.	24g/	.	24e/	.	.	.	.	.
.	.	.	.	.	.	.	.	.	.	.	24e/JJ)	.	24B-/JJ)	.	.	.	.	.
=79	=79	=79	=79	=79	=79	=79	=79	=79	=79	=79	=79	=79	=79	=79	=79	=79	=79	=79
(4ccc\	.	(4aan/	4r	.	(4c\	4A\	.	4.cc/	4.c/	.	[8cc\L	.	(24A/LL	.	4F/	.	4F\	.
.	.	.	.	.	.	.	.	.	.	.	.	.	24c/	.	.	.	.	.
.	.	.	.	.	.	.	.	.	.	.	.	.	24f/	.	.	.	.	.
.	.	.	.	.	.	.	.	.	.	.	(32cc\LL]	.	24a/	.	.	.	.	.
.	.	.	.	.	.	.	.	.	.	.	32dd\	.	24f/	.	.	.	.	.
.	.	.	.	.	.	.	.	.	.	.	32b-\	.	.	.	.	.	.	.
.	.	.	.	.	.	.	.	.	.	.	.	.	24c/JJ)	.	.	.	.	.
.	.	.	.	.	.	.	.	.	.	.	32cc\JJJ)	.	.	.	.	.	.	.
8aa\)	.	8ff/)	8r	.	8A\)	8F\	.	.	.	.	8a/	.	(24A/LL	.	4r	.	4r	.
.	.	.	.	.	.	.	.	.	.	.	.	.	24c/	.	.	.	.	.
.	.	.	.	.	.	.	.	.	.	.	.	.	24f/	.	.	.	.	.
(8fff'\L	.	(8aa'/L	(8cc'\L	.	8r	8r	.	8cc/L	(8c'/L	.	8r	.	24a/	.	.	.	.	.
.	.	.	.	.	.	.	.	.	.	.	.	.	24f/	.	.	.	.	.
.	.	.	.	.	.	.	.	.	.	.	.	.	24c/JJ)	.	.	.	.	.
8fff'\	.	8aa'/	8cc'\	.	4r	4r	.	8cc/	8c'/	.	4r	.	(24A/LL	.	4r	.	4r	.
.	.	.	.	.	.	.	.	.	.	.	.	.	24c/	.	.	.	.	.
.	.	.	.	.	.	.	.	.	.	.	.	.	24f/	.	.	.	.	.
8fff'\J)	.	8aa'/J)	8cc'\J)	.	.	.	.	8cc/J	8c'/J)	.	.	.	24a/	.	.	.	.	.
.	.	.	.	.	.	.	.	.	.	.	.	.	24f/	.	.	.	.	.
.	.	.	.	.	.	.	.	.	.	.	.	.	24c/JJ)	.	.	.	.	.
=80	=80	=80	=80	=80	=80	=80	=80	=80	=80	=80	=80	=80	=80	=80	=80	=80	=80	=80
2.r	.	2.r	2.r	.	(4c\	(4F#\	.	2.r	2.r	.	24r	.	(24A/LL	.	(4A/	.	8D\	.
.	.	.	.	.	.	.	.	.	.	.	(24ee-\LL	.	24c/	.	.	.	.	.
.	.	.	.	.	.	.	.	.	.	.	24dd\)	.	24d/	.	.	.	.	.
.	.	.	.	.	.	.	.	.	.	.	24dd'\	.	24f#/	.	.	.	8r	.
.	.	.	.	.	.	.	.	.	.	.	24dd'\	.	24d/	.	.	.	.	.
.	.	.	.	.	.	.	.	.	.	.	24dd'\JJ	.	24c/JJ)	.	.	.	.	.
.	.	.	.	.	4Bn\	4Fn\	.	.	.	.	(8dd\L	.	(24Bn/LL	.	2G/)	.	8G\	.
.	.	.	.	.	.	.	.	.	.	.	.	.	24d/	.	.	.	.	.
.	.	.	.	.	.	.	.	.	.	.	.	.	24fn/	.	.	.	.	.
.	.	.	.	.	.	.	.	.	.	.	8gg\J)	.	24g/	.	.	.	8r	.
.	.	.	.	.	.	.	.	.	.	.	.	.	24f/	.	.	.	.	.
.	.	.	.	.	.	.	.	.	.	.	.	.	24d/JJ)	.	.	.	.	.
.	.	.	.	.	4B-\	4E\	.	.	.	.	24r	.	(24B-/LL	.	.	.	8C/	.
.	.	.	.	.	.	.	.	.	.	.	(24dd-\LL	.	24c/	.	.	.	.	.
.	.	.	.	.	.	.	.	.	.	.	24cc\)	.	24e/	.	.	.	.	.
.	.	.	.	.	.	.	.	.	.	.	24cc'\	.	24g/	.	.	.	8r	.
.	.	.	.	.	.	.	.	.	.	.	24cc'\	.	24e/	.	.	.	.	.
.	.	.	.	.	.	.	.	.	.	.	24cc'\JJ	.	24c/JJ)	.	.	.	.	.
=81	=81	=81	=81	=81	=81	=81	=81	=81	=81	=81	=81	=81	=81	=81	=81	=81	=81	=81
2.r	.	2.r	2.r	.	4A\)	4E-\)	.	2.r	2.r	.	(8cc\L	.	(24A/LL	.	[4F/	.	8F\	.
.	.	.	.	.	.	.	.	.	.	.	.	.	24c/	.	.	.	.	.
.	.	.	.	.	.	.	.	.	.	.	.	.	24e-/	.	.	.	.	.
.	.	.	.	.	.	.	.	.	.	.	8ff\J)	.	24f/	.	.	.	8r	.
.	.	.	.	.	.	.	.	.	.	.	.	.	24e-/	.	.	.	.	.
.	.	.	.	.	.	.	.	.	.	.	.	.	24c/JJ)	.	.	.	.	.
.	.	.	.	.	(8B-/L	(8D\	.	.	.	.	24r	.	(24B-/LL	.	8F/L]	.	(4BB-/	.
.	.	.	.	.	.	.	.	.	.	.	(24cc\LL	.	24d/	.	.	.	.	.
.	.	.	.	.	.	.	.	.	.	.	24b-\)	.	24f/	.	.	.	.	.
.	.	.	.	.	8d/	4B-\	.	.	.	.	24b-'\	.	24g/	.	(8D/	.	.	.
.	.	.	.	.	.	.	.	.	.	.	24b-'\	.	24d/	.	.	.	.	.
.	.	.	.	.	.	.	.	.	.	.	24b-'\JJ	.	24g/JJ)	.	.	.	.	.
.	.	.	.	.	8en/	.	.	.	.	.	(24b-\LL	.	(24en/LL	.	8G/	.	8C/L	.
.	.	.	.	.	.	.	.	.	.	.	24cc\	.	24d/	.	.	.	.	.
.	.	.	.	.	.	.	.	.	.	.	24b-\	.	24e/	.	.	.	.	.
.	.	.	.	.	8f/J)	8A\)	.	.	.	.	24a\	.	24f/	.	8F/J)	.	8D/J)	.
.	.	.	.	.	.	.	.	.	.	.	24b-\	.	24e/	.	.	.	.	.
.	.	.	.	.	.	.	.	.	.	.	24a\JJ)	.	24f/JJ)	.	.	.	.	.
=82	=82	=82	=82	=82	=82	=82	=82	=82	=82	=82	=82	=82	=82	=82	=82	=82	=82	=82
4r	.	2.r	4r	.	2.r	2.r	.	4r	4r	.	(24f#/LL	.	(24d/LL	.	(4d\	.	8BB-/	.
.	.	.	.	.	.	.	.	.	.	.	24g/	.	24B-/	.	.	.	.	.
.	.	.	.	.	.	.	.	.	.	.	24b-/	.	24G/	.	.	.	.	.
.	.	.	.	.	.	.	.	.	.	.	24dd/	.	24B-/	.	.	.	8r	.
.	.	.	.	.	.	.	.	.	.	.	24b-/	.	24d/	.	.	.	.	.
.	.	.	.	.	.	.	.	.	.	.	24g/JJ)	.	24B-/JJ)	.	.	.	.	.
(4aa\	.	.	(4ff\	.	.	.	.	(4ee\	4cc\	.	(4fn/	.	(24A/LL	.	2c\)	.	8C/	.
.	.	.	.	.	.	.	.	.	.	.	.	.	24c/	.	.	.	.	.
.	.	.	.	.	.	.	.	.	.	.	.	.	24f/	.	.	.	.	.
.	.	.	.	.	.	.	.	.	.	.	.	.	24a/	.	.	.	8r	.
.	.	.	.	.	.	.	.	.	.	.	.	.	24f/	.	.	.	.	.
.	.	.	.	.	.	.	.	.	.	.	.	.	24c/JJ)	.	.	.	.	.
4gg\)	.	.	4ee\)	.	.	.	.	4dd\)	4g\	.	24e/LL)	.	(24B-/LL	.	.	.	8c\	.
.	.	.	.	.	.	.	.	.	.	.	(24ddd\	.	24c/	.	.	.	.	.
.	.	.	.	.	.	.	.	.	.	.	24ccc\)	.	24e/	.	.	.	.	.
.	.	.	.	.	.	.	.	.	.	.	24ccc'\	.	24g/	.	.	.	8r	.
.	.	.	.	.	.	.	.	.	.	.	24ccc'\	.	24e/	.	.	.	.	.
.	.	.	.	.	.	.	.	.	.	.	24ccc'\JJ	.	24c/JJ)	.	.	.	.	.
=83	=83	=83	=83	=83	=83	=83	=83	=83	=83	=83	=83	=83	=83	=83	=83	=83	=83	=83
(4ccc\	.	4r	(4ff#\	.	8r	8r	.	2.r	2.r	.	24ccc'\LL	.	(24A/LL	.	(4A/	.	8d\	.
.	.	.	.	.	.	.	.	.	.	.	(24eee-\	.	24c/	.	.	.	.	.
.	.	.	.	.	.	.	.	.	.	.	24ddd\)	.	24d/	.	.	.	.	.
.	.	.	.	.	8c\	8F#\	.	.	.	.	24ddd'\	.	24f#/	.	.	.	8r	.
.	.	.	.	.	.	.	.	.	.	.	24ddd'\	.	24d/	.	.	.	.	.
.	.	.	.	.	.	.	.	.	.	.	24ddd'\JJ	.	24c/JJ)	.	.	.	.	.
4bbn\	.	24r	4ffn\	.	8r	8r	.	.	.	.	(8ddd\L	.	(24Bn/LL	.	2G/)	.	8G\	.
.	.	(24aa-/LL	.	.	.	.	.	.	.	.	.	.	24d/	.	.	.	.	.
.	.	24gg/)	.	.	.	.	.	.	.	.	.	.	24fn/	.	.	.	.	.
.	.	24gg'/	.	.	8Bn\	8Fn\	.	.	.	.	8gg\J)	.	24g/	.	.	.	8r	.
.	.	24gg'/	.	.	.	.	.	.	.	.	.	.	24f/	.	.	.	.	.
.	.	24gg'/JJ	.	.	.	.	.	.	.	.	.	.	24d/JJ)	.	.	.	.	.
4bb-\)	.	(8gg/L	4ee\)	.	8r	8r	.	.	.	.	24r	.	(24B-/LL	.	.	.	8c\	.
.	.	.	.	.	.	.	.	.	.	.	(24ddd-\LL	.	24c/	.	.	.	.	.
.	.	.	.	.	.	.	.	.	.	.	24ccc\)	.	24e/	.	.	.	.	.
.	.	8ccc/J)	.	.	8B-\	8E\	.	.	.	.	24ccc'\	.	24g/	.	.	.	8r	.
.	.	.	.	.	.	.	.	.	.	.	24ccc'\	.	24e/	.	.	.	.	.
.	.	.	.	.	.	.	.	.	.	.	24ccc'\JJ	.	24c/JJ)	.	.	.	.	.
=84	=84	=84	=84	=84	=84	=84	=84	=84	=84	=84	=84	=84	=84	=84	=84	=84	=84	=84
4aa\	.	24r	(4ee-\	.	8r	8ryy	.	2.r	2.r	.	(8ccc\L	.	(24A/LL	.	4.F/	.	8F\	.
.	.	(24gg-/LL	.	.	.	.	.	.	.	.	.	.	24c/	.	.	.	.	.
.	.	24ff/)	.	.	.	.	.	.	.	.	.	.	24e-/	.	.	.	.	.
.	.	24ff'/	.	.	8A\	8E-\	.	.	.	.	8ff\J)	.	24f/	.	.	.	8r	.
.	.	24ff'/	.	.	.	.	.	.	.	.	.	.	24e-/	.	.	.	.	.
.	.	24ff'/JJ	.	.	.	.	.	.	.	.	.	.	24c/JJ)	.	.	.	.	.
(4.bb-\	.	(8ff/L	4dd\	.	8r	8ryy	.	.	.	.	24r	.	(24d/LL	.	.	.	(4B-\	.
.	.	.	.	.	.	.	.	.	.	.	(24ccc\LL	.	24f/	.	.	.	.	.
.	.	.	.	.	.	.	.	.	.	.	24bb-\)	.	24b-/	.	.	.	.	.
.	.	8bb-/J)	.	.	(4B-/	(8D\L	.	.	.	.	24bb-'\	.	24dd/	.	(4G/	.	.	.
.	.	.	.	.	.	.	.	.	.	.	24bb-'\	.	24b-/	.	.	.	.	.
.	.	.	.	.	.	.	.	.	.	.	24bb-'\JJ	.	24g/JJ)	.	.	.	.	.
.	.	4r	8een\L	.	.	8En\	.	.	.	.	(24bb-\LL	.	(24en/LL	.	.	.	8c\L	.
.	.	.	.	.	.	.	.	.	.	.	24ccc\	.	24d/	.	.	.	.	.
.	.	.	.	.	.	.	.	.	.	.	24bb-\	.	24e/	.	.	.	.	.
8aa\)	.	.	[8ff\J)	.	8A/)	8F\J)	.	.	.	.	24aa\	.	24f/	.	[8F/)	.	8d\J)	.
.	.	.	.	.	.	.	.	.	.	.	24bb-\	.	24e/	.	.	.	.	.
.	.	.	.	.	.	.	.	.	.	.	24aa\JJ)	.	24f/JJ)	.	.	.	.	.
=85	=85	=85	=85	=85	=85	=85	=85	=85	=85	=85	=85	=85	=85	=85	=85	=85	=85	=85
! cresc.	!	! cresc.	!	!	! cresc.	!	!	!	!	!	! cresc.	!	! cresc.	!	!	!	! cresc.	!
(8bb-\L	.	(8b-/L	8ff\]	.	(8B-/L	(4G\	.	2.r	2.r	.	(24aa\LL	.	(24B-/LL	.	8F/]	.	(4G\	.
.	.	.	.	.	.	.	.	.	.	.	24gg\)	.	24A/	.	.	.	.	.
.	.	.	.	.	.	.	.	.	.	.	24gg'\	.	24B-/	.	.	.	.	.
!	!	!	!	!	!	!	!	!	!	!	!	!	!	!	! cresc.	!	!	!
8bbn\	.	8bn/	(4ee\	.	8Bn/J	.	.	.	.	.	24gg'\	.	24Bn/	.	4E/	.	.	.
.	.	.	.	.	.	.	.	.	.	.	24gg'\	.	24A/	.	.	.	.	.
.	.	.	.	.	.	.	.	.	.	.	24gg'\JJ	.	24B/JJ)	.	.	.	.	.
8ccc#\	.	8cc#/	.	.	8c#/	8A\L	.	.	.	.	(24gg\LL	<	(24c#/LL	<	.	.	8A\L	.
.	.	.	.	.	.	.	.	.	.	.	24aa\	.	24B/	.	.	.	.	.
.	.	.	.	.	.	.	.	.	.	.	24gg\	.	24c#/	.	.	.	.	.
8ddd\J)	.	8dd/J)	8dd\)	.	4d/	8B-\J)	.	.	.	.	24ff\	.	24d/	.	4D/	.	8B-\J)	.
.	.	.	.	.	.	.	.	.	.	.	24gg\	.	24c#/	.	.	.	.	.
.	.	.	.	.	.	.	.	.	.	.	24ff\JJ)	]	24d/JJ)	]	.	.	.	.
4r	.	(8gg-/L	(8g-\L	.	.	4E-\	.	.	.	.	(24ff\LL	.	(24g-/LL	.	.	.	(4E-\	.
.	.	.	.	.	.	.	.	.	.	.	24ee-\)	.	24f/	.	.	.	.	.
.	.	.	.	.	.	.	.	.	.	.	24ee-'\	.	24g-/	.	.	.	.	.
.	.	8ggn/J)	8gn\J	.	[8cn/)	.	.	.	.	.	24ee-'\	.	24gn/	.	[8C/	.	.	.
.	.	.	.	.	.	.	.	.	.	.	24ee-'\	.	24f#/	.	.	.	.	.
.	.	.	.	.	.	.	.	.	.	.	24ee-'\JJ	.	24g/JJ)	.	.	.	.	.
=86	=86	=86	=86	=86	=86	=86	=86	=86	=86	=86	=86	=86	=86	=86	=86	=86	=86	=86
8r	.	8aan\L	8an\L)	.	8c\L]	8F\L	.	8r	8r	.	(24ee-\LL	f	(24a/LL	f	8C/L]	.	8F\L	.
.	.	.	.	.	.	.	.	.	.	.	24ff\	.	24g/	.	.	.	.	.
.	.	.	.	.	.	.	.	.	.	.	24ee-\	.	24a/	.	.	.	.	.
(8eeen\L	f	(8bb-\	8gg\	f	(8en\	8G\	f	(8dd/L	(8dd\L	f	24dd\	.	24b-/	.	(8En/	f	8G\	f
.	.	.	.	.	.	.	.	.	.	.	24ee-\	.	24cc/	.	.	.	.	.
.	.	.	.	.	.	.	.	.	.	.	24dd\JJ)	.	24b-/JJ)	.	.	.	.	.
8fff\)	.	8cccn\)	8ff\	.	8f\)	8A\	.	8gg/)	8g\)	.	(24cc\LL	.	(24a/LL	.	8F/)	.	8A\	.
.	.	.	.	.	.	.	.	.	.	.	24dd\	.	24b-/	.	.	.	.	.
.	.	.	.	.	.	.	.	.	.	.	24cc\	.	24a/	.	.	.	.	.
8ggg'\	.	8bb-'\	8gg\	.	8d'\	8B-\	.	8ff'/	8dd\	.	24b-\	.	24g/	.	8d/J	.	8B-\	.
.	.	.	.	.	.	.	.	.	.	.	24cc\	.	24a/	.	.	.	.	.
.	.	.	.	.	.	.	.	.	.	.	24b-\JJ)	.	24g/JJ)	.	.	.	.	.
8fff'\	.	8aa'\	8ff\	.	8c'\	8A\	.	8ee'/	8cc\	.	(24a/LL	.	(24f/LL	.	8c/L	.	8c\)	.
.	.	.	.	.	.	.	.	.	.	.	24b-/	.	24g/	.	.	.	.	.
.	.	.	.	.	.	.	.	.	.	.	24a/	.	24f/	.	.	.	.	.
8eee'\J	.	8gg'\J	8ee\J	.	8B-'\J	8G\J	.	8dd'/J	8g\J	.	24g/	.	24e/	.	8B-/J	.	8C'\J	.
.	.	.	.	.	.	.	.	.	.	.	24a/	.	24f/	.	.	.	.	.
.	.	.	.	.	.	.	.	.	.	.	24g/JJ)	.	24e/JJ)	.	.	.	.	.
=87	=87	=87	=87	=87	=87	=87	=87	=87	=87	=87	=87	=87	=87	=87	=87	=87	=87	=87
4fff\	.	4ff/	4ff\	.	8A'\	8F\	.	4cc/	4c/	.	24f\LL	.	24f/LL	.	4A/	.	8F\	.
.	.	.	.	.	.	.	.	.	.	.	24ff\	p	24f/	p	.	.	.	.
.	.	.	.	.	.	.	.	.	.	.	24ff\	.	24f/	.	.	.	.	.
.	.	.	.	.	(8A\L	8F\L	p	.	.	.	24ff\	.	24f/	.	.	.	8r	.
.	.	.	.	.	.	.	.	.	.	.	24ff\	.	24f/	.	.	.	.	.
.	.	.	.	.	.	.	.	.	.	.	24ff\JJ	.	24f/JJ	.	.	.	.	.
4r	.	4r	4ryy	.	8B-\	8G\	.	4r	4r	.	24ff\LL	.	24f/LL	.	4r	.	4r	.
.	.	.	.	.	.	.	.	.	.	.	24ff\	.	24f/	.	.	.	.	.
.	.	.	.	.	.	.	.	.	.	.	24ff\	.	24f/	.	.	.	.	.
.	.	.	.	.	8c\J)	8A\J	.	.	.	.	24ff\	.	24f/	.	.	.	.	.
.	.	.	.	.	.	.	.	.	.	.	24ff\	.	24f/	.	.	.	.	.
.	.	.	.	.	.	.	.	.	.	.	24ff\JJ	.	24f/JJ	.	.	.	.	.
4r	.	4r	4ryy	.	(24d\LL	24B-\LL	.	4r	4r	.	24ff\LL	.	24f/LL	.	4r	.	4r	.
.	.	.	.	.	24c#\	24A\	.	.	.	.	24ff\	.	24f/	.	.	.	.	.
.	.	.	.	.	24d\	24B-\	.	.	.	.	24ff\	.	24f/	.	.	.	.	.
.	.	.	.	.	24f\	24d\	.	.	.	.	24ff\	.	24f/	.	.	.	.	.
.	.	.	.	.	24e\	24cn\	.	.	.	.	24ff\	.	24f/	.	.	.	.	.
.	.	.	.	.	24d\JJ)	24B-\JJ	.	.	.	.	24ff\JJ	.	24f/JJ	.	.	.	.	.
=88	=88	=88	=88	=88	=88	=88	=88	=88	=88	=88	=88	=88	=88	=88	=88	=88	=88	=88
8r	.	8r	2.r	.	8cn\	8A\	.	24r	24r	.	8ff\	.	8f/	.	4r	.	4r	.
.	.	.	.	.	.	.	.	24e/LL	24c/LL	p	.	.	.	.	.	.	.	.
.	.	.	.	.	.	.	.	24e/JJ	24c/JJ	.	.	.	.	.	.	.	.	.
(8ccc\L	p	(8aa/L	.	p	8r	8r	.	24e/LL	(24c/LL	.	8r	.	8r	.	.	.	.	.
.	.	.	.	.	.	.	.	24g/	24e/)	.	.	.	.	.	.	.	.	.
.	.	.	.	.	.	.	.	24g/JJ	24e'/JJ	.	.	.	.	.	.	.	.	.
8aa\	.	8ff/	.	.	4r	4r	.	24g/LL	(24e/LL	.	4r	.	4r	.	4r	.	4r	.
.	.	.	.	.	.	.	.	24cc/	24g/)	.	.	.	.	.	.	.	.	.
.	.	.	.	.	.	.	.	24cc/JJ	24g'/JJ	.	.	.	.	.	.	.	.	.
[8ff\J)	.	8cc/J)	.	.	.	.	.	24cc/LL	(24g/LL	.	.	.	.	.	.	.	.	.
.	.	.	.	.	.	.	.	24ee/	24cc/)	.	.	.	.	.	.	.	.	.
.	.	.	.	.	.	.	.	24ee/JJ	24cc'/JJ	.	.	.	.	.	.	.	.	.
(24ff\LL]	.	(4b-/	.	.	4r	4r	.	4dd/	4g/	.	4r	.	4r	.	[4c\	p	(4c\	p
24ee\	.	.	.	.	.	.	.	.	.	.	.	.	.	.	.	.	.	.
24gg\	.	.	.	.	.	.	.	.	.	.	.	.	.	.	.	.	.	.
24bb-\	.	.	.	.	.	.	.	.	.	.	.	.	.	.	.	.	.	.
24gg\	.	.	.	.	.	.	.	.	.	.	.	.	.	.	.	.	.	.
24ee\JJ)	.	.	.	.	.	.	.	.	.	.	.	.	.	.	.	.	.	.
=89	=89	=89	=89	=89	=89	=89	=89	=89	=89	=89	=89	=89	=89	=89	=89	=89	=89	=89
8ff\	.	8a/)	2.r	.	8r	8r	.	8cc/	8c/	.	24r	.	24r	.	8c\]	.	8f\)	.
.	.	.	.	.	.	.	.	.	.	.	24fff\LL	.	24ff\LL	.	.	.	.	.
.	.	.	.	.	.	.	.	.	.	.	24fff\	.	24ff\	.	.	.	.	.
8r	.	8r	.	.	(8A\L	8F\L	.	8r	8r	.	24fff\	.	24ff\	.	8r	.	8r	.
.	.	.	.	.	.	.	.	.	.	.	24fff\	.	24ff\	.	.	.	.	.
.	.	.	.	.	.	.	.	.	.	.	24fff\JJ	.	24ff\JJ	.	.	.	.	.
4r	.	4r	.	.	8B-\	8G\	.	4r	4r	.	24fff\LL	.	24ff\LL	.	4r	.	4r	.
.	.	.	.	.	.	.	.	.	.	.	24fff\	.	24ff\	.	.	.	.	.
.	.	.	.	.	.	.	.	.	.	.	24fff\	.	24ff\	.	.	.	.	.
.	.	.	.	.	8c\J)	8A\J	.	.	.	.	24fff\	.	24ff\	.	.	.	.	.
.	.	.	.	.	.	.	.	.	.	.	24fff\	.	24ff\	.	.	.	.	.
.	.	.	.	.	.	.	.	.	.	.	24fff\JJ	.	24ff\JJ	.	.	.	.	.
4r	.	4r	.	.	(24d\LL	24B-\LL	.	4r	4r	.	24fff\LL	.	24ff\LL	.	4r	.	4r	.
.	.	.	.	.	24c#\	24A\	.	.	.	.	24fff\	.	24ff\	.	.	.	.	.
.	.	.	.	.	24d\	24B-\	.	.	.	.	24fff\	.	24ff\	.	.	.	.	.
.	.	.	.	.	24f\	24d\	.	.	.	.	24fff\	.	24ff\	.	.	.	.	.
.	.	.	.	.	24e\	24cn\	.	.	.	.	24fff\	.	24ff\	.	.	.	.	.
.	.	.	.	.	24d\JJ)	24B-\JJ	.	.	.	.	24fff\JJ	.	24ff\JJ	.	.	.	.	.
=90	=90	=90	=90	=90	=90	=90	=90	=90	=90	=90	=90	=90	=90	=90	=90	=90	=90	=90
8r	.	8r	4r	.	8cn\	8A\	.	24r	24r	.	8fff\	.	8ff\	.	4r	.	4r	.
.	.	.	.	.	.	.	.	24e/LL	24c/LL	.	.	.	.	.	.	.	.	.
.	.	.	.	.	.	.	.	24e/JJ	24c/JJ	.	.	.	.	.	.	.	.	.
(8fff\L	.	8ccc/	.	.	8r	8r	.	24e/LL	(24c/LL	.	8r	.	8r	.	.	.	.	.
.	.	.	.	.	.	.	.	24g/	24e/)	.	.	.	.	.	.	.	.	.
.	.	.	.	.	.	.	.	24g/JJ	24e'/JJ	.	.	.	.	.	.	.	.	.
8ccc\	.	(8aa/	4r	.	4r	4r	.	24g/LL	(24e/LL	.	4r	.	4r	.	4r	.	4r	.
.	.	.	.	.	.	.	.	24cc/	24g/)	.	.	.	.	.	.	.	.	.
.	.	.	.	.	.	.	.	24cc/JJ	24g'/JJ	.	.	.	.	.	.	.	.	.
[8aa\J)	.	4ff/	.	.	.	.	.	24cc/LL	(24g/LL	.	.	.	.	.	.	.	.	.
.	.	.	.	.	.	.	.	24ee/	24cc/)	.	.	.	.	.	.	.	.	.
.	.	.	.	.	.	.	.	24ee/JJ	24cc'/JJ	.	.	.	.	.	.	.	.	.
24aa\LL]	.	.	(8cc\L	.	8r	8r	.	8ee\L	8cc\L	.	4r	.	4r	.	(4c\	.	(4C/	.
24ccc'\	.	.	.	.	.	.	.	.	.	.	.	.	.	.	.	.	.	.
24ff'\	.	.	.	.	.	.	.	.	.	.	.	.	.	.	.	.	.	.
24gg'\	.	8ee/)	8b-\J)	.	8e'\	8B-\	.	8dd\J	8g\J	.	.	.	.	.	.	.	.	.
24bb-'\	.	.	.	.	.	.	.	.	.	.	.	.	.	.	.	.	.	.
24ee'\JJ	.	.	.	.	.	.	.	.	.	.	.	.	.	.	.	.	.	.
=91	=91	=91	=91	=91	=91	=91	=91	=91	=91	=91	=91	=91	=91	=91	=91	=91	=91	=91
(4gg\	.	(4ee\	4b-\	.	(4e\	4B-\	.	(4dd\	4g\	.	[4cc\	.	2.r	.	8f\)	.	8F\)	.
.	.	.	.	.	.	.	.	.	.	.	.	.	.	.	8r	.	8r	.
8ff\)	.	8ff\)	8a\	.	8f\)	8A\	.	8cc/)	8c/	.	24cc\LL]	.	.	.	8F/	f	8FF/	f
.	.	.	.	.	.	.	.	.	.	.	24aa'\	.	.	.	.	.	.	.
.	.	.	.	.	.	.	.	.	.	.	24gg'\JJ	.	.	.	.	.	.	.
8r	.	8r	8r	.	8r	8r	.	8r	8r	.	24ff'\LL	.	.	.	8r	.	8r	.
.	.	.	.	.	.	.	.	.	.	.	24ee'\	.	.	.	.	.	.	.
.	.	.	.	.	.	.	.	.	.	.	24dd'\JJ	.	.	.	.	.	.	.
4r	.	4r	4r	.	4r	4r	.	4r	4r	.	(24cc\LL	.	.	.	4r	.	4r	.
.	.	.	.	.	.	.	.	.	.	.	24bn\	.	.	.	.	.	.	.
.	.	.	.	.	.	.	.	.	.	.	24b-\JJ	.	.	.	.	.	.	.
.	.	.	.	.	.	.	.	.	.	.	24a\LL	.	.	.	.	.	.	.
.	.	.	.	.	.	.	.	.	.	.	24b-\	.	.	.	.	.	.	.
.	.	.	.	.	.	.	.	.	.	.	24g\JJ)	.	.	.	.	.	.	.
=92	=92	=92	=92	=92	=92	=92	=92	=92	=92	=92	=92	=92	=92	=92	=92	=92	=92	=92
2.r	.	2.r	2.r	.	2.r	2.r	.	2.r	2.r	.	(8.f/L	.	4r	.	4r	.	4r	.
.	.	.	.	.	.	.	.	.	.	.	16c/Jk)	.	.	.	.	.	.	.
.	.	.	.	.	.	.	.	.	.	.	(4..a/	.	4r	.	4r	.	4r	.
.	.	.	.	.	.	.	.	.	.	.	.	.	(4A/	.	[4c\	p	(4F\	p
.	.	.	.	.	.	.	.	.	.	.	32g/LLL	.	.	.	.	.	.	.
.	.	.	.	.	.	.	.	.	.	.	32f/JJJ	.	.	.	.	.	.	.
=93	=93	=93	=93	=93	=93	=93	=93	=93	=93	=93	=93	=93	=93	=93	=93	=93	=93	=93
*	*	*	*	*	*v	*v	*	*	*	*	*	*	*	*	*	*	*	*
4r	.	2.r	2.r	.	4r	.	4r	4r	.	8e/)	.	8B-/)	.	8c\]	.	8G\)	.
.	.	.	.	.	.	.	.	.	.	8r	.	8r	.	8r	.	8r	.
32r	.	.	.	.	32r	.	8g/	8G/	f	8b-'\	f	8e/ 8G'/	f	8c/ 8C'/	f	8GG/	f
!	!	!	!	!	! I.	!	!	!	!	!	!	!	!	!	!	!	!
(32ff#\LLL	p	.	.	.	(32F#\LLL	p	.	.	.	.	.	.	.	.	.	.	.
32gg\	.	.	.	.	32G\	.	.	.	.	.	.	.	.	.	.	.	.
32ff#\JJJ	.	.	.	.	32F#\JJJ	.	.	.	.	.	.	.	.	.	.	.	.
32gg\LLL	.	.	.	.	32G\LLL	.	8r	8r	.	8r	.	8r	.	8r	.	8r	.
32aa\	.	.	.	.	32A\	.	.	.	.	.	.	.	.	.	.	.	.
32bb-\	.	.	.	.	32B-\	.	.	.	.	.	.	.	.	.	.	.	.
32aa\JJJ	.	.	.	.	32A\JJJ	.	.	.	.	.	.	.	.	.	.	.	.
32ccc\LLL	.	.	.	.	32c\LLL	.	4r	4r	.	8..r	.	8..r	.	8..r	.	8..r	.
32bb-\	.	.	.	.	32B-\	.	.	.	.	.	.	.	.	.	.	.	.
32aa\	.	.	.	.	32A\	.	.	.	.	.	.	.	.	.	.	.	.
32gg\JJJ	.	.	.	.	32G\JJJ	.	.	.	.	.	.	.	.	.	.	.	.
32aa\LLL	.	.	.	.	32A\LLL	.	.	.	.	.	.	.	.	.	.	.	.
32gg\	.	.	.	.	32G\	.	.	.	.	.	.	.	.	.	.	.	.
32ffn\	.	.	.	.	32Fn\	.	.	.	.	.	.	.	.	.	.	.	.
32ee\JJJ)	.	.	.	.	32E\JJJ)	.	.	.	.	(32e/	.	(32B-/	p	32c\	p	(32G\	p
=94	=94	=94	=94	=94	=94	=94	=94	=94	=94	=94	=94	=94	=94	=94	=94	=94	=94
4r	.	2.r	2.r	.	4r	.	4r	4r	.	8f/)	.	8A/)	.	8c\	.	8A\)	.
.	.	.	.	.	.	.	.	.	.	8r	.	8r	.	8r	.	8r	.
32r	.	.	.	.	32r	.	8cc/	8c/	f	8cc'\	f	8f/ 8A'/	f	8A'/	f	8AA/	f
(32gg#\LLL	p	.	.	.	(32G#\LLL	p	.	.	.	.	.	.	.	.	.	.	.
32aa\	.	.	.	.	32A\	.	.	.	.	.	.	.	.	.	.	.	.
32gg#\JJJ	.	.	.	.	32G#\JJJ	.	.	.	.	.	.	.	.	.	.	.	.
32aa\LLL	.	.	.	.	32A\LLL	.	8r	8r	.	8r	.	8r	.	8r	.	8r	.
32bbn\	.	.	.	.	32Bn\	.	.	.	.	.	.	.	.	.	.	.	.
32ccc\	.	.	.	.	32c\	.	.	.	.	.	.	.	.	.	.	.	.
32bb\JJJ	.	.	.	.	32B\JJJ	.	.	.	.	.	.	.	.	.	.	.	.
32ddd\LLL	.	.	.	.	32d\LLL	.	4r	4r	.	4r	.	4r	.	4r	.	4r	.
32ccc\	.	.	.	.	32c\	.	.	.	.	.	.	.	.	.	.	.	.
32bb-\	.	.	.	.	32B-\	.	.	.	.	.	.	.	.	.	.	.	.
32aa\JJJ	.	.	.	.	32A\JJJ	.	.	.	.	.	.	.	.	.	.	.	.
32bb-\LLL	.	.	.	.	32B-\LLL	.	.	.	.	.	.	.	.	.	.	.	.
32aa\	.	.	.	.	32A\	.	.	.	.	.	.	.	.	.	.	.	.
32ggn\	.	.	.	.	32Gn\	.	.	.	.	.	.	.	.	.	.	.	.
32ff\JJJ)	.	.	.	.	32F\JJJ)	.	.	.	.	.	.	.	.	.	.	.	.
=95	=95	=95	=95	=95	=95	=95	=95	=95	=95	=95	=95	=95	=95	=95	=95	=95	=95
*	*	*v	*v	*	*^	*	*	*	*	*	*	*	*	*	*	*	*
!	!	! a 2.	!	!	!	!	!	!	!	!	!	!	!	!	!	!	!
!	!	!	!	!	!	!	!	!	!	!	!	!	!	!	!	!	!
2.r	.	[4dd\	f	2.d\	2.B-\	ff	2.cc/	2.c/	f	[4dd\	f	(16d/LL	f	(16B-\LL	f	8BB-/L	f
.	.	.	.	.	.	.	.	.	.	.	.	16f/)	.	16d\)	.	.	.
.	.	.	.	.	.	.	.	.	.	.	.	16f'/	.	16d'\	.	8BB-/	.
.	.	.	.	.	.	.	.	.	.	.	.	16f'/JJ	.	16d'\JJ	.	.	.
.	.	(32dd\LLL]	.	.	.	.	.	.	.	(32dd\LLL]	.	(16d/LL	.	(16B-\LL	.	8BB-/	.
.	.	32ee\	.	.	.	.	.	.	.	32ee\	.	.	.	.	.	.	.
.	.	32dd\	.	.	.	.	.	.	.	32dd\	.	16f/)	.	16d\)	.	.	.
.	.	32cc#\JJJ	.	.	.	.	.	.	.	32cc#\JJJ	.	.	.	.	.	.	.
.	.	16dd\LL	.	.	.	.	.	.	.	16dd\LL	.	16f'/	.	16d'\	.	8BB-/	.
.	.	16ee\JJ	.	.	.	.	.	.	.	16ee\JJ	.	16f'/JJ	.	16d'\JJ	.	.	.
.	.	16gg\LL	.	.	.	.	.	.	.	16gg\LL	.	(16d/LL	.	(16B-\LL	.	8BB-/	.
.	.	16ff\	.	.	.	.	.	.	.	16ff\	.	16f/)	.	16d\)	.	.	.
.	.	16ee\	.	.	.	.	.	.	.	16ee\	.	16f'/	.	16d'\	.	8BB-/J	.
.	.	16dd\JJ)	.	.	.	.	.	.	.	16dd\JJ)	.	16f'/JJ	.	16d'\JJ	.	.	.
=96	=96	=96	=96	=96	=96	=96	=96	=96	=96	=96	=96	=96	=96	=96	=96	=96	=96
2.r	.	(8.dd\L	.	(2c\	2A\	.	2.g/	2.G/	.	(8.dd\L	.	(16A/LL	.	(16F/LL	.	8C/L	.
.	.	.	.	.	.	.	.	.	.	.	.	16f/)	.	16A/)	.	.	.
.	.	.	.	.	.	.	.	.	.	.	.	16f'/	.	16A'/	.	8C/	.
.	.	16ccn\Jk)	.	.	.	.	.	.	.	16ccn\Jk)	.	16f'/JJ	.	16A'/JJ	.	.	.
.	.	[4cc\	.	.	.	.	.	.	.	[4cc\	.	(16A/LL	.	(16F/LL	.	8C/	.
.	.	.	.	.	.	.	.	.	.	.	.	16f/)	.	16A/)	.	.	.
.	.	.	.	.	.	.	.	.	.	.	.	16f'/	.	16A'/	.	8C/	.
.	.	.	.	.	.	.	.	.	.	.	.	16f'/JJ	.	16A'/JJ	.	.	.
.	.	(16cc\LL]	.	4B-\)	4G\	.	.	.	.	(16cc\LL]	.	(16G/LL	.	(16E/LL	.	8C/	.
.	.	16cc#\	.	.	.	.	.	.	.	16cc#\	.	16e/)	.	16G/)	.	.	.
.	.	16dd\	.	.	.	.	.	.	.	16dd\	.	16e'/	.	16G'/	.	8C/J	.
.	.	16b-\JJ)	.	.	.	.	.	.	.	16b-\JJ)	.	16e'/JJ	.	16G'/JJ	.	.	.
=97	=97	=97	=97	=97	=97	=97	=97	=97	=97	=97	=97	=97	=97	=97	=97	=97	=97
*	*	*^	*	*	*	*	*	*	*	*	*	*	*	*	*	*	*
*	*	*	*	*	*v	*v	*	*	*	*	*	*	*	*	*	*	*	*
!	!	!	!	!	! [I.]	!	!	!	!	!	!	!	!	!	!	!	!
!	!	!	!	!	!	!	!	!	!	!	!	!	!	!	!	!	!
[4aa\	p	8a/	8a\	p	[4A\	p	2.r	2.r	.	[4a/	p	(16A/LL	p	(16E/LL	p	8C#/L	p
.	.	.	.	.	.	.	.	.	.	.	.	16g/)	.	16e/)	.	.	.
.	.	8r	8ryy	.	.	.	.	.	.	.	.	16g'/	.	16e'/	.	8C#/	.
.	.	.	.	.	.	.	.	.	.	.	.	16g'/JJ	.	16e'/JJ	.	.	.
(16aa\LL]	.	4r	4ryy	.	(16A\LL]	.	.	.	.	(16a/LL]	.	(16A/LL	.	(16F/LL	.	8D/	.
32bb-\L	.	.	.	.	32B-\L	.	.	.	.	32b-/L	.	16f/)	.	16d/)	.	.	.
32aa\	.	.	.	.	32A\	.	.	.	.	32a/	.	.	.	.	.	.	.
32gg#\	.	.	.	.	32G#\	.	.	.	.	32g#/	.	16f'/	.	16d'/	.	8D/	.
32aa\	.	.	.	.	32A\	.	.	.	.	32a/	.	.	.	.	.	.	.
32gg#\	.	.	.	.	32G#\	.	.	.	.	32g#/	.	16f'/JJ	.	16d'/JJ	.	.	.
32aa\JJJ	.	.	.	.	32A\JJJ	.	.	.	.	32a/JJJ	.	.	.	.	.	.	.
16ccc\LL	.	4r	4ryy	.	16c\LL	.	.	.	.	16cc/LL	.	(16G/LL	.	(16D/LL	.	8BB-/	.
16bb-\	.	.	.	.	16B-\	.	.	.	.	16b-/	.	16d/)	.	16B-/)	.	.	.
16aa\	.	.	.	.	16A\	.	.	.	.	16a/	.	16d'/	.	16B-'/	.	8BB-/J	.
16ggn\JJ)	.	.	.	.	16Gn\JJ)	.	.	.	.	16gn/JJ)	.	16d'/JJ	.	16B-'/JJ	.	.	.
=98	=98	=98	=98	=98	=98	=98	=98	=98	=98	=98	=98	=98	=98	=98	=98	=98	=98
(16.ccc\LL	.	2.r	2.r	.	(16.c\LL	.	2.r	2.r	.	(16.cc/LL	.	(16A/LL	.	(16C/LL	.	8Cn/L	.
.	.	.	.	.	.	.	.	.	.	.	.	16c/)	.	16A/)	.	.	.
32aa\JJk	.	.	.	.	32A\JJk	.	.	.	.	32a/JJk	.	.	.	.	.	.	.
4ff\	.	.	.	.	4F\	.	.	.	.	4f/	.	16c'/	.	16A'/	.	8C/	.
.	.	.	.	.	.	.	.	.	.	.	.	16c'/JJ	.	16A'/JJ	.	.	.
.	.	.	.	.	.	.	.	.	.	.	.	(16A/LL	.	(16C/LL	.	8C/	.
.	.	.	.	.	.	.	.	.	.	.	.	16c/)	.	16A/)	.	.	.
16gg\LL	.	.	.	.	16G\LL	.	.	.	.	16g/LL	.	16c'/	.	16A'/	.	8C/	.
16aa\JJ)	.	.	.	.	16A\JJ)	.	.	.	.	16a/JJ)	.	16c'/JJ	.	16A'/JJ	.	.	.
(16aa\LL	.	.	.	.	(16A\LL	.	.	.	.	(16a/LL	.	(16B-/LL	.	(16C/LL	.	8C/	.
16gg\	.	.	.	.	16G\	.	.	.	.	16g/	.	16c/)	.	16B-/)	.	.	.
16ff\	.	.	.	.	16F\	.	.	.	.	16f/	.	16c'/	.	16B-'/	.	8C/J	.
16ee\JJ)	.	.	.	.	16E\JJ)	.	.	.	.	16e/JJ)	.	16c'/JJ	.	16B-'/JJ	.	.	.
=99	=99	=99	=99	=99	=99	=99	=99	=99	=99	=99	=99	=99	=99	=99	=99	=99	=99
8ff\	.	2.r	2.r	.	8F\	.	24r	24r	.	8f/	.	8c/	.	8A/	.	8FF/	.
.	.	.	.	.	.	.	24g/LL	24G/LL	p	.	.	.	.	.	.	.	.
.	.	.	.	.	.	.	24g/	24G/	.	.	.	.	.	.	.	.	.
8r	.	.	.	.	8r	.	24g/	24G/	.	8r	.	8r	.	8r	.	8r	.
.	.	.	.	.	.	.	24g/	24G/	.	.	.	.	.	.	.	.	.
.	.	.	.	.	.	.	24g/JJ	24G/JJ	.	.	.	.	.	.	.	.	.
4r	.	.	.	.	4r	.	24g/LL	24G/LL	.	4r	.	4r	.	4r	.	4r	.
.	.	.	.	.	.	.	24g/	24G/	.	.	.	.	.	.	.	.	.
.	.	.	.	.	.	.	24g/	24G/	.	.	.	.	.	.	.	.	.
.	.	.	.	.	.	.	24g/	24G/	.	.	.	.	.	.	.	.	.
.	.	.	.	.	.	.	24g/	24G/	.	.	.	.	.	.	.	.	.
.	.	.	.	.	.	.	24g/JJ	24G/JJ	.	.	.	.	.	.	.	.	.
4r	.	.	.	.	4r	.	[4g/	[4G/	.	24r	.	(4B-/	.	(4G/	.	(4C/	.
.	.	.	.	.	.	.	.	.	.	(24e/LL	.	.	.	.	.	.	.
.	.	.	.	.	.	.	.	.	.	24g/	.	.	.	.	.	.	.
.	.	.	.	.	.	.	.	.	.	24b-/	.	.	.	.	.	.	.
.	.	.	.	.	.	.	.	.	.	24g/	.	.	.	.	.	.	.
.	.	.	.	.	.	.	.	.	.	24e/JJ)	.	.	.	.	.	.	.
=100	=100	=100	=100	=100	=100	=100	=100	=100	=100	=100	=100	=100	=100	=100	=100	=100	=100
*	*	*	*	*	*^	*	*	*	*	*	*	*	*	*	*	*	*
2r	.	2.r	2.r	.	2.r	2.r	.	24g/LL]	24G/LL]	pp	8f/	.	8A/)	.	8F/)	.	8F\)	.
.	.	.	.	.	.	.	.	24g/	24G/	.	.	.	.	.	.	.	.	.
.	.	.	.	.	.	.	.	24g/	24G/	.	.	.	.	.	.	.	.	.
.	.	.	.	.	.	.	.	24g/	24G/	.	8r	.	8r	.	8r	.	8r	.
.	.	.	.	.	.	.	.	24g/	24G/	.	.	.	.	.	.	.	.	.
.	.	.	.	.	.	.	.	24g/JJ	24G/JJ	.	.	.	.	.	.	.	.	.
.	.	.	.	.	.	.	.	24g/LL	24G/LL	.	4r	.	4r	.	4r	.	4r	.
.	.	.	.	.	.	.	.	24g/	24G/	.	.	.	.	.	.	.	.	.
.	.	.	.	.	.	.	.	24g/	24G/	.	.	.	.	.	.	.	.	.
.	.	.	.	.	.	.	.	24g/	24G/	.	.	.	.	.	.	.	.	.
.	.	.	.	.	.	.	.	24g/	24G/	.	.	.	.	.	.	.	.	.
.	.	.	.	.	.	.	.	24g/JJ	24G/JJ	.	.	.	.	.	.	.	.	.
24r	.	.	.	.	.	.	.	[4g/	[4G/	.	24r	.	4B-/	pp	(8.E/L	pp	(4C/	pp
(24gg\LL	pp	.	.	.	.	.	.	.	.	.	(24g/LL	pp	.	.	.	.	.	.
24bb-\	.	.	.	.	.	.	.	.	.	.	24b-/	.	.	.	.	.	.	.
24ddd\	.	.	.	.	.	.	.	.	.	.	24dd/	.	.	.	.	.	.	.
24ccc\	.	.	.	.	.	.	.	.	.	.	24cc/	.	.	.	.	.	.	.
.	.	.	.	.	.	.	.	.	.	.	.	.	.	.	16G/Jk)	.	.	.
24ee\JJ)	.	.	.	.	.	.	.	.	.	.	24e/JJ)	.	.	.	.	.	.	.
=101	=101	=101	=101	=101	=101	=101	=101	=101	=101	=101	=101	=101	=101	=101	=101	=101	=101	=101
(4gg\	.	(4ee\	4b-\	pp	(4e\	(4G\	pppp	4g/_	(4G/]	.	(4g/	.	(4B-/	.	(4E/	.	4.FF/)	.
8ff\)	.	8ff\)	8a\	.	8f\)	8A\)	.	8g/]	8c/)	.	8f/)	.	8A/)	.	8F/)	.	.	.
8r	.	8r	8r	.	8r	8r	.	8r	8r	.	8r	.	8r	.	8r	.	8r	.
4r	.	4r	4r	.	4r	4r	.	4r	4r	.	4r	.	4r	.	4r	.	4r	.
==|!	==|!	==|!	==|!	==|!	==|!	==|!	==|!	==|!	==|!	==|!	==|!	==|!	==|!	==|!	==|!	==|!	==|!	==|!
*-	*-	*-	*-	*-	*-	*-	*-	*-	*-	*-	*-	*-	*-	*-	*-	*-	*-	*-
!!!RWG: Key is interpreted using the Humdrum key tool.
!!!OPT: Jupiter
!!!AFT: stage2
!!!END: 1996/07/25
!!format changes:
!!content changes:
!!public access: complete
!!!KEY: 3278398197
!!!EMD: Converted from MuseData to Humdrum Dec 16, 2000, by Andreas Kornstaedt using muse2kern.
